luts/01_Best LUTs_Boost Shadow.cube
LUT_3D_SIZE 6
-0.024499 -0.020333 0.000000
0.125031 -0.022464 0.000000
0.349738 -0.027729 0.000000
0.632484 -0.031685 0.000000
0.874065 -0.033912 0.000000
1.088666 -0.034108 0.000000
-0.027264 0.103243 0.000000
0.124098 0.102482 0.000000
0.349738 0.146423 0.000000
0.632484 0.179534 0.000000
0.874065 0.188558 0.000000
1.088666 0.187818 0.000000
-0.033293 0.291138 0.000000
0.171179 0.291138 0.000000
0.343870 0.293261 0.000000
0.632484 0.369582 0.000000
0.874065 0.390488 0.000000
1.088666 0.386993 0.000000
-0.038063 0.550932 0.000000
0.211332 0.550932 0.000000
0.426339 0.550932 0.000000
0.627440 0.551536 0.000000
0.873182 0.591885 0.000000
1.088666 0.584644 0.000000
-0.040601 0.797359 0.000000
0.227299 0.797359 0.000000
0.458259 0.797359 0.000000
0.674303 0.797359 0.000000
0.871368 0.788120 0.000000
1.088666 0.783150 0.000000
-0.037826 1.080280 -0.015622
0.236589 1.080280 -0.017406
0.464036 1.080280 -0.021278
0.669409 1.080280 -0.024364
0.865742 1.080291 -0.026072
1.090029 1.081978 -0.026310
-0.025853 -0.517544 0.085677
0.110352 -0.517518 0.090512
0.329556 -0.517518 0.125965
0.623451 -0.517518 0.156713
0.873182 -0.517518 0.167682
1.089374 -0.517518 0.165133
-0.024499 0.102713 0.084519
0.125031 0.103941 0.084219
0.349737 0.102636 0.082380
0.632484 0.097010 0.079153
0.874064 0.090931 0.076509
1.088666 0.090164 0.076782
-0.024499 0.291138 0.116060
0.125169 0.291138 0.081845
0.345764 0.294282 0.085534
0.632484 0.356044 0.085534
0.874065 0.372932 0.085534
1.088666 0.366456 0.085534
-0.024499 0.550932 0.145001
0.122134 0.550931 0.078363
0.412478 0.550931 0.085534
0.628332 0.551852 0.085534
0.874065 0.585595 0.085534
1.088666 0.575552 0.085534
-0.024499 0.797359 0.156661
0.116873 0.797359 0.076378
0.437609 0.797359 0.085534
0.667715 0.797359 0.085534
0.872216 0.789658 0.085534
1.088666 0.779360 0.085534
-0.025767 1.080280 0.155154
0.121048 1.080280 0.064420
0.439519 1.080280 0.063551
0.659066 1.080280 0.044561
0.860986 1.080289 0.021354
1.090131 1.082109 0.011615
-0.029363 -0.517581 0.229132
0.172403 -0.517519 0.233686
0.342194 -0.517518 0.249932
0.628459 -0.517518 0.315788
0.874986 -0.517518 0.337919
1.089493 -0.517518 0.334123
-0.024499 0.139151 0.230421
0.119025 0.096008 0.230421
0.347787 0.103243 0.238296
0.632484 0.103243 0.286307
0.874065 0.103243 0.301843
1.088666 0.103243 0.296385
-0.024499 0.288280 0.233908
0.125031 0.289459 0.232865
0.349799 0.293379 0.229962
0.632484 0.297180 0.227893
0.874064 0.293499 0.226143
1.088666 0.291544 0.226464
-0.024499 0.550932 0.297355
0.125031 0.550931 0.282497
0.356115 0.550932 0.227824
0.630881 0.551844 0.230421
0.874064 0.563398 0.230421
1.088666 0.548402 0.230421
-0.024499 0.797359 0.321740
0.125031 0.797359 0.300884
0.354378 0.797359 0.226391
0.646670 0.797359 0.230421
0.873182 0.789686 0.230421
1.088666 0.768607 0.230421
-0.027723 1.080280 0.315314
0.112200 1.080280 0.290328
0.347110 1.080280 0.210528
0.627947 1.080280 0.204080
0.849579 1.080310 0.194385
1.090361 1.082390 0.192452
-0.032325 -0.517652 0.452964
0.218459 -0.517519 0.455424
0.427348 -0.517518 0.459907
0.630024 -0.517518 0.473218
0.875883 -0.517518 0.511118
1.089544 -0.517518 0.506500
-0.024499 0.174290 0.447606
0.112429 0.086167 0.447606
0.403870 0.103243 0.447606
0.629760 0.103243 0.458365
0.874065 0.103243 0.486546
1.088666 0.103243 0.478579
-0.024499 0.357532 0.447606
0.125031 0.343840 0.447606
0.347873 0.287074 0.447606
0.631506 0.291138 0.450929
0.874065 0.291138 0.460215
1.088666 0.291138 0.449624
-0.024499 0.547661 0.454680
0.125031 0.548790 0.454292
0.349738 0.549901 0.448199
0.632484 0.550688 0.447463
0.874065 0.545273 0.446830
1.088666 0.541855 0.447252
-0.024499 0.797359 0.497034
0.125031 0.797359 0.490339
0.349738 0.797359 0.461819
0.627276 0.797359 0.446651
0.874065 0.789443 0.447606
1.088666 0.766078 0.447606
-0.029163 1.080280 0.479814
0.102666 1.080280 0.468138
0.332973 1.080280 0.434170
0.613680 1.080280 0.428157
0.845142 1.080312 0.421800
1.090476 1.082570 0.419668
-0.033924 -0.517642 0.694947
0.242040 -0.517517 0.696018
0.473567 -0.517518 0.697803
0.682939 -0.517518 0.698638
0.874986 -0.517518 0.690412
1.089533 -0.517518 0.685002
-0.024499 0.192640 0.683026
0.107354 0.079245 0.683026
0.438431 0.103243 0.683026
0.668808 0.103243 0.683026
0.873182 0.103243 0.674825
1.088666 0.103243 0.665640
-0.024499 0.395175 0.683026
0.125031 0.375600 0.683026
0.346648 0.284040 0.683026
0.649048 0.291138 0.683026
0.874065 0.291138 0.673406
1.088666 0.291138 0.653359
-0.024499 0.596605 0.683026
0.125031 0.589094 0.683026
0.349738 0.567365 0.683026
0.630826 0.549765 0.683026
0.874065 0.550931 0.675029
1.088666 0.550931 0.658408
-0.024499 0.795130 0.679992
0.125031 0.795088 0.679286
0.349738 0.796235 0.677343
0.632484 0.796963 0.681026
0.873182 0.792688 0.681401
1.088666 0.791561 0.684127
-0.029948 1.080280 0.653568
0.096639 1.080280 0.649687
0.325676 1.080280 0.633803
0.621353 1.080280 0.645396
0.864108 1.080298 0.663796
1.090162 1.082134 0.666064
-0.034060 -0.517646 0.885894
0.241345 -0.517518 0.885934
0.471812 -0.517518 0.886486
0.680331 -0.517518 0.886650
0.880613 -0.517518 0.886799
1.090674 -0.517518 0.871917
-0.024499 0.192151 0.874127
0.105330 0.080876 0.874127
0.435207 0.103243 0.874127
0.663709 0.103243 0.874127
0.876795 0.103243 0.874731
1.091548 0.103243 0.861232
-0.024499 0.394138 0.874127
0.125031 0.371935 0.874127
0.345278 0.284677 0.874127
0.635207 0.291138 0.874127
0.867516 0.291138 0.874127
1.092070 0.291138 0.860004
-0.024499 0.595146 0.874127
0.125031 0.586476 0.874127
0.349738 0.555197 0.874127
0.627997 0.551238 0.874127
0.863627 0.550931 0.874127
1.092252 0.550931 0.862630
-0.024499 0.797005 0.874127
0.125031 0.793574 0.874127
0.349738 0.783102 0.874127
0.632484 0.781946 0.874127
0.876795 0.798265 0.874843
1.091463 0.797359 0.871257
-0.024499 1.001664 0.861569
0.125031 1.001870 0.861080
0.349738 1.002317 0.859991
0.632484 1.002494 0.864975
0.874065 1.001697 0.874945
1.088666 0.999214 0.874127
