luts/01_Best LUTs_Boost Shadow.cube
LUT_3D_SIZE 16
-0.024499 -0.020333 0.000000
0.021061 -0.020460 0.000000
0.071169 -0.021109 0.000000
0.125031 -0.022464 0.000000
0.185567 -0.024266 0.000000
0.264277 -0.026103 0.000000
0.349738 -0.027729 0.000000
0.444219 -0.029220 0.000000
0.541092 -0.030570 0.000000
0.632484 -0.031685 0.000000
0.719341 -0.032564 0.000000
0.797100 -0.033269 0.000000
0.874065 -0.033912 0.000000
0.950430 -0.034353 0.000000
1.021422 -0.034353 0.000000
1.088666 -0.034108 0.000000
-0.024768 0.016200 0.000000
0.020609 0.015965 0.000000
0.071169 0.017080 0.000000
0.124544 0.021205 0.000000
0.185567 0.024157 0.000000
0.264277 0.028635 0.000000
0.349738 0.030437 0.000000
0.444219 0.033627 0.000000
0.541092 0.036237 0.000000
0.632484 0.037733 0.000000
0.719341 0.039311 0.000000
0.797100 0.039138 0.000000
0.874065 0.040354 0.000000
0.950430 0.041170 0.000000
1.021422 0.040692 0.000000
1.088666 0.038786 0.000000
-0.025701 0.060425 0.000000
0.024526 0.060409 0.000000
0.070327 0.059421 0.000000
0.124206 0.066834 0.000000
0.185567 0.074941 0.000000
0.264277 0.085591 0.000000
0.349738 0.092988 0.000000
0.444219 0.101661 0.000000
0.541092 0.109033 0.000000
0.632484 0.114130 0.000000
0.719341 0.118240 0.000000
0.797100 0.119570 0.000000
0.874065 0.122255 0.000000
0.950430 0.123352 0.000000
1.021422 0.122031 0.000000
1.088666 0.119235 0.000000
-0.027264 0.103243 0.000000
0.027196 0.103243 0.000000
0.079731 0.103243 0.000000
0.124098 0.102482 0.000000
0.184612 0.116899 0.000000
0.264277 0.132884 0.000000
0.349738 0.146423 0.000000
0.444219 0.159950 0.000000
0.541092 0.171534 0.000000
0.632484 0.179534 0.000000
0.719341 0.183972 0.000000
0.797100 0.188166 0.000000
0.874065 0.188558 0.000000
0.950430 0.192119 0.000000
1.021422 0.191980 0.000000
1.088666 0.187818 0.000000
-0.029200 0.154762 0.000000
0.030142 0.154762 0.000000
0.088056 0.154762 0.000000
0.137575 0.154762 0.000000
0.183648 0.153913 0.000000
0.263245 0.179304 0.000000
0.349738 0.198488 0.000000
0.444219 0.216772 0.000000
0.541092 0.232429 0.000000
0.632484 0.243223 0.000000
0.719341 0.251685 0.000000
0.797100 0.254907 0.000000
0.874065 0.258712 0.000000
0.950430 0.261080 0.000000
1.021422 0.260160 0.000000
1.088666 0.254702 0.000000
-0.031275 0.217310 0.000000
0.033611 0.217310 0.000000
0.098273 0.217310 0.000000
0.153814 0.217310 0.000000
0.205229 0.216367 0.000000
0.259127 0.218776 0.000000
0.348946 0.248756 0.000000
0.444219 0.273107 0.000000
0.541092 0.292808 0.000000
0.632484 0.306434 0.000000
0.719341 0.317144 0.000000
0.797100 0.321248 0.000000
0.874065 0.324797 0.000000
0.950430 0.327696 0.000000
1.021422 0.327877 0.000000
1.088666 0.320974 0.000000
-0.033293 0.291138 0.000000
0.037410 0.291138 0.000000
0.107904 0.291138 0.000000
0.171179 0.291138 0.000000
0.228290 0.290132 0.000000
0.286761 0.291628 0.000000
0.343870 0.293261 0.000000
0.443243 0.327846 0.000000
0.541092 0.353094 0.000000
0.632484 0.369582 0.000000
0.719341 0.380748 0.000000
0.797100 0.387458 0.000000
0.874065 0.390488 0.000000
0.950430 0.395787 0.000000
1.021422 0.395176 0.000000
1.088666 0.386993 0.000000
-0.035147 0.373801 0.000000
0.040956 0.373801 0.000000
0.118644 0.373801 0.000000
0.185721 0.373801 0.000000
0.249356 0.372913 0.000000
0.314473 0.373499 0.000000
0.374744 0.373172 0.000000
0.437774 0.376649 0.000000
0.540037 0.411596 0.000000
0.632484 0.432443 0.000000
0.719430 0.445870 0.000000
0.797100 0.453416 0.000000
0.874065 0.457707 0.000000
0.950430 0.463543 0.000000
1.021422 0.462406 0.000000
1.088666 0.452812 0.000000
-0.036759 0.462739 0.000000
0.044209 0.462739 0.000000
0.127937 0.462739 0.000000
0.200133 0.462739 0.000000
0.269266 0.462739 0.000000
0.339094 0.462931 0.000000
0.404794 0.462739 0.000000
0.469649 0.462780 0.000000
0.535024 0.465117 0.000000
0.631626 0.494078 0.000000
0.718706 0.510595 0.000000
0.797292 0.517683 0.000000
0.874065 0.526777 0.000000
0.950430 0.529689 0.000000
1.021422 0.529629 0.000000
1.088666 0.518745 0.000000
-0.038063 0.550932 0.000000
0.046562 0.550932 0.000000
0.135437 0.550932 0.000000
0.211332 0.550932 0.000000
0.285005 0.550932 0.000000
0.354592 0.550932 0.000000
0.426339 0.550932 0.000000
0.494956 0.550932 0.000000
0.561954 0.551078 0.000000
0.627440 0.551536 0.000000
0.718560 0.574258 0.000000
0.797290 0.583718 0.000000
0.873182 0.591885 0.000000
0.950430 0.597761 0.000000
1.021422 0.597067 0.000000
1.088666 0.584644 0.000000
-0.039093 0.636225 0.000000
0.048449 0.636225 0.000000
0.138926 0.636225 0.000000
0.219619 0.636225 0.000000
0.294487 0.636225 0.000000
0.370318 0.636225 0.000000
0.441452 0.636225 0.000000
0.512321 0.636225 0.000000
0.581922 0.636225 0.000000
0.649685 0.636067 0.000000
0.713782 0.635709 0.000000
0.797471 0.650055 0.000000
0.873182 0.657418 0.000000
0.950430 0.664014 0.000000
1.021422 0.664488 0.000000
1.088666 0.650602 0.000000
-0.039920 0.718408 0.000000
0.049546 0.718408 0.000000
0.142384 0.718408 0.000000
0.224932 0.718408 0.000000
0.301346 0.718408 0.000000
0.377091 0.718408 0.000000
0.451720 0.718408 0.000000
0.524174 0.718408 0.000000
0.595178 0.718408 0.000000
0.665033 0.718440 0.000000
0.731135 0.717600 0.000000
0.795332 0.713553 0.000000
0.873182 0.726535 0.000000
0.950430 0.732260 0.000000
1.021422 0.732160 0.000000
1.088666 0.716848 0.000000
-0.040601 0.797359 0.000000
0.050017 0.797359 0.000000
0.145650 0.797359 0.000000
0.227299 0.797359 0.000000
0.306704 0.797359 0.000000
0.383559 0.797359 0.000000
0.458259 0.797359 0.000000
0.531706 0.797359 0.000000
0.603585 0.797359 0.000000
0.674303 0.797359 0.000000
0.743397 0.797359 0.000000
0.810202 0.795974 0.000000
0.871368 0.788120 0.000000
0.949518 0.799723 0.000000
1.021422 0.799795 0.000000
1.088666 0.783150 0.000000
-0.041102 0.872941 0.000000
0.050391 0.872941 0.000000
0.146878 0.872941 0.000000
0.229160 0.872941 0.000000
0.308896 0.872941 0.000000
0.386280 0.872941 0.000000
0.461566 0.872941 0.000000
0.535430 0.872941 0.000000
0.607830 0.872941 0.000000
0.678797 0.872941 0.000000
0.748336 0.872941 0.000000
0.819033 0.872941 0.000000
0.885887 0.871698 0.000000
0.948614 0.865544 0.000000
1.021206 0.867904 0.000000
1.088666 0.849882 0.000000
-0.041212 0.943442 0.000000
0.050897 0.943442 0.000000
0.147355 0.943442 0.000000
0.229669 0.943442 0.000000
0.308972 0.943442 0.000000
0.386363 0.943442 0.000000
0.461861 0.943442 0.000000
0.535619 0.943442 0.000000
0.607955 0.943442 0.000000
0.678963 0.943442 0.000000
0.748766 0.943442 0.000000
0.817689 0.943442 0.000000
0.887754 0.943678 0.000000
0.956604 0.941432 0.000000
1.022839 0.938100 0.000000
1.089354 0.917474 0.000000
-0.037826 1.080280 -0.015622
0.061787 1.080280 -0.015734
0.154278 1.080280 -0.016303
0.236589 1.080280 -0.017406
0.315172 1.080280 -0.018664
0.390949 1.080280 -0.019950
0.464036 1.080280 -0.021278
0.534390 1.080280 -0.022509
0.602676 1.080280 -0.023556
0.669409 1.080280 -0.024364
0.734940 1.080280 -0.025031
0.799903 1.080280 -0.025665
0.865742 1.080291 -0.026072
0.930242 1.080302 -0.026293
0.999012 1.080853 -0.026403
1.090029 1.081978 -0.026310
-0.029820 -0.517518 0.027190
-0.039612 -0.517518 0.027120
0.042805 -0.517518 0.027804
0.098360 -0.517518 0.031165
0.158348 -0.517518 0.034544
0.238741 -0.517518 0.038400
0.326917 -0.517518 0.043290
0.425461 -0.517518 0.047594
0.526957 -0.517518 0.051294
0.622630 -0.517518 0.053955
0.713222 -0.517518 0.055225
0.794867 -0.517518 0.057271
0.873182 -0.517518 0.057720
0.952202 -0.517518 0.057294
1.023280 -0.517518 0.057919
1.089354 -0.517518 0.056889
-0.024499 0.016207 0.024921
0.021062 0.016200 0.025021
0.071169 0.015379 0.025121
0.125031 0.007173 0.025067
0.185567 -0.019134 0.025175
0.264277 -0.027487 0.025415
0.349738 -0.033538 0.025518
0.444219 -0.038290 0.025405
0.541092 -0.042088 0.025045
0.632484 -0.045071 0.024532
0.719341 -0.047293 0.023890
0.797099 -0.048953 0.023088
0.874065 -0.050385 0.022481
0.950430 -0.051399 0.021995
1.021422 -0.051571 0.021707
1.088666 -0.051103 0.021826
-0.024499 0.060425 0.026426
0.019360 0.060425 0.024922
0.070327 0.059371 0.023827
0.124969 0.066063 0.024868
0.185567 0.072386 0.025100
0.264277 0.080307 0.025100
0.349738 0.087850 0.025100
0.444219 0.095195 0.025100
0.541092 0.101544 0.025100
0.632484 0.105863 0.025100
0.719341 0.109550 0.025100
0.797099 0.110157 0.025100
0.874065 0.112437 0.025100
0.950430 0.112325 0.025100
1.021422 0.112654 0.025100
1.088666 0.110053 0.025100
-0.024499 0.103243 0.028685
0.011080 0.103243 0.024812
0.078479 0.103243 0.024945
0.124889 0.102949 0.025296
0.184612 0.115714 0.025100
0.264277 0.131237 0.025100
0.349738 0.144130 0.025100
0.444219 0.156941 0.025100
0.541092 0.167872 0.025100
0.632484 0.175432 0.025100
0.719341 0.180895 0.025100
0.797099 0.182769 0.025100
0.874065 0.185406 0.025100
0.950430 0.187467 0.025100
1.021422 0.187177 0.025100
1.088666 0.183196 0.025100
-0.024499 0.154762 0.031818
-0.021594 0.154762 0.024783
0.085771 0.154762 0.024958
0.138910 0.154762 0.024738
0.183648 0.154194 0.025100
0.263245 0.177461 0.025100
0.349738 0.197406 0.025100
0.444219 0.215078 0.025100
0.541092 0.230300 0.025100
0.632484 0.240872 0.025100
0.719341 0.248357 0.025100
0.797099 0.251202 0.025100
0.874065 0.255474 0.025100
0.950430 0.258011 0.025100
1.021422 0.257133 0.025100
1.088666 0.251741 0.025100
-0.024499 0.217310 0.035568
-0.031471 0.217310 0.024818
0.093226 0.217310 0.025096
0.152513 0.217310 0.024885
0.205710 0.216057 0.025100
0.259127 0.217636 0.025100
0.349013 0.248409 0.025100
0.444219 0.272166 0.025100
0.541092 0.291547 0.025100
0.632484 0.304966 0.025100
0.719341 0.314579 0.025100
0.797099 0.318344 0.025100
0.874065 0.324209 0.025100
0.950430 0.325461 0.025100
1.021422 0.325737 0.025100
1.088666 0.318897 0.025100
-0.024499 0.291138 0.039612
-0.038693 0.291138 0.024915
0.101677 0.291138 0.025089
0.169193 0.291138 0.024964
0.228160 0.291386 0.025100
0.284511 0.290241 0.025100
0.344035 0.293365 0.025100
0.443269 0.327460 0.025100
0.541092 0.352303 0.025100
0.632484 0.368552 0.025100
0.719341 0.380252 0.025100
0.797099 0.384868 0.025100
0.874065 0.390441 0.025100
0.950430 0.394160 0.025100
1.021422 0.393699 0.025100
1.088666 0.385450 0.025100
-0.024499 0.373801 0.043538
-0.044533 0.373801 0.024888
0.110819 0.373801 0.024029
0.183315 0.373801 0.025008
0.248643 0.374047 0.025100
0.313563 0.373632 0.025100
0.374361 0.373154 0.025100
0.437898 0.376717 0.025100
0.540064 0.411307 0.025100
0.632484 0.431730 0.025100
0.719384 0.445594 0.025100
0.797099 0.452673 0.025100
0.874065 0.458010 0.025100
0.950430 0.460627 0.025100
1.021422 0.461333 0.025100
1.088666 0.451666 0.025100
-0.024499 0.462739 0.047107
-0.049095 0.462739 0.024654
0.118616 0.462739 0.025192
0.198057 0.462739 0.025039
0.267444 0.462739 0.025100
0.335821 0.462950 0.025100
0.404091 0.462739 0.025100
0.469306 0.462763 0.025100
0.535119 0.465142 0.025100
0.631655 0.493761 0.025100
0.718819 0.510578 0.025100
0.797293 0.519047 0.025100
0.874065 0.525651 0.025100
0.950430 0.528747 0.025100
1.021422 0.528892 0.025100
1.088666 0.517777 0.025100
-0.024499 0.550932 0.049803
-0.052733 0.550931 0.024239
0.124415 0.550932 0.025071
0.206976 0.550931 0.025130
0.282868 0.550931 0.025100
0.354651 0.550931 0.025100
0.425321 0.550931 0.025100
0.494359 0.550931 0.025100
0.561698 0.551086 0.025100
0.627511 0.551540 0.025100
0.718378 0.574347 0.025100
0.797365 0.583710 0.025100
0.874064 0.591576 0.025100
0.950430 0.596994 0.025100
1.021422 0.596441 0.025100
1.088666 0.583937 0.025100
-0.024499 0.636225 0.051725
-0.055592 0.636225 0.023760
0.130314 0.636225 0.026231
0.215788 0.636225 0.025350
0.292207 0.636225 0.025100
0.366528 0.636225 0.025100
0.440290 0.636225 0.025100
0.511572 0.636225 0.025100
0.581437 0.636225 0.025100
0.649382 0.636068 0.025100
0.715424 0.636220 0.025100
0.797270 0.650201 0.025100
0.873182 0.658554 0.025100
0.950430 0.663613 0.025100
1.021422 0.664007 0.025100
1.088666 0.650057 0.025100
-0.024499 0.718408 0.053065
-0.057572 0.718408 0.023283
0.131897 0.718408 0.023899
0.220431 0.718408 0.024893
0.298982 0.718408 0.025100
0.375017 0.718408 0.025100
0.450334 0.718408 0.025100
0.523209 0.718408 0.025100
0.594534 0.718408 0.025100
0.664619 0.718440 0.025100
0.732566 0.718295 0.025100
0.794869 0.713792 0.025100
0.873182 0.724305 0.025100
0.950430 0.730456 0.025100
1.021422 0.731936 0.025100
1.088666 0.716453 0.025100
-0.024499 0.797359 0.053928
-0.059134 0.797359 0.022681
0.133560 0.797359 0.023879
0.222753 0.797359 0.025262
0.302500 0.797359 0.025100
0.381333 0.797359 0.025100
0.456759 0.797359 0.025100
0.530594 0.797359 0.025100
0.602854 0.797359 0.025100
0.673703 0.797359 0.025100
0.742249 0.797359 0.025100
0.811581 0.796357 0.025100
0.871368 0.789633 0.025100
0.949518 0.797785 0.025100
1.021422 0.799673 0.025100
1.088666 0.782760 0.025100
-0.024499 0.872941 0.054380
-0.060473 0.872941 0.022055
0.135232 0.872941 0.026184
0.224812 0.872941 0.024857
0.304566 0.872941 0.025100
0.384024 0.872941 0.025100
0.459943 0.872941 0.025100
0.534284 0.872941 0.025100
0.606966 0.872941 0.025100
0.678248 0.872941 0.025100
0.749014 0.872941 0.025100
0.816716 0.872941 0.025100
0.885887 0.871293 0.025100
0.948614 0.865485 0.025100
1.021241 0.867785 0.025100
1.088666 0.849830 0.025100
-0.024499 0.943442 0.054400
-0.060850 0.943442 0.021814
0.135946 0.943442 0.024902
0.224441 0.943442 0.024795
0.306354 0.943442 0.025100
0.383941 0.943442 0.025100
0.460185 0.943442 0.025100
0.534437 0.943442 0.025100
0.607010 0.943442 0.025100
0.678300 0.943442 0.025100
0.747598 0.943442 0.025100
0.816997 0.943442 0.025100
0.888060 0.943713 0.025100
0.955703 0.942139 0.025100
1.022938 0.938121 0.025100
1.089358 0.917454 0.025100
-0.024768 1.080280 0.049146
-0.052860 1.080280 -0.021196
0.142510 1.080280 -0.011445
0.231120 1.080280 -0.016724
0.312254 1.080280 -0.022753
0.388300 1.080280 -0.027709
0.462199 1.080280 -0.032007
0.533017 1.080280 -0.035650
0.601636 1.080280 -0.038577
0.668680 1.080280 -0.040750
0.733814 1.080280 -0.042506
0.800630 1.080280 -0.044142
0.864237 1.080291 -0.045321
0.930447 1.080302 -0.046017
0.998884 1.080853 -0.046156
1.090037 1.081978 -0.045781
-0.025032 -0.517528 0.055278
-0.018789 -0.517521 0.056194
0.049612 -0.517517 0.056112
0.100087 -0.517517 0.060079
0.158797 -0.517518 0.067369
0.240078 -0.517518 0.075002
0.327467 -0.517518 0.084244
0.425816 -0.517518 0.092493
0.527217 -0.517518 0.099595
0.622810 -0.517518 0.104664
0.713529 -0.517518 0.106993
0.794095 -0.517518 0.111001
0.873182 -0.517518 0.111797
0.952202 -0.517518 0.112123
1.023289 -0.517518 0.112188
1.089358 -0.517518 0.110129
-0.024768 0.021123 0.052902
0.020647 0.016172 0.052943
0.071169 0.016116 0.052320
0.124544 0.016993 0.056014
0.185567 0.016200 0.063075
0.264277 0.016200 0.070695
0.349738 0.016200 0.077001
0.444219 0.016200 0.083980
0.541092 0.016200 0.089913
0.632484 0.016200 0.094144
0.719341 0.016200 0.097225
0.797099 0.016200 0.097736
0.874065 0.016200 0.099930
0.950430 0.016200 0.100621
1.021422 0.016200 0.100564
1.088666 0.016200 0.098669
-0.024499 0.060325 0.052273
0.021061 0.060504 0.052592
0.071169 0.058572 0.051366
0.125031 0.060458 0.052520
0.185567 0.058770 0.051750
0.264277 0.055475 0.050636
0.349738 0.051129 0.049256
0.444219 0.046663 0.048786
0.541092 0.042299 0.049282
0.632484 0.037986 0.049869
0.719341 0.033205 0.050192
0.797099 0.028907 0.050524
0.874065 0.025485 0.050446
0.950430 0.022439 0.050168
1.021422 0.021369 0.050021
1.088666 0.023262 0.049993
-0.024499 0.103243 0.056783
0.021061 0.103258 0.056473
0.070834 0.103243 0.051113
0.125908 0.103592 0.054206
0.184612 0.112146 0.052902
0.264277 0.125056 0.052902
0.349738 0.133430 0.052902
0.444219 0.143092 0.052902
0.541092 0.151360 0.052902
0.632484 0.157057 0.052902
0.719341 0.160728 0.052902
0.797099 0.164175 0.052902
0.874065 0.163981 0.052902
0.950430 0.164502 0.052902
1.021422 0.165323 0.052902
1.088666 0.161996 0.052902
-0.024499 0.154762 0.062557
0.021061 0.154762 0.061680
0.069315 0.154762 0.050674
0.134538 0.154762 0.053298
0.184612 0.155459 0.052902
0.263245 0.174631 0.052902
0.349738 0.192151 0.052902
0.444219 0.207715 0.052902
0.541092 0.221112 0.052902
0.632484 0.230301 0.052902
0.719341 0.236940 0.052902
0.797099 0.239952 0.052902
0.874065 0.243312 0.052902
0.950430 0.243372 0.052902
1.021422 0.244044 0.052902
1.088666 0.238990 0.052902
-0.024499 0.217310 0.069542
0.021061 0.217310 0.068042
0.066031 0.217310 0.049658
0.146747 0.217310 0.054319
0.202374 0.216150 0.052902
0.260153 0.219234 0.052902
0.349035 0.246181 0.052902
0.444219 0.268160 0.052902
0.541092 0.286027 0.052902
0.632484 0.298362 0.052902
0.719341 0.306695 0.052902
0.797099 0.310758 0.052902
0.874065 0.314369 0.052902
0.950430 0.318265 0.052902
1.021422 0.316693 0.052902
1.088666 0.310124 0.052902
-0.024499 0.291138 0.077126
0.021061 0.291138 0.075060
0.062602 0.291138 0.049254
0.157838 0.291138 0.054375
0.223120 0.291909 0.052902
0.283806 0.290764 0.052902
0.344618 0.293742 0.052902
0.443336 0.325689 0.052902
0.541092 0.349118 0.052902
0.632484 0.364400 0.052902
0.719341 0.374722 0.052902
0.797099 0.381513 0.052902
0.874065 0.384928 0.052902
0.950430 0.387454 0.052902
1.021422 0.387134 0.052902
1.088666 0.379037 0.052902
-0.024499 0.373801 0.084526
0.021061 0.373801 0.081984
0.057320 0.373801 0.046771
0.169578 0.373801 0.053268
0.240861 0.373041 0.052902
0.309394 0.374077 0.052902
0.372737 0.373041 0.052902
0.438375 0.376988 0.052902
0.540109 0.409840 0.052902
0.632484 0.429328 0.052902
0.719436 0.441800 0.052902
0.797099 0.447598 0.052902
0.874065 0.454383 0.052902
0.950430 0.455484 0.052902
1.021422 0.456483 0.052902
1.088666 0.446825 0.052902
-0.024499 0.462739 0.091292
0.021061 0.462739 0.088265
0.051336 0.462739 0.045540
0.179894 0.462739 0.054234
0.258809 0.462739 0.052902
0.329870 0.462993 0.052902
0.401024 0.462739 0.052902
0.467864 0.462616 0.052902
0.535495 0.465349 0.052902
0.631654 0.492665 0.052902
0.719149 0.508364 0.052902
0.797323 0.517166 0.052902
0.874065 0.521402 0.052902
0.950430 0.526514 0.052902
1.021422 0.525186 0.052902
1.088666 0.514059 0.052902
-0.024499 0.550932 0.096373
0.021061 0.550931 0.092988
0.044464 0.550932 0.046133
0.188165 0.550931 0.052685
0.271110 0.550932 0.052902
0.347415 0.550932 0.052902
0.420889 0.550932 0.052902
0.491894 0.550932 0.052902
0.560607 0.551055 0.052902
0.627785 0.551746 0.052902
0.718356 0.573042 0.052902
0.797571 0.583022 0.052902
0.873182 0.589445 0.052902
0.950430 0.593790 0.052902
1.021422 0.593593 0.052902
1.088666 0.581087 0.052902
-0.024499 0.636225 0.099977
0.021061 0.636225 0.096391
0.039493 0.636225 0.046898
0.191980 0.636225 0.053096
0.279662 0.636225 0.052902
0.360214 0.636225 0.052902
0.434945 0.636225 0.052902
0.508224 0.636225 0.052902
0.579479 0.636225 0.052902
0.648583 0.636078 0.052902
0.716500 0.636996 0.052902
0.797495 0.648759 0.052902
0.873182 0.655998 0.052902
0.950430 0.662795 0.052902
1.021422 0.661916 0.052902
1.088666 0.647897 0.052902
-0.024499 0.718408 0.102474
0.021061 0.718408 0.098771
0.034537 0.718408 0.046727
0.197636 0.718408 0.053956
0.285818 0.718408 0.052902
0.366190 0.718408 0.052902
0.444306 0.718408 0.052902
0.519242 0.718408 0.052902
0.591935 0.718408 0.052902
0.662992 0.718440 0.052902
0.732147 0.718141 0.052902
0.793513 0.713217 0.052902
0.873182 0.724041 0.052902
0.950430 0.729846 0.052902
1.021422 0.730413 0.052902
1.088666 0.714702 0.052902
-0.024499 0.797359 0.104098
0.021061 0.797359 0.100292
0.029586 0.797359 0.047372
0.198593 0.797359 0.052881
0.288958 0.797359 0.052902
0.372112 0.797359 0.052902
0.450307 0.797359 0.052902
0.526097 0.797359 0.052902
0.599708 0.797359 0.052902
0.671685 0.797359 0.052902
0.741475 0.797359 0.052902
0.810778 0.796813 0.052902
0.872216 0.789085 0.052902
0.950430 0.798751 0.052902
1.021422 0.798846 0.052902
1.088666 0.781693 0.052902
-0.024499 0.872941 0.104955
0.021061 0.872941 0.101071
0.025468 0.872941 0.048917
0.199759 0.872941 0.054039
0.291019 0.872941 0.052902
0.374472 0.872941 0.052902
0.453146 0.872941 0.052902
0.529376 0.872941 0.052902
0.603432 0.872941 0.052902
0.675779 0.872941 0.052902
0.746098 0.872941 0.052902
0.816520 0.872941 0.052902
0.884978 0.871138 0.052902
0.948614 0.865940 0.052902
1.021241 0.867347 0.052902
1.088666 0.848891 0.052902
-0.024499 0.943442 0.105051
0.021061 0.943442 0.101074
0.024645 0.943442 0.048283
0.199941 0.943441 0.053004
0.288870 0.943442 0.052902
0.374216 0.943442 0.052902
0.453100 0.943442 0.052902
0.529273 0.943442 0.052902
0.603257 0.943442 0.052902
0.675525 0.943442 0.052902
0.746069 0.943442 0.052902
0.816484 0.943442 0.052902
0.886981 0.943757 0.052902
0.955703 0.941292 0.052902
1.023017 0.938184 0.052902
1.089374 0.917090 0.052902
-0.025190 1.080280 0.101980
0.017580 1.080280 0.096544
0.047432 1.080280 0.029925
0.205876 1.080280 0.041298
0.297168 1.080280 0.036424
0.377689 1.080280 0.030413
0.454592 1.080280 0.021589
0.527396 1.080280 -0.016177
0.597346 1.080280 -0.031072
0.665254 1.080280 -0.038545
0.731894 1.080280 -0.043442
0.798145 1.080280 -0.047158
0.863203 1.080306 -0.049923
0.929036 1.080331 -0.051666
0.998431 1.080882 -0.052103
1.090070 1.082022 -0.051341
-0.025853 -0.517544 0.085677
0.030635 -0.517527 0.087259
0.074906 -0.517519 0.089089
0.110352 -0.517518 0.090512
0.164303 -0.517518 0.099824
0.243429 -0.517518 0.113541
0.329556 -0.517518 0.125965
0.427259 -0.517518 0.138416
0.528220 -0.517518 0.149131
0.623451 -0.517518 0.156713
0.714404 -0.517518 0.161803
0.794685 -0.517518 0.165057
0.873182 -0.517518 0.167682
0.952202 -0.517518 0.167461
1.023367 -0.517518 0.168335
1.089374 -0.517518 0.165133
-0.025190 0.023187 0.085534
0.012526 0.008402 0.085534
0.079467 0.017179 0.085534
0.125469 0.015790 0.085179
0.185567 0.016200 0.094478
0.264277 0.016200 0.106732
0.349738 0.016200 0.117933
0.444219 0.016200 0.128802
0.541092 0.016200 0.138135
0.632484 0.016200 0.144658
0.719341 0.016200 0.149767
0.797099 0.016200 0.150860
0.874065 0.016200 0.154061
0.950430 0.016200 0.155394
1.021422 0.016200 0.154869
1.088666 0.016200 0.151719
-0.024499 0.067611 0.085534
0.019360 0.066653 0.085534
0.071219 0.058105 0.086383
0.126736 0.060497 0.085592
0.185567 0.060425 0.092034
0.264277 0.060425 0.100398
0.349738 0.060425 0.108080
0.444219 0.060425 0.116193
0.541092 0.060425 0.123317
0.632484 0.060425 0.128383
0.719341 0.060425 0.131748
0.797099 0.060425 0.134621
0.874064 0.060425 0.136049
0.950430 0.060425 0.137361
1.021422 0.060425 0.136393
1.088666 0.060425 0.133848
-0.024499 0.102713 0.084519
0.021061 0.102898 0.084670
0.071169 0.102713 0.084447
0.125031 0.103941 0.084219
0.185567 0.104400 0.084925
0.264277 0.104028 0.083781
0.349737 0.102636 0.082380
0.444219 0.101092 0.081235
0.541092 0.099105 0.080119
0.632484 0.097010 0.079153
0.719341 0.095022 0.078425
0.797099 0.092856 0.077458
0.874064 0.090931 0.076509
0.950430 0.090021 0.076782
1.021422 0.089439 0.076509
1.088666 0.090164 0.076782
-0.024499 0.154762 0.094189
0.021061 0.154762 0.093843
0.071169 0.154762 0.090928
0.124731 0.154762 0.083256
0.186505 0.155341 0.086383
0.263245 0.169097 0.085534
0.349737 0.181251 0.085534
0.444219 0.192003 0.085534
0.541092 0.201289 0.085534
0.632484 0.207576 0.085534
0.719341 0.211080 0.085534
0.797099 0.214751 0.085534
0.874065 0.215077 0.085534
0.950430 0.216161 0.085534
1.021422 0.215654 0.085534
1.088666 0.211852 0.085534
-0.024499 0.217310 0.104649
0.021061 0.217310 0.103942
0.071169 0.217310 0.096666
0.125086 0.217310 0.083524
0.198013 0.217614 0.086383
0.261190 0.218708 0.085534
0.349278 0.241834 0.085534
0.444219 0.259940 0.085534
0.541092 0.274695 0.085534
0.632484 0.284782 0.085534
0.719341 0.292568 0.085534
0.797099 0.294126 0.085534
0.874065 0.296768 0.085534
0.950430 0.298745 0.085534
1.021422 0.298488 0.085534
1.088666 0.292467 0.085534
-0.024499 0.291138 0.116060
0.021061 0.291138 0.115016
0.071169 0.291138 0.104375
0.125169 0.291138 0.081845
0.211948 0.291836 0.086383
0.279453 0.290965 0.085534
0.345764 0.294282 0.085534
0.443506 0.322135 0.085534
0.541092 0.342699 0.085534
0.632484 0.356044 0.085534
0.719341 0.363464 0.085534
0.797099 0.369891 0.085534
0.874065 0.372932 0.085534
0.950430 0.374678 0.085534
1.021422 0.374293 0.085534
1.088666 0.366456 0.085534
-0.024499 0.373801 0.127181
