luts/01_Fujifilm LUTs_Retro Sharpen.cube
TITLE "Generated by Resolve"
LUT_3D_SIZE 33
0 0 0
0.0606699 0 0
0.0987869 0 0
0.13051 0 0
0.157504 0 0
0.180713 0 0
0.20145 0 0
0.222065 0 0
0.243076 0 0
0.265644 0 0
0.289738 0 0
0.316655 0 0
0.346471 0 0
0.377432 0 0
0.408865 0 0
0.444892 0 0
0.483162 0 0
0.522148 0 0
0.5608 0 0
0.598444 0 0
0.633112 0 0
0.668803 0 0
0.702541 0 0
0.730877 0 0
0.760464 0 0
0.786435 0 0
0.808942 0 0
0.830045 0 0
0.852308 0 0
0.876249 0 0
0.898024 0 0
0.917937 0 0
0.944533 0 0
0.00396735 0.0188907 0
0.0228122 0.0191348 0
0.0859236 0.00724804 0
0.129702 0.00077821 0
0.161288 0 0
0.186572 0 0
0.208621 0 0
0.229648 0 0
0.250904 0 0
0.273411 0 0
0.297841 0 0
0.324239 0 0
0.352468 0 0
0.382345 0 0
0.413565 0 0
0.447318 0 0
0.484428 0 0
0.523598 0 0
0.562448 0 0
0.600381 0 0
0.636896 0 0
0.671489 0 0
0.703914 0 0
0.734203 0 0
0.762509 0 0
0.788891 0 0
0.813687 0 0
0.837308 0 0
0.860151 0 0
0.882567 0 0
0.904906 0 0
0.92755 0 0
0.95021 0 0
0.00790417 0.0383154 0
0.0223545 0.0394903 0
0.044358 0.0389258 0
0.0961471 0.0300298 0
0.14284 0.0226444 0
0.178592 0.0183566 0
0.207233 0.016083 0
0.232197 0.0148775 0
0.255695 0.0141451 0
0.279362 0.0134432 0
0.304265 0.0124666 0
0.330632 0.0111849 0
0.358495 0.00956741 0
0.387762 0.00767529 0
0.418173 0.00555428 0
0.45095 0.00291447 0
0.486992 0 0
0.525902 0 0
0.565087 0 0
0.603387 0 0
0.640314 0 0
0.675364 0 0
0.708247 0 0
0.739071 0 0
0.767865 0 0
0.794781 0 0
0.820096 0 0
0.844266 0 0
0.867643 0 0
0.890608 0 0
0.913497 0 0
0.93669 0 0
0.959915 0 0
0.0115053 0.0576486 0
0.0262455 0.0586862 0
0.0416419 0.0598459 0
0.065507 0.058854 0
0.110246 0.0520333 0
0.154757 0.0453651 0
0.192523 0.0406806 0
0.224659 0.0376898 0
0.253346 0.0357366 0
0.280583 0.0343175 0
0.30782 0.0330205 0
0.335576 0.031693 0
0.364126 0.0302892 0
0.3935 0.0287785 0
0.423651 0.0271763 0
0.455863 0.0251469 0
0.491173 0.0224308 0
0.529397 0.0190585 0
0.569024 0.0155032 0
0.607843 0.0123445 0
0.645258 0.00975052 0
0.680827 0.00787366 0
0.714244 0.00677501 0
0.745571 0.00643931 0
0.774929 0.0068513 0
0.802365 0.00796521 0
0.828244 0.00973526 0
0.852949 0.0120241 0
0.87689 0.014725 0
0.90042 0.0177615 0
0.923873 0.0210422 0
0.947646 0.024445 0
0.971466 0.0280613 0
0.0145724 0.0773938 0
0.0301976 0.0782788 0
0.0444953 0.0797131 0
0.0614328 0.0807813 0
0.0869917 0.0795758 0
0.127703 0.0741894 0
0.16997 0.0684825 0
0.208774 0.0638895 0
0.243687 0.0605478 0
0.27602 0.0580758 0
0.307088 0.0561227 0
0.337591 0.0544747 0
0.367956 0.0530404 0
0.398428 0.0517433 0
0.429099 0.0505684 0
0.461387 0.049134 0
0.496452 0.0471351 0
0.534203 0.0445563 0
0.574044 0.0415961 0
0.613367 0.0389715 0
0.651331 0.0369116 0
0.687434 0.0355688 0
0.721386 0.0350195 0
0.753262 0.0352331 0
0.783169 0.0361944 0
0.81117 0.0378729 0
0.837598 0.0402075 0
0.862898 0.043061 0
0.887404 0.0463417 0
0.911513 0.0499733 0
0.935561 0.0538186 0
0.959869 0.0577707 0
0.984207 0.0619059 0
0.016968 0.098024 0
0.0340276 0.0986954 0
0.047776 0.10045 0
0.0633555 0.102037 0
0.0820478 0.103075 0
0.109545 0.101778 0
0.148363 0.0973983 0
0.189578 0.0925307 0
0.229221 0.0882887 0
0.26659 0.0848707 0
0.302159 0.0821698 0
0.336324 0.0800793 0
0.369482 0.0784924 0
0.401938 0.0772869 0
0.43389 0.0764172 0
0.466896 0.0754711 0
0.502205 0.0740826 0
0.539834 0.072221 0
0.579644 0.0699626 0
0.619516 0.0678874 0
0.65803 0.0663767 0
0.694682 0.0655985 0
0.729198 0.0655985 0
0.761654 0.0663767 0
0.792126 0.0679179 0
0.820706 0.0701762 0
0.84773 0.0730907 0
0.873579 0.076524 0
0.898634 0.0803388 0
0.923247 0.0844739 0
0.947753 0.0887922 0
0.972503 0.0931716 0
0.997223 0.0977188 0
0.0184939 0.120027 0
0.0368811 0.120638 0
0.0506752 0.122667 0
0.0659037 0.12462 0
0.083238 0.12636 0
0.104021 0.127428 0
0.133852 0.126101 0
0.172534 0.122484 0
0.213672 0.118395 0
0.25452 0.114611 0
0.294148 0.111421 0
0.332128 0.108919 0
0.368536 0.107088 0
0.40354 0.105852 0
0.437369 0.105135 0
0.471611 0.10454 0
0.507637 0.103655 0
0.545541 0.102434 0
0.585336 0.100908 0
0.625757 0.0993973 0
0.664836 0.0984512 0
0.702068 0.0982528 0
0.737163 0.0988327 0
0.770199 0.100191 0
0.801236 0.102281 0
0.83035 0.105074 0
0.857847 0.108476 0
0.884153 0.112367 0
0.909636 0.116609 0
0.93463 0.121111 0
0.959487 0.12578 0.00210575
0.984543 0.130465 0.00698863
1 0.135286 0.0119783
0.0189822 0.143893 0
0.0384375 0.14461 0
0.0527962 0.146929 0
0.0683757 0.149172 0
0.0850538 0.151537 0
0.104616 0.15346 0
0.128206 0.154559 0
0.16083 0.153338 0
0.20032 0.150378 0
0.242267 0.146944 0
0.284535 0.143694 0
0.325704 0.140963 0
0.36524 0.138949 0
0.403006 0.137636 0
0.439048 0.137011 0
0.474952 0.13666 0
0.512078 0.136187 0
0.550637 0.135531 0
0.590677 0.134676 0
0.631571 0.133776 0
0.671229 0.13341 0
0.70901 0.133745 0
0.744625 0.134859 0
0.778134 0.13669 0
0.809613 0.139223 0
0.839124 0.142428 0
0.867002 0.146197 0
0.893645 0.150408 0
0.919417 0.154955 0.00213626
0.944671 0.159716 0.00709545
0.969757 0.164614 0.0121614
0.99501 0.169497 0.0172274
1 0.174472 0.022385
0.0186313 0.16997 0
0.0389868 0.170977 0
0.0545357 0.173556 0
0.070634 0.176226 0
0.0873426 0.179126 0
0.106126 0.181811 0
0.12842 0.183886 0
0.15552 0.184924 0
0.190875 0.183856 0
0.231861 0.181399 0
0.275074 0.178576 0
0.318334 0.175967 0
0.360433 0.173938 0
0.400763 0.172641 0
0.439078 0.172107 0
0.476844 0.171969 0
0.515389 0.171847 0
0.554879 0.171649 0
0.595407 0.171344 0
0.636667 0.170993 0
0.676783 0.171084 0
0.715007 0.171847 0
0.751019 0.173342 0
0.784863 0.17554 0
0.816663 0.178393 0
0.846464 0.181872 0
0.874601 0.185901 0.000381476
0.901457 0.190326 0.0049897
0.927398 0.195041 0.00988785
0.952804 0.199969 0.0149996
0.977981 0.204959 0.0201572
1 0.209918 0.0253147
1 0.214923 0.0305028
0.0177005 0.198657 0
0.0387884 0.200092 0
0.0557259 0.202914 0
0.0724651 0.206058 0
0.0897993 0.209354 0
0.108339 0.21268 0
0.129717 0.21561 0
0.155261 0.217731 0
0.186023 0.218692 0
0.224216 0.217777 0
0.267018 0.215808 0
0.311192 0.213687 0
0.355016 0.211902 0
0.397406 0.210758 0
0.437797 0.210361 0
0.477363 0.210391 0
0.517327 0.210483 0
0.557824 0.210575 0
0.598947 0.210636 0
0.640513 0.210681 0
0.68098 0.211124 0
0.719509 0.212192 0
0.755795 0.213962 0
0.789883 0.216388 0
0.821897 0.21944 0
0.851865 0.223102 0.00131228
0.880095 0.227253 0.00564584
0.907073 0.231769 0.0103761
0.933074 0.236545 0.0153201
0.95848 0.241489 0.0204166
0.983658 0.246464 0.0255894
1 0.251377 0.0307012
1 0.256291 0.0357824
0.0164797 0.23003 0
0.0381323 0.231968 0
0.0564584 0.23508 0
0.073991 0.238666 0
0.092195 0.242359 0
0.111055 0.246204 0
0.132021 0.249836 0
0.156558 0.252872 0
0.18558 0.255024 0
0.220081 0.255924 0
0.261021 0.255238 0
0.30515 0.253834 0
0.349813 0.252476 0
0.393561 0.251545 0
0.435492 0.25127 0
0.476585 0.251377 0
0.51783 0.251575 0
0.559289 0.25182 0
0.600992 0.252094 0
0.642863 0.252384 0
0.683558 0.253056 0
0.722255 0.254322 0
0.758694 0.256245 0
0.792905 0.258778 0
0.824979 0.261921 0.000289921
0.854994 0.265629 0.00419623
0.883268 0.26978 0.00854505
0.910185 0.274266 0.0132296
0.936126 0.278996 0.0181277
0.961456 0.283833 0.0231479
0.986496 0.28867 0.0281834
1 0.293416 0.0331273
1 0.298131 0.0380102
0.0156405 0.263874 0
0.0377356 0.266392 0
0.0572976 0.269856 0
0.0758984 0.273838 0
0.0949874 0.277958 0
0.11458 0.282261 0
0.135622 0.286503 0
0.159594 0.290303 0
0.187503 0.293355 0
0.220096 0.295399 0
0.258045 0.296178 0
0.300832 0.29572 0
0.345586 0.294835 0
0.390005 0.294163 0
0.432929 0.294011 0
0.475135 0.294179 0
0.517403 0.294392 0
0.55967 0.294682 0
0.601938 0.295018 0
0.644022 0.29543 0
0.684825 0.296193 0
0.723598 0.29752 0
0.760052 0.299474 0
0.794263 0.302022 0
0.826307 0.305119 0.00135805
0.856245 0.308751 0.00517281
0.884382 0.312795 0.00941482
0.911177 0.317128 0.013962
0.93695 0.32166 0.018677
0.962066 0.326314 0.0235142
0.986999 0.33106 0.0284276
1 0.335805 0.0333715
1 0.340658 0.038407
0.0159152 0.299977 0
0.0383764 0.303105 0
0.0590829 0.306981 0
0.0788128 0.31136 0
0.0987411 0.315923 0
0.119158 0.320607 0
0.140642 0.325246 0
0.16437 0.329564 0
0.191409 0.333288 0
0.22269 0.33608 0
0.258625 0.337835 0
0.299016 0.338476 0
0.342779 0.338247 0
0.38732 0.33785 0
0.430747 0.337804 0
0.473625 0.337972 0
0.516625 0.338155 0
0.559503 0.338384 0
0.602152 0.338674 0
0.644373 0.339071 0
0.685161 0.339818 0
0.723873 0.3411 0
0.76025 0.342977 0
0.794339 0.345373 0
0.826215 0.348318 0.0010071
0.855985 0.351751 0.004654
0.88394 0.355627 0.0087129
0.910658 0.359915 0.0131838
0.936492 0.364492 0.0179599
0.961776 0.369299 0.0229496
0.986877 0.374197 0.0280308
1 0.379095 0.0331121
1 0.384054 0.0382544
0.0179904 0.338079 0
0.0407568 0.341802 0
0.0623789 0.346059 0
0.0831159 0.350744 0
0.103761 0.355642 0
0.124926 0.360571 0
0.146975 0.365454 0
0.170718 0.370092 0
0.197208 0.374212 0
0.22739 0.377554 0
0.261891 0.379919 0
0.300328 0.381323 0
0.342138 0.381872 0
0.385901 0.381857 0
0.429419 0.381888 0
0.472602 0.382025 0
0.515984 0.382101 0
0.559228 0.382193 0
0.602136 0.38233 0
0.644327 0.382605 0
0.684977 0.383215 0
0.723522 0.384329 0
0.759701 0.385977 0
0.793652 0.388266 0
0.825513 0.39118 3.0518e-05
0.85536 0.39472 0.00376898
0.883513 0.398749 0.00801099
0.910369 0.403204 0.0126192
0.936309 0.407904 0.0175174
0.961715 0.412818 0.0226291
0.986893 0.417807 0.0278019
1 0.422751 0.032929
1 0.427771 0.038117
0.0222629 0.377646 0
0.0452277 0.381842 0
0.0674754 0.386404 0
0.0889601 0.391318 0
0.110323 0.396399 0
0.132082 0.401495 0
0.15462 0.406485 0
0.178607 0.411231 0
0.204715 0.415579 0
0.234089 0.419226 0
0.267308 0.421988 0
0.30425 0.423865 0
0.344259 0.424933 0
0.386404 0.425391 0
0.429282 0.425574 0
0.472465 0.425605 0
0.515938 0.425513 0
0.559304 0.425361 0
0.602258 0.425254 0
0.644282 0.42533 0
0.684825 0.425849 0
0.7234 0.426978 0
0.759716 0.428779 0
0.793835 0.43122 0
0.825849 0.434287 0.000106813
0.855817 0.437934 0.00395209
0.884047 0.442069 0.00828565
0.910994 0.446601 0.0129854
0.936996 0.451362 0.0179446
0.962417 0.456306 0.0230716
0.987625 0.461311 0.0282597
1 0.466255 0.0333867
1 0.471229 0.0385595
0.0278477 0.418463 0
0.0509346 0.423011 0
0.0735943 0.427802 0
0.0956283 0.432837 0
0.11754 0.43801 0
0.139742 0.443153 0
0.162707 0.448142 0
0.186954 0.452873 0
0.21294 0.457221 0
0.241611 0.460975 0
0.273671 0.463935 0
0.309178 0.466072 0
0.347646 0.467414 0
0.388159 0.468177 0
0.429603 0.468589 0
0.472129 0.468574 0
0.515557 0.468284 0
0.559045 0.46804 0
0.602152 0.467964 0
0.644343 0.468193 0
0.685054 0.468879 0
0.723751 0.470146 0
0.760174 0.472053 0
0.794385 0.474586 0
0.826459 0.477729 0.000457771
0.856474 0.481422 0.00434882
0.884749 0.485588 0.0087129
0.911696 0.490105 0.0134279
0.937697 0.494881 0.0183719
0.963073 0.499779 0.0234531
0.988205 0.504723 0.0285801
1 0.50959 0.0336309
1 0.514473 0.0386969
0.0339818 0.460319 0
0.0571756 0.465064 0
0.0800183 0.469978 0
0.102342 0.475074 0
0.124651 0.480217 0
0.147173 0.485298 0
0.170443 0.490166 0
0.194888 0.494743 0
0.220829 0.498955 0
0.248905 0.502632 0
0.280018 0.505592 0
0.314153 0.50779 0
0.351064 0.50927 0
0.390112 0.510262 0
0.430274 0.511009 0
0.47187 0.511437 0
0.515068 0.511437 0
0.558785 0.511315 0
0.602045 0.511376 0
0.644327 0.511711 0
0.68513 0.512459 0
0.723888 0.513802 0
0.760357 0.515755 0
0.794568 0.518303 0
0.826642 0.521447 0.000381476
0.856641 0.525124 0.00425727
0.884871 0.529229 0.00857557
0.911757 0.5337 0.0132296
0.937682 0.538369 0.0180972
0.962951 0.54316 0.0230716
0.987961 0.547982 0.0280613
1 0.552697 0.0329595
1 0.557412 0.0378424
0.0405585 0.502647 0
0.0638285 0.507439 0
0.0867475 0.512367 0
0.109163 0.517418 0
0.131624 0.522454 0
0.154345 0.527352 0
0.177768 0.532006 0
0.202319 0.536324 0
0.228229 0.54023 0
0.255955 0.543679 0
0.286351 0.546639 0
0.319509 0.549065 0
0.355383 0.550958 0
0.393332 0.552407 0
0.432456 0.553628 0
0.473075 0.554482 0
0.51545 0.554879 0
0.558846 0.554955 0
0.602152 0.555062 0
0.64448 0.555428 0
0.685283 0.556191 0
0.724041 0.557519 0
0.760479 0.559442 0
0.794659 0.561944 0
0.826642 0.565011 0.000122072
0.856565 0.568582 0.00390631
0.884672 0.572595 0.0081178
0.911421 0.576913 0.0126192
0.937163 0.581445 0.017319
0.96228 0.586053 0.0221256
0.987076 0.590661 0.0269322
1 0.595163 0.0316167
1 0.599634 0.0362554
0.0475471 0.544869 0
0.0707866 0.549615 0
0.0936599 0.554421 0
0.116045 0.559304 0
0.13843 0.564141 0
0.161227 0.568765 0
0.184756 0.573175 0
0.209552 0.577325 0
0.235737 0.581201 0
0.26363 0.584756 0
0.29369 0.587915 0
0.326314 0.59057 0
0.361257 0.592767 0
0.398169 0.594583 0
0.43624 0.596155 0
0.475853 0.597345 0
0.51725 0.598047 0
0.559777 0.598398 0
0.602747 0.598596 0
0.645029 0.598932 0
0.685771 0.599634 0
0.724453 0.600885 0
0.760784 0.602701 0
0.794827 0.605081 0
0.826703 0.607996 0
0.856443 0.611414 0.00352483
0.884367 0.615228 0.00753796
0.910918 0.619348 0.011841
0.936431 0.623636 0.0163119
0.961288 0.628 0.0208743
0.985809 0.632349 0.025391
1 0.636561 0.0297704
1 0.640711 0.0341039
0.0549325 0.586435 0
0.0780041 0.590997 0
0.100725 0.59559 0
0.123095 0.600336 0
0.145586 0.605127 0
0.168719 0.609812 0
0.19263 0.614298 0
0.217823 0.618509 0
0.244373 0.6224 0
0.272465 0.625971 0
0.302434 0.629175 0
0.334539 0.631968 0
0.368688 0.634363 0
0.404608 0.636408 0
0.441657 0.638224 0
0.480217 0.639643 0
0.520623 0.640574 0
0.562234 0.641108 0
0.604318 0.641459 0
0.646189 0.641794 0
0.686809 0.642359 0
0.725338 0.643458 0
0.761501 0.645106 0
0.795361 0.647288 0
0.827008 0.649989 0
0.856504 0.653178 0.00332647
0.884169 0.656733 0.00708019
0.910445 0.660563 0.0111086
0.935653 0.664561 0.0152895
0.960174 0.668605 0.0195163
0.984375 0.672602 0.0236973
1 0.676448 0.0277409
1 0.680217 0.0316777
0.0628977 0.627008 0
0.0860304 0.631601 0
0.108949 0.636347 0
0.131533 0.64123 0
0.154299 0.646128 0
0.177691 0.650874 0
0.201907 0.65539 0
0.227405 0.659571 0
0.254231 0.663432 0
0.282506 0.666941 0
0.312459 0.6701 0
0.344091 0.672938 0
0.37763 0.67538 0
0.412665 0.677531 0
0.448722 0.679484 0
0.486275 0.681041 0
0.525643 0.682078 0
0.566262 0.682719 0
0.607446 0.683131 0
0.648463 0.683497 0
0.688609 0.683955 0
0.726925 0.684825 0
0.762844 0.686229 0
0.796429 0.688136 0
0.827802 0.690562 0.000488289
0.856992 0.693431 0.00355535
0.884321 0.696666 0.00698863
0.910246 0.700145 0.0106661
0.935088 0.703777 0.0144656
0.959228 0.707424 0.0183108
0.982986 0.711009 0.0220645
1 0.714412 0.0256657
1 0.717739 0.02916
0.0727855 0.667323 0
0.0960403 0.672053 0
0.119112 0.67689 0
0.141848 0.681834 0
0.164752 0.686778 0
0.188296 0.691524 0
0.212726 0.69601 0
0.238453 0.700114 0
0.265476 0.703868 0
0.293904 0.70724 0
0.323812 0.710277 0
0.355138 0.713024 0
0.388083 0.715434 0
0.422324 0.717586 0
0.457465 0.719554 0
0.494011 0.721126 0
0.532372 0.722194 0
0.571969 0.72285 0
0.612192 0.723247 0
0.652323 0.723537 0
0.691661 0.723903 0
0.729442 0.724544 0
0.765072 0.725628 0
0.798306 0.727214 0
0.829313 0.729274 0.00175479
0.858137 0.731762 0.00445563
0.885054 0.7346 0.00749218
0.910536 0.737667 0.0107271
0.934966 0.740841 0.0140993
0.958663 0.74403 0.0175021
0.981979 0.747173 0.0208133
1 0.750134 0.0239414
1 0.753017 0.0270085
0.0846876 0.70724 0
0.108019 0.712032 0
0.131151 0.716899 0
0.153948 0.721843 0
0.176928 0.726741 0
0.200504 0.731456 0
0.225116 0.735805 0
0.250935 0.739788 0
0.278065 0.743374 0
0.306554 0.746563 0
0.336416 0.749401 0
0.367498 0.751965 0
0.399893 0.754238 0
0.433417 0.756283 0
0.467689 0.75816 0
0.503273 0.759655 0
0.540642 0.760647 0.000442512
0.579232 0.761196 0.000411994
0.618463 0.761486 0
0.657664 0.761639 0
0.696101 0.761822 0
0.733089 0.762234 0
0.768124 0.762997 0.000534066
0.800977 0.764157 0.00192264
0.83154 0.765789 0.00376898
0.859922 0.767834 0.00601205
0.886397 0.77023 0.00859083
0.911452 0.772839 0.0113985
0.935424 0.77557 0.0143282
0.958648 0.778332 0.017258
0.981567 0.781033 0.0201572
1 0.783566 0.022858
1 0.786007 0.0254826
0.0983597 0.746548 0
0.121691 0.751308 0
0.144808 0.75613 0
0.16759 0.761028 0
0.190555 0.76582 0
0.214115 0.770413 0
0.238743 0.774609 0
0.264576 0.778393 0
0.291737 0.781735 0
0.320211 0.784665 0
0.349981 0.787228 0
0.380804 0.789532 0
0.412604 0.791592 0
0.445533 0.793423 0
0.478981 0.795102 0.00289921
0.513664 0.796429 0.00500496
0.550027 0.797238 0.00584421
0.587625 0.797604 0.00576791
0.625849 0.797681 0.00518807
0.664073 0.797589 0.00444038
0.701595 0.797498 0.00383001
0.737682 0.79762 0.00364691
0.771923 0.798062 0.00399786
0.804181 0.798825 0.00489815
0.834318 0.8 0.00630198
0.862242 0.801602 0.0081178
0.888273 0.803555 0.0102541
0.912886 0.805722 0.0126192
0.936431 0.808026 0.0151064
0.959243 0.810361 0.0176242
0.981704 0.812634 0.0200809
1 0.81474 0.0223697
1 0.81677 0.0245823
0.113481 0.785016 0
0.136721 0.7897 0
0.159747 0.794415 0
0.182452 0.799161 0
0.20531 0.8038 0
0.228794 0.808179 0
0.253346 0.812146 0
0.279103 0.815671 0
0.306188 0.818738 0
0.334569 0.821332 0
0.364187 0.82356 0
0.39472 0.825528 0
0.426062 0.827268 0
0.458305 0.828794 0.00505074
0.490959 0.830198 0.00874342
0.524727 0.83125 0.0109407
0.560113 0.831785 0.0117952
0.596689 0.831861 0.0116121
0.633921 0.831647 0.0108034
0.671168 0.83125 0.00975052
0.707774 0.830854 0.00875868
0.743008 0.83064 0.0081178
0.776425 0.830747 0.00799573
0.807965 0.831174 0.00839246
0.837522 0.831952 0.009308
0.865034 0.833127 0.0106966
0.890639 0.834653 0.0124056
0.914839 0.836408 0.0143435
0.937957 0.838285 0.0164187
0.960342 0.840208 0.0185092
0.982406 0.842054 0.0205692
1 0.843763 0.022446
1 0.84538 0.0242618
0.129732 0.822446 0
0.152834 0.826978 0
0.175708 0.831495 0
0.19823 0.836042 0
0.220935 0.840452 0
0.244221 0.844572 0
0.268635 0.848249 0
0.294224 0.851453 0
0.321141 0.854154 0
0.349371 0.856367 0
0.378744 0.858183 0
0.408957 0.859724 0
0.439811 0.861067 0.0059205
0.471382 0.862211 0.0112917
0.503243 0.863249 0.0150301
0.536126 0.863935 0.0172274
0.570565 0.864118 0.0180362
0.60618 0.863874 0.017731
0.642435 0.86334 0.0167239
0.678782 0.862638 0.0153811
0.714473 0.861921 0.0140383
0.748913 0.861402 0.0130007
0.781567 0.861173 0.0124361
0.81236 0.861265 0.0123598
0.841291 0.861708 0.0128023
0.868269 0.862486 0.0137331
0.893477 0.863584 0.0150301
0.917235 0.864927 0.016556
0.939956 0.866407 0.0182193
0.961944 0.867918 0.019913
0.983597 0.869383 0.021561
1 0.87068 0.0230411
1 0.871916 0.024445
0.146685 0.858701 0
0.169558 0.862989 0
0.192203 0.867277 0
0.214481 0.871534 0
0.236927 0.875639 0
0.259968 0.879438 0
0.284138 0.88275 0
0.309483 0.885557 0
0.336156 0.887831 0
0.364111 0.889601 0
0.393194 0.890944 0
0.423026 0.891997 0.00517281
0.453376 0.892866 0.0122988
0.48423 0.893599 0.0176547
0.515419 0.894209 0.0213779
0.547478 0.89453 0.0235447
0.581033 0.894377 0.0242924
0.615747 0.893797 0.0238651
0.651118 0.892943 0.0226749
0.686564 0.89192 0.021088
0.721447 0.890898 0.0194247
0.755093 0.890059 0.0180209
0.78703 0.889509 0.0170443
0.817136 0.889265 0.0165255
0.845396 0.889372 0.0165255
0.871794 0.889799 0.0169985
0.896498 0.890532 0.0178683
0.91989 0.891463 0.0189975
0.942184 0.892546 0.020264
0.96379 0.89366 0.021561
0.985061 0.894728 0.0228275
1 0.895674 0.0239414
1 0.896559 0.0249943
0.16376 0.893675 0
0.186328 0.897673 0
0.208667 0.901625 0
0.230625 0.905547 0
0.252766 0.90927 0
0.275471 0.912657 0
0.299245 0.915557 0
0.324331 0.917891 0
0.350668 0.919692 0
