luts/01_Fujifilm LUTs_Retro Sharpen.cube
TITLE "Generated by Resolve"
LUT_3D_SIZE 5
0 0 0
0.243076 0 0
0.483162 0 0
0.760464 0 0
0.944533 0 0
0.0186313 0.16997 0
0.190875 0.183856 0
0.515389 0.171847 0
0.816663 0.178393 0
1 0.214923 0.0305028
0.0339818 0.460319 0
0.220829 0.498955 0
0.515068 0.511437 0
0.826642 0.521447 0.000381476
1 0.557412 0.0378424
0.113481 0.785016 0
0.306188 0.818738 0
0.560113 0.831785 0.0117952
0.837522 0.831952 0.009308
1 0.84538 0.0242618
0.235157 1 0
0.40679 1 0.00366217
0.629618 1 0.0457771
0.863447 1 0.0295262
1 1 0.0273747
0 0.0297398 0.0782025
0.244038 0 0.0992599
0.484001 0 0.144259
0.75819 0 0.127062
0.945083 0 0.140139
0 0.19086 0.0616312
0.290944 0.171908 0.0820325
0.573129 0.172915 0.118318
0.826459 0.189929 0.193591
1 0.225742 0.236789
0.00943008 0.486427 0.0362249
0.25069 0.50901 0.125612
0.525414 0.52314 0.189914
0.836881 0.533227 0.202121
1 0.568154 0.23856
0.0940414 0.809216 0.0258946
0.314351 0.83267 0.125032
0.574838 0.837186 0.20502
0.840711 0.836713 0.204013
1 0.847501 0.216327
0.210208 1 0.0824598
0.40293 1 0.156786
0.642252 1 0.223423
0.861936 1 0.217838
1 1 0.215564
0 0.0430762 0.430625
0.0187228 0.0247959 0.495216
0.467872 0 0.471534
0.748012 0 0.452018
0.938384 0 0.468589
0 0.204562 0.41651
0.172351 0.205051 0.384314
0.557061 0.17586 0.463554
0.828687 0.191135 0.523766
1 0.228 0.566583
0 0.51545 0.34432
0.174029 0.536416 0.420005
0.524834 0.524834 0.524834
0.836759 0.534218 0.538109
1 0.568093 0.571481
0.0113832 0.838834 0.315984
0.246265 0.856687 0.402655
0.586892 0.83209 0.496773
0.832273 0.83032 0.530694
1 0.83856 0.540429
0.123049 1 0.359304
0.331853 1 0.421592
0.642832 1 0.495903
0.854353 1 0.537285
1 1 0.536736
0 0.0632486 0.680064
0 0.0491646 0.748623
0.269825 0 0.816846
0.741482 0 0.747112
0.935439 0 0.767178
0 0.228504 0.67953
0.00822461 0.248356 0.737392
0.369558 0.229633 0.820447
0.828168 0.195499 0.832227
1 0.231327 0.869535
0 0.540368 0.630884
0.0982834 0.564431 0.709987
0.440665 0.558648 0.787717
0.837552 0.537926 0.839521
1 0.569665 0.87274
0 0.865446 0.598062
0.170825 0.881743 0.679545
0.516457 0.853346 0.757107
0.825437 0.825437 0.825437
1 0.831266 0.832959
0.0387579 1 0.624765
0.245106 1 0.681208
0.569894 1 0.739223
0.858244 0.997909 0.801434
1 1 0.827054
0 0.0881666 0.817746
0 0.0764935 0.882582
0.163134 0.0263828 0.951064
0.610147 0 0.999954
0.94316 0 0.950301
0 0.260975 0.820935
0 0.284428 0.886336
0.293889 0.271565 0.97229
0.667796 0.253849 1
1 0.243946 1
0 0.57229 0.788861
0.0395361 0.601526 0.863493
0.378271 0.597116 0.938949
0.703777 0.591852 1
1 0.579385 1
0 0.891157 0.769787
0.131487 0.905867 0.845838
0.468299 0.877058 0.914565
0.753323 0.8542 0.966949
1 0.832425 1
0 1 0.791074
0.199496 1 0.845014
0.521981 1 0.899428
0.814557 1 0.951354
1 1 1
