luts/01_Fujifilm LUTs_Retro Sharpen.cube
TITLE "Generated by Resolve"
LUT_3D_SIZE 9
0 0 0
0.157504 0 0
0.243076 0 0
0.346471 0 0
0.483162 0 0
0.633112 0 0
0.760464 0 0
0.852308 0 0
0.944533 0 0
0.0145724 0.0773938 0
0.0869917 0.0795758 0
0.243687 0.0605478 0
0.367956 0.0530404 0
0.496452 0.0471351 0
0.651331 0.0369116 0
0.783169 0.0361944 0
0.887404 0.0463417 0
0.984207 0.0619059 0
0.0186313 0.16997 0
0.0873426 0.179126 0
0.190875 0.183856 0
0.360433 0.173938 0
0.515389 0.171847 0
0.676783 0.171084 0
0.816663 0.178393 0
0.927398 0.195041 0.00988785
1 0.214923 0.0305028
0.0159152 0.299977 0
0.0987411 0.315923 0
0.191409 0.333288 0
0.342779 0.338247 0
0.516625 0.338155 0
0.685161 0.339818 0
0.826215 0.348318 0.0010071
0.936492 0.364492 0.0179599
1 0.384054 0.0382544
0.0339818 0.460319 0
0.124651 0.480217 0
0.220829 0.498955 0
0.351064 0.50927 0
0.515068 0.511437 0
0.68513 0.512459 0
0.826642 0.521447 0.000381476
0.937682 0.538369 0.0180972
1 0.557412 0.0378424
0.0628977 0.627008 0
0.154299 0.646128 0
0.254231 0.663432 0
0.37763 0.67538 0
0.525643 0.682078 0
0.688609 0.683955 0
0.827802 0.690562 0.000488289
0.935088 0.703777 0.0144656
1 0.717739 0.02916
0.113481 0.785016 0
0.20531 0.8038 0
0.306188 0.818738 0
0.426062 0.827268 0
0.560113 0.831785 0.0117952
0.707774 0.830854 0.00875868
0.837522 0.831952 0.009308
0.937957 0.838285 0.0164187
1 0.84538 0.0242618
0.180438 0.927245 0
0.267887 0.941222 0
0.364355 0.949737 0
0.478645 0.950912 0.0239719
0.600824 0.94931 0.035523
0.734783 0.943297 0.0291295
0.853315 0.939239 0.02327
0.946288 0.939956 0.0239872
1 0.941741 0.0265049
0.235157 1 0
0.315953 1 0
0.40679 1 0.00366217
0.516091 1 0.0348363
0.629618 1 0.0457771
0.753109 1 0.0382696
0.863447 1 0.0295262
0.950835 1 0.0271
1 1 0.0273747
0 0.0176699 0
0.16199 0 0
0.255909 0 0.00549325
0.359304 0 0.0295109
0.484489 0 0.0401465
0.634699 0 0.0256962
0.75935 0 0.018677
0.855787 0 0.0218204
0.944549 0 0.0300603
0.00720226 0.0871748 0
0.175723 0.0622568 0
0.29247 0.0549325 0
0.402502 0.0497139 0.0109865
0.51371 0.0465858 0.0370489
0.654032 0.0402075 0.0444343
0.786572 0.0404822 0.0450294
0.89192 0.0514839 0.0573434
0.989395 0.0679026 0.0741436
0.0124819 0.179355 0
0.11017 0.178393 0.0457313
0.196216 0.187259 0.0749218
0.407706 0.170153 0.0288853
0.548531 0.171588 0.0449836
0.685115 0.176684 0.0691081
0.822599 0.185046 0.0803693
0.933577 0.201953 0.098024
1 0.221836 0.118654
0.0100404 0.310735 0
0.114244 0.321111 0.0131075
0.202991 0.338338 0.0670481
0.351812 0.344457 0.0729992
0.53904 0.341665 0.0633707
0.696132 0.345663 0.0754253
0.832029 0.354864 0.0887922
0.942519 0.371252 0.105959
1 0.390967 0.12639
0.0289464 0.472297 0
0.131304 0.488975 0
0.234134 0.504662 0.0460822
0.359487 0.515175 0.0748302
0.522622 0.517937 0.0753185
0.69131 0.519402 0.0786755
0.832822 0.528344 0.0885328
0.943664 0.545098 0.106065
1 0.563836 0.125521
0.0585184 0.638544 0
0.156771 0.655848 0
0.265599 0.670237 0.025742
0.389883 0.680873 0.0683757
0.532723 0.688365 0.0801556
0.694163 0.690242 0.0804913
0.832853 0.696345 0.0875105
0.939513 0.708919 0.100862
1 0.722164 0.114839
0.109682 0.796521 0
0.206836 0.813352 0
0.314946 0.825376 0.0340734
0.43856 0.831342 0.0788586
0.567422 0.835859 0.0966201
0.71165 0.834897 0.0941787
0.840269 0.835431 0.0940261
0.940032 0.841077 0.100465
1 0.847532 0.107637
0.175479 0.937224 0
0.267185 0.948974 0.0138247
0.369741 0.954574 0.0583658
0.488914 0.952804 0.0988479
0.607324 0.950744 0.11667
0.737224 0.944869 0.112093
0.854093 0.940536 0.105882
0.946456 0.940841 0.106126
1 0.94229 0.108309
0.228031 1 0
0.312703 1 0.032517
0.40911 1 0.0705272
0.52401 1 0.10631
0.635508 1 0.123735
0.755047 1 0.11931
0.863539 1 0.110979
0.950317 1 0.108476
1 1 0.108705
0 0.0297398 0.0782025
0.0707561 0.00991836 0.0901808
0.244038 0 0.0992599
0.357137 0 0.125032
0.484001 0 0.144259
0.632914 0 0.13344
0.75819 0 0.127062
0.855451 0 0.130999
0.945083 0 0.140139
0 0.0966964 0.074342
0.134295 0.0781415 0.0493172
0.293568 0.0571908 0.062501
0.414755 0.049546 0.0823529
0.527031 0.045716 0.123781
0.656352 0.0417029 0.152422
0.788449 0.0430304 0.156573
0.894545 0.0550393 0.16939
0.992813 0.0720836 0.187137
0 0.19086 0.0616312
0.165423 0.174975 0.0386053
0.290944 0.171908 0.0820325
0.429755 0.171481 0.0978561
0.573129 0.172915 0.118318
0.702724 0.178943 0.162387
0.826459 0.189929 0.193591
0.937804 0.206867 0.211933
1 0.225742 0.236789
0 0.324773 0.042359
0.145006 0.325139 0.044831
0.23154 0.339361 0.142611
0.358267 0.34905 0.182605
0.544579 0.347005 0.169284
0.700481 0.350622 0.186542
0.835889 0.359472 0.201999
0.946532 0.376104 0.219532
1 0.395941 0.24007
0.00943008 0.486427 0.0362249
0.133501 0.498573 0.0656596
0.25069 0.50901 0.125612
0.369162 0.518502 0.184955
0.525414 0.52314 0.189914
0.69546 0.524376 0.192355
0.836881 0.533227 0.202121
0.947509 0.549783 0.21944
1 0.568154 0.23856
0.0412299 0.651728 0.016083
0.146761 0.667308 0.0643778
0.267491 0.67805 0.117754
0.40351 0.683894 0.17142
0.538705 0.692332 0.192874
0.697505 0.694392 0.193362
0.83563 0.699962 0.199832
0.941634 0.711864 0.212512
1 0.724392 0.225772
0.0940414 0.809216 0.0258946
0.196628 0.824125 0.0744488
0.314351 0.83267 0.125032
0.450217 0.833494 0.176562
0.574838 0.837186 0.20502
0.713573 0.836637 0.204837
0.840711 0.836713 0.204013
0.939803 0.841703 0.209781
1 0.847501 0.216327
0.159243 0.948043 0.0594644
0.255512 0.957595 0.102724
0.366232 0.959823 0.146914
0.497078 0.953124 0.192279
0.61442 0.949432 0.22031
0.738277 0.94403 0.220035
0.852781 0.939666 0.21384
0.944442 0.939666 0.213657
1 0.94078 0.215518
0.210208 1 0.0824598
0.299123 1 0.119112
0.40293 1 0.156786
0.529076 1 0.196536
0.642252 1 0.223423
0.756298 1 0.22501
0.861936 1 0.217838
0.947814 1 0.215351
1 1 0.215564
0 0.0361791 0.255543
0 0.0261845 0.26627
0.113878 0.0069276 0.310491
0.337606 0 0.294957
0.47602 0 0.302296
0.627436 0 0.289342
0.753429 0 0.28368
0.85153 0 0.288472
0.942046 0 0.298482
0 0.104204 0.241398
0.0543984 0.0946365 0.212055
0.18761 0.0813153 0.234424
0.398733 0.0491951 0.242603
0.523278 0.0436561 0.276783
0.655283 0.0397955 0.308217
0.786664 0.0422522 0.316182
0.893614 0.0551308 0.329824
0.992523 0.0728008 0.348241
0 0.197604 0.231067
0.108339 0.188678 0.196811
0.239185 0.188098 0.212528
0.421653 0.173236 0.255619
0.566094 0.174899 0.281422
0.710979 0.178836 0.308721
0.828046 0.190906 0.353109
0.937987 0.208194 0.373358
1 0.227848 0.393744
0 0.337423 0.198367
0.109438 0.339117 0.176394
0.230869 0.347082 0.239734
0.384527 0.345846 0.311818
0.539605 0.349294 0.336019
0.69839 0.351766 0.352773
0.835904 0.360449 0.363729
0.946685 0.377356 0.380972
1 0.398016 0.398016
0 0.501747 0.180163
0.105425 0.512154 0.187716
0.222889 0.521401 0.254566
0.38088 0.518624 0.322118
0.52549 0.524437 0.351736
0.69572 0.525643 0.353994
0.837018 0.534371 0.363638
0.947387 0.550668 0.380697
1 0.568627 0.399405
0.0019379 0.666865 0.155657
0.113146 0.681498 0.197696
0.241428 0.690059 0.25008
0.407172 0.68661 0.305882
0.545022 0.691447 0.35079
0.696803 0.694713 0.35404
0.834348 0.699687 0.35993
0.93962 0.710872 0.371893
1 0.722698 0.384436
0.0565347 0.823758 0.163027
0.163027 0.837339 0.208225
0.289876 0.842847 0.2551
0.44892 0.835813 0.3075
0.584604 0.833402 0.35375
0.712505 0.834134 0.362997
0.837064 0.834073 0.361746
0.935485 0.838407 0.366857
1 0.84358 0.372747
0.121645 0.960479 0.193347
0.221653 0.968231 0.233356
0.34078 0.967315 0.274311
0.491554 0.953719 0.320134
0.623362 0.943435 0.361913
0.738064 0.938613 0.374426
0.847761 0.934859 0.369604
0.93843 0.934661 0.369024
1 0.935515 0.370611
0.171695 1 0.213001
0.264485 1 0.246815
0.376303 1 0.281865
0.520333 1 0.322103
0.649348 1 0.360082
0.757748 1 0.375784
0.857527 1 0.372366
0.941619 1 0.370184
1 1 0.370413
0 0.0430762 0.430625
0 0.0396429 0.457084
0.0187228 0.0247959 0.495216
0.232212 0 0.524392
0.467872 0 0.471534
0.621256 0 0.456901
0.748012 0 0.452018
0.846967 0 0.457649
0.938384 0 0.468589
0 0.111742 0.424094
0 0.110964 0.417762
0.0892805 0.100679 0.434318
0.266224 0.0763256 0.477562
0.505425 0.0426337 0.464988
0.650034 0.0377813 0.481621
0.784268 0.0409247 0.487526
0.892012 0.0545815 0.501961
0.991455 0.0728008 0.520912
0 0.204562 0.41651
0.0240635 0.206516 0.398352
0.172351 0.205051 0.384314
0.332631 0.196811 0.439658
0.557061 0.17586 0.463554
0.70428 0.179843 0.489952
0.828687 0.191135 0.523766
0.937301 0.208576 0.546426
1 0.228 0.566583
0 0.347204 0.380972
0.0454108 0.354849 0.376944
0.184344 0.36112 0.410697
0.331151 0.363149 0.472435
0.533562 0.350637 0.514504
0.694865 0.352422 0.526375
0.834989 0.360723 0.536416
0.946059 0.377707 0.554177
1 0.397604 0.574792
0 0.51545 0.34432
0.0527199 0.527626 0.362295
0.174029 0.536416 0.420005
0.33994 0.532677 0.476875
0.524834 0.524834 0.524834
0.694697 0.526192 0.526192
0.836759 0.534218 0.538109
0.946197 0.550546 0.553231
1 0.568093 0.571481
0 0.681971 0.311696
0.0665751 0.697124 0.355108
0.197284 0.705394 0.402121
0.372854 0.699489 0.450141
0.552789 0.690547 0.5028
0.694987 0.69395 0.525963
0.831891 0.698299 0.531228
0.936446 0.708766 0.542473
1 0.71986 0.554299
0.0113832 0.838834 0.315984
0.1178 0.852049 0.359426
0.246265 0.856687 0.402655
0.416846 0.846006 0.447532
0.586892 0.83209 0.496773
0.713466 0.829755 0.530678
0.832273 0.83032 0.530694
0.930037 0.833997 0.535149
1 0.83856 0.540429
0.074815 0.973724 0.343084
0.175021 0.980667 0.380682
0.29662 0.978469 0.417609
0.459419 0.961013 0.456855
0.620478 0.940963 0.500359
0.742245 0.931029 0.534752
0.842466 0.928817 0.536568
0.931395 0.928679 0.535729
1 0.929274 0.537057
0.123049 1 0.359304
0.216602 1 0.390555
0.331853 1 0.421592
0.487984 1 0.456504
0.642832 1 0.495903
0.763729 1 0.52987
0.854353 1 0.537285
0.934813 1 0.536477
1 1 0.536736
0 0.0524605 0.571588
0 0.0499886 0.603387
0 0.0369116 0.642939
0.122286 0.00909438 0.678691
0.40238 0 0.673304
0.615641 0 0.620356
0.743252 0 0.616266
0.843061 0 0.622766
0.935378 0 0.634592
0 0.121523 0.570291
0 0.124849 0.592615
0.00128176 0.118563 0.622156
0.170825 0.098146 0.660075
0.406607 0.0621805 0.692241
0.646067 0.036347 0.65005
0.782513 0.0402075 0.65481
0.890959 0.0545663 0.669947
0.99089 0.0732586 0.689357
0 0.214923 0.569467
0 0.224826 0.587167
0.0756085 0.227512 0.593835
0.25861 0.216709 0.619455
0.452842 0.202533 0.673899
0.69836 0.181033 0.668513
0.826795 0.192035 0.695521
0.936919 0.209232 0.715068
1 0.228351 0.73492
0 0.358114 0.540703
0 0.372015 0.569604
0.133486 0.377325 0.573938
0.279026 0.380362 0.630488
0.450599 0.374838 0.691844
0.693553 0.352895 0.695674
0.834577 0.361349 0.705028
0.945754 0.378439 0.722896
1 0.398306 0.743481
0 0.527398 0.505974
0.000915541 0.541878 0.544945
0.132998 0.549218 0.585611
0.301366 0.5458 0.634821
0.479667 0.541039 0.672419
0.694621 0.52665 0.695674
0.835538 0.534997 0.704936
0.945251 0.550622 0.72134
1 0.567666 0.739101
0 0.695415 0.470878
0.025391 0.710872 0.515175
0.156451 0.719097 0.559747
0.330922 0.713405 0.605219
0.51487 0.703487 0.650095
0.693324 0.693324 0.693324
0.829557 0.697002 0.697887
0.93286 0.707042 0.707042
1 0.717189 0.719417
0 0.852872 0.470451
0.0742657 0.865812 0.51252
0.20177 0.87013 0.553658
0.371603 0.859037 0.594842
0.550164 0.842481 0.635416
0.718425 0.825879 0.678294
0.827604 0.826688 0.695048
0.924727 0.829725 0.698848
1 0.833707 0.703563
0.0292668 0.986206 0.493187
0.128603 0.992584 0.529107
0.249439 0.989883 0.563897
0.412695 0.971756 0.599222
0.584665 0.948409 0.634562
0.743557 0.926268 0.673426
0.84004 0.922316 0.69781
0.92462 0.922942 0.697963
1 0.923308 0.699077
0.0749523 1 0.505562
0.167865 1 0.535271
0.28278 1 0.564477
0.440848 1 0.595315
0.608087 1 0.627482
0.761334 1 0.664393
0.856809 1 0.692821
0.92929 1 0.698207
1 1 0.698726
0 0.0632486 0.680064
0 0.0611429 0.710903
0 0.0491646 0.748623
0.0705272 0.0227512 0.784405
0.269825 0 0.816846
0.572839 0 0.782284
0.741482 0 0.747112
0.842191 0 0.754452
0.935439 0 0.767178
0 0.133242 0.678508
0 0.136995 0.702617
0 0.13286 0.737453
0.116777 0.114672 0.777127
0.302266 0.0939803 0.818463
0.593271 0.0497597 0.819577
0.783749 0.0423743 0.788632
0.892821 0.0573281 0.804349
0.993133 0.0764324 0.824186
0 0.228504 0.67953
0 0.240833 0.704921
0.00822461 0.248356 0.737392
0.180392 0.240696 0.774472
0.369558 0.229633 0.820447
0.615686 0.203967 0.858732
0.828168 0.195499 0.832227
0.939178 0.212406 0.849882
1 0.231327 0.869535
0 0.372061 0.658839
0 0.389181 0.694881
0.0632181 0.400656 0.724605
0.23386 0.39884 0.755245
0.405692 0.393729 0.808469
0.604105 0.380362 0.85864
0.836942 0.36463 0.839963
0.94818 0.381765 0.857862
1 0.401556 0.878386
0 0.540368 0.630884
0 0.555764 0.67187
0.0982834 0.564431 0.709987
0.265095 0.562493 0.75108
0.440665 0.558648 0.787717
0.621134 0.552026 0.834012
0.837552 0.537926 0.839521
0.946868 0.553155 0.855512
1 0.569665 0.87274
0 0.708125 0.599542
0 0.723659 0.643336
0.128679 0.731884 0.687007
0.302205 0.726192 0.730922
0.48365 0.716716 0.772473
0.652766 0.709377 0.80705
0.829694 0.698039 0.83061
0.932815 0.707088 0.840421
1 0.716793 0.850858
0 0.865446 0.598062
0.0442054 0.877974 0.639399
0.170825 0.881743 0.679545
0.339422 0.870176 0.719142
0.516457 0.853346 0.757107
0.687434 0.835706 0.792844
0.825437 0.825437 0.825437
0.92195 0.827817 0.828687
1 0.831266 0.832959
0 0.997345 0.616388
0.0946059 1 0.651164
0.214405 0.999954 0.684504
0.376455 0.981506 0.717647
0.547387 0.957946 0.749737
0.713054 0.933883 0.781033
0.843305 0.918578 0.813306
0.92047 0.919707 0.826383
1 0.91989 0.827314
0.0387579 1 0.624765
0.130892 1 0.653315
0.245106 1 0.681208
0.402502 1 0.710033
0.569894 1 0.739223
0.732754 1 0.7691
0.858244 0.997909 0.801434
0.929061 0.998489 0.82472
1 1 0.827054
0 0.0754864 0.754543
0 0.0736858 0.784726
0 0.0626535 0.820935
0.0275425 0.0374762 0.855955
0.203967 0.0101015 0.890059
0.447089 0 0.914748
0.714229 0 0.868162
0.84448 0 0.850889
0.938659 0 0.86453
0 0.146548 0.75317
0 0.15082 0.778683
0 0.147829 0.813367
0.0780194 0.131319 0.852094
0.259815 0.112993 0.893507
0.470954 0.0896162 0.936172
0.752453 0.0551461 0.916289
0.897704 0.0630198 0.903365
0.998352 0.082414 0.923491
0 0.244282 0.755611
0 0.257755 0.78294
0 0.266056 0.817456
0.141161 0.260548 0.858579
0.326528 0.251209 0.904921
0.516747 0.241291 0.955047
0.785763 0.212284 0.965576
0.944198 0.218204 0.949035
1 0.23714 0.968658
0 0.388907 0.739818
0 0.407584 0.774914
0.0249943 0.421057 0.810086
0.189227 0.420356 0.847395
0.369848 0.413352 0.889311
0.552132 0.405295 0.937407
0.77467 0.387015 0.976394
0.953445 0.387823 0.957259
1 0.407492 0.97763
0 0.555581 0.71696
0 0.571801 0.755871
0.0677958 0.582544 0.793988
0.233112 0.581552 0.83154
0.408316 0.577691 0.869001
0.585748 0.571984 0.912551
0.755184 0.566567 0.966186
0.951186 0.558251 0.953933
1 0.574182 0.970565
0 0.72221 0.690059
0 0.738094 0.73257
0.106874 0.746792 0.774319
0.277089 0.741863 0.815457
0.45275 0.733806 0.853101
0.618647 0.72665 0.88658
0.760143 0.722744 0.930877
0.934874 0.709911 0.936568
1 0.718959 0.946334
0 0.877882 0.691386
0.0254826 0.889952 0.731807
0.151156 0.893172 0.770764
0.318608 0.881086 0.808896
0.494072 0.863951 0.844831
0.661753 0.846708 0.876936
0.788312 0.839704 0.901961
0.921798 0.828473 0.922576
1 0.831464 0.926284
0 1 0.708202
0.073228 1 0.742184
0.192248 1 0.774731
0.353429 0.989975 0.806897
0.523354 0.966049 0.837766
0.687861 0.941924 0.867018
0.820233 0.92604 0.893996
0.919142 0.919142 0.919142
1 0.919158 0.919997
0.0148775 1 0.712932
0.106371 1 0.740764
0.219944 1 0.767865
0.376654 1 0.795621
0.543297 1 0.823316
0.705653 1 0.850721
0.837049 1 0.877592
0.932937 0.99733 0.906126
1 1 0.919844
0 0.0881666 0.817746
0 0.0866865 0.847517
0 0.0764935 0.882582
0 0.0524605 0.916777
0.163134 0.0263828 0.951064
0.351156 0 0.987884
0.610147 0 0.999954
0.825406 0 0.957275
0.94316 0 0.950301
0 0.160479 0.816907
0 0.165362 0.843732
0 0.163424 0.878538
0.0427253 0.148425 0.91664
0.223346 0.131746 0.957794
0.405829 0.117906 1
0.637003 0.0933242 1
0.876402 0.0753643 1
1 0.0893721 1
0 0.260975 0.820935
0 0.27541 0.850248
0 0.284428 0.886336
0.110033 0.279805 0.92726
0.293889 0.271565 0.97229
0.47776 0.263874 1
0.667796 0.253849 1
0.915938 0.232105 1
1 0.243946 1
0 0.407126 0.808576
0 0.426932 0.843427
0 0.440711 0.879377
0.158923 0.43975 0.917342
0.338354 0.432959 0.958099
0.518608 0.426047 1
0.678386 0.424811 1
0.913161 0.405249 1
1 0.414282 1
0 0.57229 0.788861
0 0.589548 0.826337
0.0395361 0.601526 0.863493
0.20293 0.601221 0.900816
0.378271 0.597116 0.938949
0.554086 0.591775 0.980743
0.703777 0.591852 1
0.889677 0.580209 1
1 0.579385 1
0 0.737667 0.765957
0 0.754116 0.806928
0.0835889 0.7635 0.846693
0.249805 0.759441 0.88539
0.421469 0.75201 0.921126
0.586633 0.744106 0.954543
0.724392 0.740658 0.995377
0.851942 0.736233 1
1 0.721798 1
0 0.891157 0.769787
0.00764477 0.902922 0.808789
0.131487 0.905867 0.845838
0.296529 0.893751 0.881651
0.468299 0.877058 0.914565
0.630106 0.861021 0.942748
0.753323 0.8542 0.966949
0.852079 0.850523 1
1 0.832425 1
0 1 0.787747
0.055314 1 0.820768
0.17351 1 0.852323
0.333822 0.998413 0.883391
0.502861 0.974166 0.913008
0.666178 0.949981 0.940566
0.795712 0.934859 0.964172
0.88246 0.931945 0.982452
0.999847 0.919356 1
0 1 0.791074
0.0863661 1 0.818372
0.199496 1 0.845014
0.355779 1 0.872297
0.521981 1 0.899428
0.683803 1 0.926009
0.814557 1 0.951354
0.912871 1 0.975906
1 1 1
