luts/02_Sony LUTs_Cinematic.cube
LUT_3D_SIZE 6
0.036536 0.080183 0.153644
0.173351 0.063904 0.135321
0.410518 -0.055018 0.094293
0.644287 -0.112093 -0.053538
0.894148 -0.161191 -0.136158
1.111200 -0.206950 -0.190240
0.006352 0.215622 0.105811
0.167865 0.214503 0.101343
0.407719 0.214581 0.072086
0.642761 0.198723 -0.083135
0.893063 0.169632 -0.147459
1.110504 0.092936 -0.197534
-0.126142 0.434493 -0.084231
0.147400 0.433468 -0.090503
0.396982 0.430795 -0.111902
0.636729 0.427244 -0.144954
0.888956 0.424399 -0.185976
1.107836 0.409875 -0.225171
-0.201800 0.651246 -0.184398
0.056958 0.651215 -0.186612
0.377551 0.649191 -0.195673
0.624649 0.645745 -0.212460
0.880556 0.651787 -0.241251
1.102262 0.643917 -0.270157
-0.279142 0.880336 -0.268468
-0.194557 0.880303 -0.269842
0.344819 0.878967 -0.275556
0.615663 0.876645 -0.286719
0.868081 0.874167 -0.304039
1.093342 0.869221 -0.325647
-0.352089 1.089724 -0.344427
-0.297570 1.089517 -0.345438
0.277141 1.088710 -0.349525
0.586592 1.087025 -0.357643
0.848308 1.084329 -0.370151
1.080459 1.080459 -0.386837
0.031233 0.072791 0.244412
0.174808 0.064007 0.240795
0.410212 -0.057077 0.237087
0.644149 -0.112896 0.218032
0.894148 -0.161739 0.167443
1.111161 -0.207323 -0.090666
0.003715 0.215268 0.235092
0.165730 0.212027 0.231804
0.427951 0.192713 0.213577
0.673122 0.141873 0.125137
0.918997 -0.096457 -0.107080
1.110581 -0.060168 -0.129727
-0.126821 0.434336 0.206959
0.075767 0.440854 0.101069
0.398488 0.432217 0.061492
0.653035 0.422034 -0.102900
0.906610 0.409049 -0.165626
1.107901 0.404290 -0.173777
-0.202168 0.651211 -0.083498
-0.165641 0.656459 -0.166732
0.360923 0.653379 -0.177912
0.625826 0.646891 -0.197909
0.888956 0.649599 -0.230667
1.102355 0.641650 -0.233160
-0.279394 0.880295 -0.222654
-0.263698 0.883460 -0.261532
0.313783 0.882185 -0.267759
0.607913 0.878746 -0.279584
0.869155 0.876331 -0.298051
1.093342 0.868530 -0.298472
-0.352260 1.089684 -0.313898
-0.307995 1.089520 -0.320737
0.268095 1.088707 -0.325161
0.583883 1.087015 -0.334172
0.847241 1.084312 -0.347881
1.080427 1.080427 -0.366104
0.020321 0.055995 0.433936
0.179766 0.037355 0.432350
0.409127 -0.070220 0.428811
0.643505 -0.118706 0.426050
0.893063 -0.165640 0.425342
1.110917 -0.210112 0.414103
-0.050889 0.221308 0.430145
0.157828 0.205795 0.451598
0.425651 0.184657 0.444465
0.671122 0.132435 0.430145
0.918997 -0.107818 0.415870
1.110342 -0.073614 0.406799
-0.131702 0.433380 0.421444
0.066570 0.438753 0.426448
0.395787 0.429682 0.418387
0.656494 0.413009 0.403044
0.923078 0.376146 0.368181
1.107738 0.396783 0.390895
-0.204873 0.650642 0.406813
-0.168634 0.654971 0.391548
0.331266 0.655998 0.361499
0.626022 0.647082 0.340151
0.902485 0.635769 0.284478
1.102125 0.638230 0.369365
-0.281206 0.879929 0.382700
-0.265923 0.883044 0.353429
0.162526 0.889274 0.135886
0.578217 0.883650 -0.087585
0.870173 0.876184 -0.176702
1.093141 0.866728 0.328545
-0.353577 1.089439 0.328221
-0.309597 1.089279 0.317748
0.255851 1.088465 0.302538
0.579811 1.086803 0.291742
0.846238 1.084086 0.272534
1.080183 1.080183 0.237069
-0.058343 -0.058316 0.649355
0.173213 -0.068053 0.648611
0.408661 -0.096620 0.647092
0.641904 -0.133173 0.644452
0.892102 -0.175699 0.651219
1.110162 -0.217445 0.646270
-0.085491 0.215282 0.647792
0.141157 0.189924 0.676589
0.418742 0.166183 0.675243
0.666165 0.105191 0.665559
0.914848 -0.127857 0.658879
1.109585 -0.099577 0.643369
-0.145401 0.433126 0.643397
0.041652 0.434309 0.664689
0.389208 0.423447 0.662196
0.653051 0.406443 0.655469
0.919963 0.369030 0.648244
1.107023 0.393579 0.636817
-0.212137 0.649125 0.635415
-0.179530 0.652276 0.638568
0.322460 0.652635 0.639023
0.622351 0.643631 0.631595
0.902485 0.626432 0.617750
1.101703 0.629287 0.621608
-0.286128 0.878870 0.632149
-0.270935 0.881022 0.625841
0.147457 0.887118 0.601774
0.556618 0.883384 0.578846
0.869155 0.875568 0.558585
1.092675 0.860704 0.607389
-0.357168 1.088666 0.613710
-0.313935 1.088503 0.610678
0.250733 1.087744 0.607067
0.569092 1.086143 0.596846
0.838364 1.083393 0.592087
1.079452 1.079452 0.585801
-0.097271 -0.097261 0.825921
0.166156 -0.103293 0.825151
0.412410 -0.121926 0.824717
0.651211 -0.151802 0.823040
0.891016 -0.187488 0.821210
1.109187 -0.226332 0.817615
-0.113856 0.208836 0.825143
0.107824 0.157921 0.849847
0.413261 0.130098 0.846697
0.666481 -0.044286 0.839827
0.909729 -0.148409 0.832241
1.108718 -0.123074 0.816721
-0.162542 0.436636 0.822268
-0.069636 0.430170 0.839261
0.377176 0.412122 0.843267
0.654032 0.391960 0.839815
0.917920 0.355121 0.835129
1.106045 0.389382 0.813255
-0.224981 0.657789 0.816748
-0.197973 0.658748 0.823897
0.297835 0.651382 0.831889
0.616091 0.637682 0.829251
0.899314 0.620293 0.823671
1.100696 0.627083 0.804687
-0.292249 0.877523 0.807934
-0.278032 0.879723 0.808814
0.123023 0.883963 0.811591
0.548613 0.880026 0.808904
0.862880 0.870556 0.802374
1.091392 0.864731 0.798754
-0.361737 1.087762 0.796190
-0.319362 1.087551 0.795364
0.243941 1.086769 0.793807
0.566588 1.085155 0.788844
0.841763 1.082312 0.789427
1.078481 1.078481 0.785674
-0.121712 -0.121700 1.015052
0.154694 -0.125735 1.014839
0.409237 -0.141394 1.013918
0.650078 -0.167316 1.012060
0.889930 -0.199869 1.009067
1.108118 -0.236017 1.004826
-0.134728 0.198294 1.014332
0.127617 0.176554 1.014271
0.401575 0.166304 1.013345
0.646634 0.138530 1.011477
0.887894 0.053513 1.008478
1.107629 -0.143985 1.004211
-0.177032 0.433509 1.011250
0.080521 0.427560 1.011171
0.384253 0.418763 1.010399
0.637741 0.412037 1.008512
0.882695 0.401549 1.005485
1.104946 0.384553 1.001189
-0.235142 0.656699 1.004940
-0.135854 0.653748 1.004837
0.359680 0.649747 1.004042
0.617532 0.639076 1.002478
0.869155 0.632795 0.999414
1.099567 0.624589 0.995004
-0.299633 0.877686 0.994721
-0.240818 0.875638 0.994642
0.315455 0.874270 0.993760
0.596274 0.867007 0.992250
0.859707 0.868241 0.988685
1.090297 0.863100 0.984354
-0.366844 1.086600 0.980012
-0.325466 1.086428 0.979841
0.235864 1.085652 0.978988
0.563681 1.084024 0.977090
0.844152 1.081180 0.973768
1.077314 1.077314 0.969305
