luts/02_Sony LUTs_Cinematic.cube
LUT_3D_SIZE 16
0.036536 0.080183 0.153644
0.057739 0.077674 0.151755
0.107950 0.071334 0.146918
0.173351 0.063904 0.135321
0.252193 0.050563 0.110941
0.330311 -0.008111 0.104381
0.410518 -0.055018 0.094293
0.490716 -0.077374 0.078668
0.568843 -0.095751 0.050759
0.644287 -0.112093 -0.053538
0.719875 -0.128215 -0.087108
0.800495 -0.143807 -0.112160
0.894148 -0.161191 -0.136158
0.982085 -0.179370 -0.158414
1.037052 -0.191784 -0.172971
1.111200 -0.206950 -0.190240
0.031452 0.104168 0.147777
0.055021 0.103380 0.146280
0.105663 0.095311 0.142548
0.174172 0.090590 0.129839
0.251912 0.084711 0.110150
0.330202 0.074166 0.103495
0.410208 0.055210 0.092955
0.490585 -0.036966 0.076878
0.568716 -0.071801 0.047351
0.644130 -0.094320 -0.056428
0.719651 -0.113880 -0.088608
0.801456 -0.132180 -0.113463
0.894148 -0.150821 -0.137012
0.982085 -0.170533 -0.159112
1.037001 -0.183785 -0.173568
1.111151 -0.199781 -0.190763
0.023483 0.153136 0.127537
0.043994 0.152897 0.124037
0.102360 0.152159 0.112672
0.170364 0.147975 0.110692
0.251127 0.148158 0.105394
0.328430 0.144535 0.098007
0.409441 0.140292 0.086829
0.489882 0.132737 0.068507
0.568131 0.121581 0.025365
0.643636 0.105645 -0.066912
0.721184 0.081262 -0.095034
0.800860 -0.021178 -0.117604
0.894148 -0.085917 -0.140577
0.981184 -0.119175 -0.162152
1.036800 -0.142046 -0.176165
1.110940 -0.163998 -0.193051
0.006352 0.215622 0.105811
0.033340 0.215474 0.105512
0.093645 0.215622 0.104158
0.167865 0.214503 0.101343
0.246292 0.215574 0.095876
0.326035 0.215432 0.087023
0.407719 0.214581 0.072086
0.488525 0.211509 0.044368
0.567058 0.206175 -0.053756
0.642761 0.198723 -0.083135
0.720148 0.190440 -0.105888
0.798937 0.181023 -0.125403
0.893063 0.169632 -0.147459
0.981184 0.153911 -0.168025
1.036359 0.129319 -0.181242
1.110504 0.092936 -0.197534
-0.065216 0.286391 0.088452
0.010451 0.286297 0.088039
0.084397 0.286391 0.086234
0.164969 0.285296 0.081972
0.241612 0.284216 0.076957
0.322953 0.286191 0.060531
0.405093 0.287167 0.027610
0.486441 0.286191 -0.058468
0.565390 0.282986 -0.083330
0.641372 0.277791 -0.102439
0.718464 0.272159 -0.119851
0.798649 0.265987 -0.138569
0.892102 0.263507 -0.157618
0.980275 0.258176 -0.176859
1.035660 0.244822 -0.188991
1.109913 0.232615 -0.204424
-0.097763 0.360120 0.044949
-0.074810 0.360049 0.043838
0.071116 0.360120 0.041671
0.158868 0.359083 0.027831
0.239102 0.358076 -0.034222
0.320049 0.356495 -0.056345
0.401547 0.359101 -0.077206
0.483566 0.359449 -0.094334
0.562974 0.357363 -0.109429
0.639357 0.353269 -0.123281
0.717177 0.348515 -0.137786
0.798718 0.346392 -0.153217
0.891016 0.346549 -0.170625
0.979322 0.344727 -0.188420
1.034660 0.333757 -0.199268
1.109025 0.326023 -0.213710
-0.126142 0.434493 -0.084231
-0.111045 0.434443 -0.084699
0.044730 0.434493 -0.086706
0.147400 0.433468 -0.090503
0.234508 0.432744 -0.095398
0.317387 0.432205 -0.103226
0.396982 0.430795 -0.111902
0.479851 0.432205 -0.123407
0.559902 0.430882 -0.134379
0.636729 0.427244 -0.144954
0.713986 0.424990 -0.157091
0.797114 0.422301 -0.170233
0.888956 0.424399 -0.185976
0.977528 0.425661 -0.202383
1.033370 0.415537 -0.211836
1.107836 0.409875 -0.225171
-0.152826 0.508902 -0.124592
-0.141486 0.508868 -0.124861
-0.061205 0.507933 -0.126033
0.128657 0.507864 -0.128360
0.224568 0.506897 -0.131768
0.311589 0.507530 -0.136663
0.394335 0.505927 -0.142889
0.475104 0.504569 -0.150105
0.555999 0.503774 -0.158722
0.633448 0.500429 -0.167117
0.711156 0.497861 -0.176722
0.793835 0.497482 -0.188440
0.886806 0.501004 -0.203120
0.975765 0.504454 -0.218246
1.031706 0.494126 -0.226367
1.106295 0.489710 -0.238595
-0.177988 0.581326 -0.156462
-0.168941 0.581301 -0.156665
-0.119645 0.581326 -0.157525
0.101581 0.581301 -0.159255
0.212771 0.579844 -0.161864
0.303532 0.579741 -0.165387
0.387754 0.578876 -0.170357
0.470155 0.577774 -0.176084
0.551214 0.576424 -0.182753
0.629441 0.573214 -0.189641
0.707480 0.570525 -0.197426
0.791931 0.572226 -0.208238
0.883664 0.576945 -0.221668
0.973927 0.582238 -0.235720
1.029667 0.571054 -0.242524
1.104531 0.567491 -0.253680
-0.201800 0.651246 -0.184398
-0.194352 0.651215 -0.184566
-0.155873 0.651246 -0.185250
0.056958 0.651215 -0.186612
0.192186 0.651144 -0.188780
0.289858 0.650203 -0.191783
0.377551 0.649191 -0.195673
0.461703 0.648238 -0.200430
0.543747 0.647103 -0.206040
0.624649 0.645745 -0.212460
0.703133 0.643150 -0.219141
0.787086 0.644767 -0.228712
0.880556 0.651787 -0.241251
0.971110 0.658676 -0.254386
1.027248 0.646896 -0.259974
1.102262 0.643917 -0.270157
-0.225913 0.721858 -0.211279
-0.219596 0.721914 -0.211428
-0.189300 0.721858 -0.211970
-0.082395 0.721914 -0.213102
0.166308 0.721176 -0.214892
0.273580 0.721204 -0.217405
0.366297 0.720122 -0.220688
0.452725 0.719267 -0.224703
0.536262 0.718306 -0.229509
0.618092 0.717232 -0.235014
0.698726 0.716363 -0.241606
0.782605 0.718203 -0.249678
0.877477 0.726956 -0.261598
0.968300 0.734124 -0.273995
1.024401 0.721887 -0.278473
1.099697 0.719381 -0.287751
-0.251396 0.797493 -0.238948
-0.245934 0.797462 -0.239063
-0.220190 0.797493 -0.239546
-0.149026 0.797462 -0.240500
0.132486 0.796806 -0.242030
0.255737 0.796155 -0.244174
0.355372 0.795861 -0.247011
0.445275 0.795121 -0.250502
0.531220 0.794333 -0.254678
0.614773 0.793305 -0.259528
0.696830 0.792359 -0.265008
0.778282 0.790297 -0.271145
0.873313 0.800835 -0.282631
0.964511 0.808391 -0.294156
1.021110 0.796900 -0.297859
1.096712 0.794652 -0.306352
-0.279142 0.880336 -0.268468
-0.274282 0.880303 -0.268566
-0.251706 0.880336 -0.268982
-0.194557 0.880303 -0.269842
0.081060 0.879930 -0.271197
0.237851 0.879298 -0.273092
0.344819 0.878967 -0.275556
0.439908 0.878283 -0.278647
0.529322 0.877542 -0.282375
0.615663 0.876645 -0.286719
0.700152 0.875534 -0.291662
0.783326 0.874636 -0.297218
0.868081 0.874167 -0.304039
0.960629 0.883909 -0.315117
1.017362 0.871187 -0.317899
1.093342 0.869221 -0.325647
-0.307786 0.964118 -0.298540
-0.303404 0.964086 -0.298639
-0.283329 0.964118 -0.298993
-0.235823 0.964086 -0.299740
-0.092848 0.962923 -0.300950
0.210946 0.963334 -0.302678
0.331241 0.962923 -0.304894
0.432778 0.962417 -0.307656
0.526472 0.961779 -0.311013
0.615922 0.960952 -0.314910
0.703491 0.960008 -0.319421
0.788842 0.959215 -0.324553
0.873313 0.959118 -0.330355
0.955868 0.956592 -0.336609
1.013122 0.944401 -0.338511
1.089520 0.942734 -0.345637
-0.327914 1.017053 -0.319479
-0.324024 1.017038 -0.319549
-0.306551 1.016971 -0.319876
-0.266156 1.016845 -0.320552
-0.173629 1.016623 -0.321621
0.165521 1.016328 -0.323114
0.304558 1.015931 -0.325091
0.411302 1.015420 -0.327567
0.507397 1.014806 -0.330547
0.597980 1.014075 -0.334057
0.685484 1.013218 -0.338067
0.771912 1.012214 -0.342687
0.855606 1.011084 -0.347742
0.939146 1.009804 -0.353422
1.008427 1.008427 -0.359322
1.085243 1.006845 -0.365853
-0.352089 1.089724 -0.344427
-0.348572 1.089709 -0.344515
-0.332901 1.089645 -0.344811
-0.297570 1.089517 -0.345438
-0.224648 1.089361 -0.346377
0.102124 1.089107 -0.347708
0.277141 1.088710 -0.349525
0.392680 1.088258 -0.351750
0.493198 1.087745 -0.354438
0.586592 1.087025 -0.357643
0.675484 1.086274 -0.361268
0.763605 1.085332 -0.365532
0.848308 1.084329 -0.370151
0.933142 1.083166 -0.375334
1.003120 1.081940 -0.380790
1.080459 1.080459 -0.386837
0.036053 0.079525 0.169594
0.057502 0.076955 0.168901
0.107252 0.071661 0.162866
0.175143 0.064173 0.157695
0.252178 0.050563 0.147267
0.330362 -0.009845 0.112145
0.410486 -0.055139 0.103594
0.490732 -0.077465 0.090425
0.568836 -0.095814 0.069699
0.644281 -0.112140 -0.004877
0.719862 -0.128245 -0.074537
0.800487 -0.143838 -0.103515
0.894148 -0.161228 -0.129630
0.982085 -0.179404 -0.153188
1.037049 -0.191816 -0.168367
1.111198 -0.206965 -0.186221
0.031207 0.103979 0.166914
0.054884 0.103217 0.166155
0.108419 0.099062 0.162420
0.180248 0.088454 0.152691
0.258605 0.075152 0.133067
0.337934 0.056467 0.107592
0.416913 -0.028523 0.097306
0.496228 -0.066711 0.081798
0.573512 -0.089121 0.055488
0.648017 -0.107394 -0.049138
0.723513 -0.124185 -0.085149
0.805350 -0.141973 -0.111684
0.896204 -0.158824 -0.135182
0.982927 -0.177507 -0.157608
1.036997 -0.183700 -0.168944
1.111148 -0.199706 -0.186741
0.023405 0.153092 0.154526
0.042328 0.153974 0.152274
0.102222 0.152105 0.147806
0.174371 0.148077 0.135829
0.255392 0.146638 0.110183
0.335437 0.141130 0.102471
0.414734 0.134834 0.091303
0.494787 0.125396 0.073965
0.572474 0.112003 0.040090
0.647227 0.092603 -0.061542
0.723523 0.057920 -0.092256
0.803447 -0.068025 -0.115828
0.896204 -0.102326 -0.139289
0.982085 -0.131389 -0.160837
1.036797 -0.141945 -0.171634
1.110937 -0.163922 -0.189060
0.006195 0.215593 0.113103
0.024909 0.216699 0.110024
0.091220 0.216568 0.108568
0.168247 0.215709 0.105544
0.247874 0.215738 0.099913
0.330815 0.214804 0.090860
0.411390 0.212794 0.077248
0.492258 0.208915 0.052986
0.570546 0.202818 -0.045997
0.645903 0.194653 -0.079458
0.721581 0.186110 -0.102885
0.803114 0.175972 -0.124533
0.895137 0.162882 -0.145898
0.982085 0.146209 -0.166337
1.036356 0.129441 -0.176913
1.110501 0.093104 -0.193696
-0.065307 0.286368 0.097923
-0.047516 0.287353 0.092409
0.078605 0.287359 0.090816
0.160935 0.285397 0.086964
0.241699 0.283688 0.080763
0.324390 0.286126 0.067041
0.407299 0.286616 0.041158
0.488961 0.285151 -0.051850
0.567937 0.281494 -0.079706
0.643729 0.275882 -0.099872
0.721004 0.270669 -0.118665
0.799990 0.264088 -0.136206
0.894148 0.261581 -0.156297
0.981184 0.254291 -0.175777
1.035657 0.244863 -0.184893
1.109910 0.232660 -0.200773
-0.097825 0.360099 0.065359
-0.090723 0.360927 0.052466
0.061263 0.360099 0.050889
0.153656 0.358959 0.039682
0.239089 0.359118 -0.021626
0.318408 0.357187 -0.050037
0.402610 0.359118 -0.073205
0.485056 0.359190 -0.091447
0.564734 0.356721 -0.107203
0.641159 0.352332 -0.121465
0.716725 0.347874 -0.136133
0.799506 0.345468 -0.151588
0.893063 0.344591 -0.169159
0.980275 0.342761 -0.187158
1.034657 0.333808 -0.195474
1.109022 0.326046 -0.210276
-0.126188 0.434495 -0.071230
-0.122034 0.435104 -0.081180
0.030819 0.434495 -0.082338
0.141157 0.434129 -0.087325
0.231518 0.433879 -0.092898
0.317055 0.431191 -0.100125
0.397105 0.430899 -0.109792
0.480552 0.432164 -0.121621
0.560942 0.430607 -0.132850
0.637954 0.426743 -0.143603
0.715004 0.423724 -0.155655
0.798314 0.421798 -0.169137
0.889930 0.423438 -0.184626
0.979322 0.424697 -0.201030
1.033367 0.415573 -0.208376
1.107833 0.409889 -0.222002
-0.152865 0.508891 -0.117466
-0.150119 0.509399 -0.123104
-0.084120 0.507919 -0.124268
0.123448 0.509399 -0.126194
0.223075 0.508106 -0.130207
0.310721 0.507675 -0.135656
0.393883 0.506136 -0.141527
0.475253 0.504702 -0.148876
0.556440 0.503707 -0.157602
0.634192 0.500208 -0.166099
0.710538 0.496816 -0.174789
0.794595 0.496269 -0.187029
0.887894 0.500037 -0.201731
0.977528 0.503462 -0.216753
1.031703 0.494146 -0.223209
1.106293 0.489706 -0.235656
-0.178019 0.581321 -0.151356
-0.176047 0.581762 -0.155527
-0.129730 0.582300 -0.156708
0.092338 0.580792 -0.158331
0.208744 0.581128 -0.160380
0.300064 0.579903 -0.164624
0.386810 0.579162 -0.169404
0.469840 0.577937 -0.175199
0.551287 0.576520 -0.181916
0.629792 0.573202 -0.188821
0.708603 0.571602 -0.196951
0.790229 0.571238 -0.207136
0.885840 0.576953 -0.220255
0.973927 0.581236 -0.234418
1.029664 0.571061 -0.239652
1.104529 0.567478 -0.250985
-0.201815 0.651241 -0.180410
-0.200333 0.651633 -0.183733
-0.164085 0.652217 -0.184713
0.046299 0.650658 -0.185962
0.189865 0.651352 -0.187585
0.287141 0.650404 -0.190564
0.376272 0.649392 -0.194847
0.461058 0.648451 -0.199632
0.543583 0.647247 -0.205250
0.624689 0.645773 -0.211666
0.703991 0.643326 -0.218999
0.787146 0.643886 -0.227455
0.881645 0.651750 -0.240336
0.971110 0.656689 -0.252714
1.027246 0.646884 -0.257364
1.102260 0.643899 -0.267687
-0.225941 0.721847 -0.208005
-0.224423 0.722165 -0.210626
-0.193814 0.721847 -0.210705
-0.096562 0.722165 -0.212470
0.161716 0.721322 -0.213922
0.272693 0.720667 -0.216352
0.364808 0.720356 -0.219904
0.451838 0.719571 -0.223923
0.535839 0.718406 -0.228692
0.617974 0.717232 -0.234215
0.701424 0.717436 -0.241665
0.783564 0.717232 -0.249154
0.877477 0.726979 -0.260361
0.968300 0.733252 -0.272780
1.024410 0.721910 -0.276124
1.099692 0.719545 -0.285511
-0.251415 0.797488 -0.236159
-0.249837 0.797623 -0.238227
-0.224277 0.798410 -0.238797
-0.155823 0.797623 -0.239794
0.126686 0.797951 -0.241037
0.253654 0.797236 -0.243444
0.353742 0.795972 -0.246156
0.444250 0.795257 -0.249660
0.530609 0.794357 -0.253847
0.614447 0.793429 -0.258713
0.697219 0.792383 -0.264610
0.777988 0.790441 -0.270657
0.873313 0.799891 -0.281405
0.964511 0.808348 -0.292696
1.021107 0.796902 -0.295713
1.096711 0.794609 -0.304262
-0.279159 0.880331 -0.266016
-0.277516 0.880551 -0.267736
-0.254841 0.880331 -0.267675
-0.199561 0.879610 -0.269017
0.071083 0.880121 -0.270311
0.234684 0.880468 -0.272103
0.343160 0.879130 -0.274710
0.438805 0.878463 -0.277811
0.528638 0.877691 -0.281522
0.615246 0.876767 -0.285873
0.699501 0.875735 -0.290250
0.781848 0.873764 -0.295731
0.868081 0.874165 -0.302647
0.960629 0.883922 -0.313893
1.017359 0.871186 -0.315929
1.093341 0.869234 -0.323724
-0.307804 0.964113 -0.296350
-0.306036 0.964203 -0.297716
-0.285159 0.964113 -0.297517
-0.239577 0.964203 -0.298836
-0.103719 0.963922 -0.300066
0.207726 0.963428 -0.301721
0.329483 0.962999 -0.303979
0.431636 0.962508 -0.306750
0.525676 0.961797 -0.310110
0.615362 0.961158 -0.314062
0.701676 0.960872 -0.318620
0.787213 0.958489 -0.323712
0.873313 0.959112 -0.329282
0.955868 0.956632 -0.335652
1.013119 0.944394 -0.336720
1.089516 0.942791 -0.343887
-0.327925 1.017051 -0.317547
-0.323986 1.017035 -0.317591
-0.306569 1.016969 -0.317872
-0.266753 1.016845 -0.318592
-0.173587 1.016621 -0.319677
0.168650 1.016321 -0.321202
0.304586 1.015928 -0.323187
0.411317 1.015418 -0.325680
0.507421 1.014803 -0.328698
0.597966 1.014073 -0.332235
0.685506 1.013215 -0.336266
0.771896 1.012212 -0.340907
0.855606 1.011082 -0.346014
0.939146 1.009802 -0.351701
1.008424 1.008424 -0.357661
1.085243 1.006809 -0.364269
-0.352099 1.089721 -0.342723
-0.348528 1.089706 -0.342750
-0.332913 1.089643 -0.342998
-0.298079 1.089516 -0.343649
-0.224628 1.089359 -0.344614
0.102123 1.089105 -0.345993
0.277143 1.088708 -0.347802
0.392693 1.088256 -0.350042
0.493224 1.087742 -0.352776
0.586578 1.087023 -0.355994
0.676486 1.086259 -0.359718
0.763587 1.085330 -0.363876
0.848308 1.084327 -0.368555
0.933142 1.083164 -0.373792
1.003083 1.081938 -0.379277
1.080457 1.080457 -0.385334
0.033528 0.076041 0.202212
0.051749 0.074427 0.201256
0.107727 0.070140 0.199218
0.174228 0.062627 0.195282
0.252086 0.049583 0.193313
0.330290 -0.014543 0.187695
0.410396 -0.055714 0.181358
0.490688 -0.077837 0.169021
0.568803 -0.096099 0.142752
0.644251 -0.112364 0.101166
0.719806 -0.128440 0.077533
0.800453 -0.144001 -0.030049
0.894148 -0.161385 -0.090285
0.982085 -0.179543 -0.123179
1.037038 -0.191934 -0.144259
1.111187 -0.207073 -0.165804
0.030514 0.097361 0.199800
0.053875 0.102037 0.201103
0.109444 0.097361 0.199800
0.179005 0.088269 0.195877
0.259403 0.075152 0.192139
0.336786 0.055484 0.185876
0.416664 -0.030196 0.176443
0.496115 -0.067202 0.160484
0.573429 -0.089449 0.111062
0.647995 -0.107636 0.093288
0.723446 -0.125442 0.062195
0.805325 -0.142133 -0.057659
0.896204 -0.158976 -0.100268
0.982927 -0.177646 -0.129740
1.036986 -0.183831 -0.144981
1.111137 -0.199828 -0.166410
0.023030 0.152879 0.195267
0.041554 0.153476 0.195500
0.099517 0.149931 0.193022
0.177458 0.146582 0.189513
0.262975 0.138676 0.181684
0.347261 0.126602 0.168946
0.431687 0.110161 0.142068
0.512826 0.087271 0.101557
0.589799 0.045410 0.080247
0.663039 -0.069530 0.039666
0.738649 -0.100940 -0.071314
0.815111 -0.124706 -0.103228
0.905540 -0.147876 -0.130677
0.989977 -0.168442 -0.154120
1.036832 -0.151722 -0.152960
1.110970 -0.172022 -0.173045
0.005536 0.215480 0.186763
0.024446 0.216472 0.184874
0.084535 0.218428 0.179291
0.168528 0.215482 0.173669
0.254349 0.213406 0.161476
0.339636 0.209988 0.137552
0.425145 0.205520 0.103765
0.507284 0.198180 0.086554
0.585372 0.188717 0.058883
0.659690 0.177144 -0.049396
0.735323 0.164119 -0.087649
0.814903 0.146656 -0.114254
0.903474 0.127206 -0.138621
0.989092 0.090036 -0.161053
1.036390 0.116389 -0.159120
1.110534 0.069386 -0.178262
-0.065733 0.286302 0.172838
-0.048272 0.287221 0.167596
0.056958 0.289243 0.132485
0.154694 0.287221 0.112241
0.243568 0.285854 0.105090
0.331321 0.286464 0.094736
0.416468 0.284871 0.079744
0.500053 0.281535 0.052680
0.579624 0.275905 -0.050459
0.655140 0.268390 -0.083072
0.730611 0.260171 -0.106310
0.811359 0.253635 -0.128017
0.902485 0.246954 -0.149672
0.988251 0.237292 -0.170385
1.035690 0.240071 -0.168335
1.109942 0.227450 -0.186184
-0.098077 0.360059 0.113210
-0.091016 0.360831 0.107986
0.018285 0.363006 0.083818
0.141157 0.362777 0.078151
0.234276 0.362253 0.069323
0.319212 0.357464 0.053482
0.407165 0.359274 -0.035524
0.492096 0.358423 -0.071302
0.572979 0.354815 -0.093062
0.649726 0.348989 -0.110596
0.727067 0.342034 -0.126843
0.808114 0.338152 -0.144932
0.899314 0.335786 -0.164194
0.985673 0.332825 -0.182647
1.034688 0.330868 -0.180300
1.109053 0.322989 -0.196694
-0.126364 0.434448 0.079174
-0.122256 0.435104 0.068396
-0.092305 0.437391 -0.057564
0.121361 0.438050 -0.065662
0.224928 0.436510 -0.074541
0.313233 0.433497 -0.084127
0.397786 0.431583 -0.096263
0.484054 0.432522 -0.110874
0.566142 0.430245 -0.123970
0.644044 0.425515 -0.136086
0.722307 0.420411 -0.149244
0.804427 0.417645 -0.163457
0.897287 0.419437 -0.180744
0.983865 0.419639 -0.197713
1.033396 0.413525 -0.194639
1.107861 0.407820 -0.209494
-0.153001 0.508874 -0.070921
-0.150267 0.509385 -0.082177
-0.134329 0.512769 -0.114467
0.093355 0.512363 -0.117184
0.210013 0.510344 -0.121334
0.306104 0.509237 -0.126712
0.392264 0.507420 -0.133676
0.475868 0.505312 -0.141777
0.559129 0.504057 -0.151432
0.638025 0.499993 -0.160592
0.715330 0.495207 -0.170660
0.800492 0.496051 -0.183870
0.892102 0.497565 -0.198551
0.980275 0.498044 -0.213211
1.031730 0.492648 -0.210837
1.106318 0.488209 -0.224255
-0.178131 0.581304 -0.123694
-0.176168 0.581733 -0.129567
-0.165177 0.585217 -0.150577
0.052766 0.582730 -0.152030
0.192648 0.582553 -0.154423
0.293774 0.581900 -0.158886
0.383257 0.580587 -0.164049
0.468742 0.578937 -0.170210
0.551793 0.576981 -0.177299
0.631754 0.573483 -0.184630
0.710055 0.570113 -0.192797
0.795298 0.570524 -0.203843
0.887894 0.574856 -0.217165
0.976597 0.578148 -0.231398
1.029688 0.569934 -0.228564
1.104552 0.566357 -0.240621
-0.201923 0.651218 -0.159991
-0.200434 0.651643 -0.164286
-0.192188 0.654130 -0.180245
-0.083903 0.652666 -0.181688
0.170234 0.651811 -0.183610
0.278375 0.650631 -0.186940
0.371225 0.650870 -0.190936
0.458543 0.649621 -0.195889
0.542727 0.648008 -0.201688
0.625139 0.646245 -0.208330
0.705175 0.643077 -0.215319
0.789615 0.644280 -0.224696
0.883664 0.650040 -0.237459
0.973927 0.655840 -0.250625
1.027264 0.646110 -0.247420
1.102279 0.643065 -0.258286
-0.226017 0.721920 -0.191767
-0.224529 0.722235 -0.194984
-0.217171 0.723856 -0.207272
-0.144352 0.724164 -0.209285
0.138517 0.722506 -0.210955
0.261671 0.721668 -0.213411
0.358280 0.721582 -0.216824
0.448084 0.720701 -0.220992
0.533922 0.719395 -0.225931
0.617387 0.717937 -0.231602
0.699490 0.717441 -0.238513
0.785109 0.718956 -0.246670
0.879539 0.725376 -0.258204
0.969275 0.732626 -0.270721
1.024414 0.721472 -0.267142
1.099709 0.718822 -0.276969
-0.251492 0.797465 -0.222585
-0.249912 0.797597 -0.225052
-0.244672 0.799420 -0.236059
-0.186214 0.798630 -0.236946
0.090849 0.798169 -0.238655
0.241596 0.797406 -0.240727
0.345814 0.797253 -0.243814
0.439487 0.796402 -0.247398
0.527691 0.795329 -0.251647
0.612912 0.794158 -0.256582
0.696431 0.793380 -0.262197
0.778547 0.791151 -0.268626
0.874366 0.800401 -0.279515
0.965405 0.808941 -0.291490
1.021116 0.796476 -0.287639
1.096720 0.794169 -0.296513
-0.279220 0.880306 -0.254266
-0.277576 0.880574 -0.256276
-0.273440 0.882243 -0.266160
-0.223669 0.881537 -0.266867
-0.038954 0.882071 -0.268813
0.215108 0.880360 -0.270338
0.333742 0.880110 -0.272838
0.432771 0.879346 -0.275969
0.524745 0.878501 -0.279731
0.612799 0.877448 -0.284145
0.698665 0.876545 -0.289401
0.782530 0.874499 -0.294083
0.869155 0.874873 -0.301793
0.961628 0.883620 -0.312737
1.017364 0.870943 -0.308619
1.093347 0.868881 -0.316665
-0.307871 0.964089 -0.285953
-0.306085 0.964178 -0.287528
-0.303060 0.964915 -0.296529
-0.260557 0.965097 -0.297578
-0.153919 0.963880 -0.298230
0.186065 0.964101 -0.299790
0.318409 0.963880 -0.302461
0.424570 0.963267 -0.305270
0.520979 0.962616 -0.308679
0.612221 0.961719 -0.312628
0.700146 0.959830 -0.317414
0.787182 0.959861 -0.322333
0.873313 0.959211 -0.328251
0.955868 0.957479 -0.334218
1.013113 0.944376 -0.330088
1.089516 0.942590 -0.337415
-0.327988 1.017039 -0.308409
-0.324034 1.017023 -0.308499
-0.310530 1.016974 -0.310883
-0.270787 1.016847 -0.311355
-0.179717 1.016622 -0.312504
0.160457 1.016328 -0.314049
0.301592 1.015930 -0.316115
0.409399 1.015419 -0.318691
0.506006 1.014804 -0.321807
0.597068 1.014072 -0.325457
0.685149 1.013207 -0.329620
0.771017 1.012213 -0.334372
0.855606 1.011073 -0.339670
0.938114 1.009811 -0.345429
1.008415 1.008415 -0.351604
1.085235 1.006784 -0.358330
-0.352134 1.089710 -0.334542
-0.348577 1.089695 -0.334584
-0.336417 1.089648 -0.336729
-0.301535 1.089519 -0.337160
-0.228956 1.089360 -0.338193
0.092941 1.089107 -0.339576
0.273784 1.088710 -0.341441
0.390655 1.088257 -0.343772
0.491791 1.087743 -0.346551
0.585599 1.087022 -0.349841
0.675095 1.086263 -0.353635
0.761619 1.085346 -0.357843
0.848308 1.084318 -0.362738
0.932132 1.083172 -0.367977
1.003057 1.081930 -0.373662
1.080448 1.080448 -0.379901
0.031233 0.072791 0.244412
0.049751 0.071874 0.243784
0.104294 0.067876 0.242920
0.174808 0.064007 0.240795
0.251915 0.047615 0.240824
0.329172 -0.012451 0.239057
0.410212 -0.057077 0.237087
0.490605 -0.078720 0.233068
0.568730 -0.096759 0.226814
0.644149 -0.112896 0.218032
0.719676 -0.128867 0.206644
0.801478 -0.144760 0.190364
0.894148 -0.161739 0.167443
0.982085 -0.179869 0.101274
1.037011 -0.192206 0.047287
1.111161 -0.207323 -0.090666
0.029274 0.095595 0.242695
0.051406 0.099097 0.248208
0.108569 0.093634 0.247181
0.180039 0.086308 0.243729
0.257982 0.074166 0.242434
0.335463 0.053513 0.240345
0.416302 -0.033802 0.236455
0.495858 -0.068388 0.231389
0.573212 -0.090228 0.224179
0.647843 -0.108224 0.214437
0.724153 -0.124307 0.203236
0.805108 -0.142073 0.184534
0.896204 -0.159748 0.153246
0.982927 -0.177979 0.091421
1.036959 -0.184128 0.043733
1.111111 -0.200091 -0.092039
0.022401 0.151227 0.239438
0.039759 0.152770 0.242900
0.100526 0.150236 0.243176
0.177062 0.145885 0.241405
0.262367 0.138234 0.241246
0.346649 0.126016 0.236695
0.431076 0.108732 0.230782
0.512262 0.085695 0.222496
0.589449 0.041773 0.211609
0.662679 -0.070925 0.197268
0.735244 -0.101194 0.177243
0.816868 -0.124710 0.112312
0.905540 -0.148901 0.078241
0.989977 -0.169304 -0.061667
1.036805 -0.152106 -0.055342
1.110945 -0.172339 -0.107824
0.003715 0.215268 0.235092
0.023396 0.215974 0.235524
0.083323 0.216236 0.235832
0.165730 0.212027 0.231804
0.254034 0.209439 0.229265
0.341473 0.202220 0.223052
0.427951 0.192713 0.213577
0.514328 0.179601 0.199885
0.596444 0.162731 0.179178
0.673122 0.141873 0.125137
0.750583 0.111588 0.081760
0.830398 0.062213 -0.048873
0.918997 -0.096457 -0.107080
1.000026 -0.137612 -0.140516
1.036439 0.088049 -0.096210
1.110581 -0.060168 -0.129727
-0.066732 0.286120 0.230603
-0.050029 0.286971 0.229538
0.055270 0.289080 0.224614
0.147400 0.287943 0.216826
0.242944 0.284723 0.213972
0.331959 0.282462 0.206137
0.422083 0.278827 0.193051
0.508981 0.272620 0.173998
0.591131 0.263987 0.113309
0.668178 0.253383 0.088192
0.744240 0.242358 0.030775
0.825420 0.228800 -0.088511
0.915854 0.214955 -0.124782
0.997921 0.198737 -0.152825
1.035719 0.231678 -0.113435
1.109988 0.218417 -0.141707
-0.098688 0.359925 0.222180
-0.091742 0.360717 0.219723
0.014995 0.362901 0.209471
0.117199 0.363671 0.188325
0.229393 0.360659 0.184051
0.319738 0.357815 0.168946
0.411667 0.357726 0.139951
