luts/04_Color Finale LUTs_Insta Look.cube
LUT_3D_SIZE 6
-0.080456 -0.081138 -0.086687
0.177468 -0.089231 -0.095026
0.449129 -0.130552 -0.134035
0.721635 -0.188730 -0.190819
0.914585 -0.233209 -0.234751
1.014894 -0.256817 -0.258190
-0.107678 0.173275 -0.112789
0.169691 0.171820 -0.152562
0.436258 0.197752 -0.132574
0.713002 0.173285 -0.193492
0.908921 -0.053842 -0.237253
1.011352 -0.179560 -0.260381
-0.203293 0.437855 -0.205444
0.028375 0.440160 -0.238877
0.429202 0.434619 -0.324782
0.687669 0.453964 -0.154743
0.887700 0.416870 -0.227860
0.996146 0.344963 -0.259427
-0.315119 0.703823 -0.316274
-0.256071 0.705372 -0.338147
0.351775 0.709799 -0.426736
0.689911 0.698624 -0.512801
0.867151 0.651603 -0.159377
0.973561 0.571555 -0.227230
-0.396015 0.891340 -0.396867
-0.362590 0.892537 -0.412115
0.138589 0.896580 -0.472406
0.557616 0.898888 -0.574756
0.874766 0.885839 -0.647911
0.961979 0.772151 -0.182576
-0.438763 0.989979 -0.439523
-0.416326 0.990560 -0.448225
-0.294550 0.993601 -0.489789
0.390764 0.997645 -0.565720
0.691022 0.997193 -0.661476
0.970501 0.982728 -0.717867
-0.080416 -0.081097 0.179882
0.178973 -0.094136 0.193280
0.460583 -0.151390 0.219950
0.728421 -0.203078 0.194283
0.918495 -0.241915 0.086014
1.017148 -0.262050 -0.166267
-0.127227 0.174408 0.189246
0.166018 0.167499 0.179487
0.446878 0.141844 0.158799
0.720146 -0.064698 0.065689
0.913434 -0.165978 -0.150277
1.013902 -0.201331 -0.189635
-0.164007 0.432740 0.192193
-0.085923 0.436055 0.038103
0.428242 0.433652 -0.258662
0.689643 0.441907 0.124062
0.890497 0.402829 -0.144661
0.998398 0.336502 -0.193696
-0.291453 0.700468 -0.160268
-0.271679 0.702935 -0.263264
0.337961 0.708636 -0.376189
0.689443 0.698107 -0.481427
0.867524 0.647706 0.123398
0.974670 0.568869 -0.146158
-0.381405 0.889235 -0.317163
-0.366094 0.890801 -0.360600
0.110845 0.895221 -0.430470
0.552641 0.898312 -0.544804
0.874178 0.885204 -0.626579
0.961621 0.771347 0.099896
-0.429684 0.988593 -0.391050
-0.412185 0.989332 -0.407521
-0.289684 0.992485 -0.453487
0.391056 0.996860 -0.536082
0.689862 0.996773 -0.638390
0.970144 0.982383 -0.698733
-0.080119 -0.080804 0.456304
0.203002 -0.067045 0.447209
0.449745 -0.151197 0.486445
0.756712 -0.260078 0.521260
0.939307 -0.284681 0.461880
1.030944 -0.291098 0.378909
-0.104144 0.205393 0.467438
0.166251 0.167666 0.456253
0.445179 0.126917 0.481935
0.751281 -0.194347 0.500926
0.934949 -0.229645 0.442918
1.027570 -0.240157 0.368772
-0.263954 0.440331 0.478218
-0.197649 0.438698 0.476697
0.423542 0.427318 0.457931
0.713678 0.408891 0.446436
0.908481 0.391177 0.430145
1.009651 0.378556 0.419061
-0.155532 0.689340 0.483207
0.063671 0.690103 0.468722
0.374602 0.695962 0.418804
0.685870 0.694623 0.225460
0.870498 0.648443 0.441141
0.981060 0.588355 0.420433
-0.303696 0.880513 0.411418
-0.278805 0.881597 0.387832
0.284909 0.885757 0.346907
0.564722 0.892893 -0.184100
0.871558 0.882664 -0.417244
0.961286 0.780399 0.444583
-0.381792 0.982518 0.255490
-0.358338 0.982909 0.232920
0.191449 0.985016 0.283958
0.460635 0.990790 -0.188705
0.704620 0.992918 -0.430355
0.968004 0.980209 -0.534233
-0.079403 -0.080104 0.733674
0.220622 -0.065784 0.727546
0.443915 0.086125 0.713259
0.722576 -0.225818 0.781610
0.966878 -0.344798 0.762529
1.055692 -0.341712 0.645742
-0.096535 0.219398 0.740480
0.166340 0.167750 0.733877
0.434746 0.189773 0.714152
0.720195 -0.148778 0.779295
0.963869 -0.306430 0.754130
1.052806 -0.302921 0.639665
-0.218376 0.458100 0.768000
-0.105569 0.445667 0.764157
0.423725 0.427352 0.734499
0.702820 0.408202 0.761590
0.944860 0.337800 0.733199
1.035715 0.338078 0.648350
-0.415325 0.707647 0.768591
-0.384569 0.706890 0.767916
0.279238 0.700619 0.762160
0.680963 0.687045 0.736289
0.897150 0.672842 0.734578
0.999959 0.667170 0.727663
-0.105006 0.870728 0.696241
0.148941 0.870887 0.692026
0.412571 0.871700 0.692822
0.665567 0.874443 0.724813
0.865360 0.876626 0.650877
0.964174 0.817452 0.727346
-0.267406 0.972742 0.600345
-0.226546 0.973036 0.596399
0.346688 0.974304 0.615798
0.643428 0.974984 0.707541
0.767847 0.981787 0.648757
0.962649 0.975026 0.567739
-0.078597 -0.079306 0.929281
0.209598 -0.065916 0.924850
0.425494 0.084078 0.910160
0.636124 0.117907 0.909777
0.916974 -0.283518 0.991967
1.074875 -0.390293 0.911626
-0.090912 0.207141 0.933645
0.167054 0.168460 0.928959
0.416242 0.187844 0.912647
0.632312 0.205765 0.908575
0.914328 -0.232273 0.989196
1.072899 -0.359870 0.908130
-0.170200 0.430335 0.953355
0.107173 0.418974 0.949599
0.423815 0.427431 0.929838
0.637352 0.437608 0.907717
0.901036 0.379011 0.975831
1.058726 0.272129 0.902841
-0.335319 0.658861 0.981312
-0.287997 0.654056 0.979206
0.370525 0.651802 0.966534
0.681161 0.687028 0.931191
0.873232 0.680919 0.945198
1.024188 0.647125 0.914451
-0.523681 0.896324 0.973522
-0.501843 0.895725 0.972989
-0.271577 0.891350 0.968983
0.613296 0.880544 0.958280
0.862439 0.870127 0.932494
0.983917 0.859803 0.944571
-0.099013 0.966854 0.825544
0.162183 0.966705 0.824684
0.423715 0.966659 0.834467
0.681097 0.966631 0.875113
0.862809 0.966678 0.929849
0.956399 0.968921 0.912243
-0.078057 -0.078771 1.032050
0.184279 -0.068897 1.029101
0.379913 0.066951 1.017267
0.564503 0.131925 1.003861
0.763233 0.032903 1.027873
1.029783 -0.339498 1.114790
-0.087006 0.181393 1.034981
0.167099 0.168493 1.031904
0.376262 0.183803 1.019506
0.563583 0.209651 1.004712
0.762190 0.182807 1.027199
1.028285 -0.303008 1.113386
-0.141308 0.379714 1.049266
0.137519 0.375329 1.046053
0.423858 0.427475 1.032603
0.591250 0.435960 1.011572
0.768136 0.435960 1.019929
1.017166 0.330745 1.102805
-0.258952 0.578354 1.075198
-0.194419 0.575777 1.073131
0.399092 0.597576 1.060221
0.681174 0.687027 1.033830
0.807400 0.692032 1.014896
0.990332 0.663103 1.076263
-0.428150 0.785079 1.097841
-0.398341 0.783490 1.097010
0.243389 0.788627 1.088872
0.652579 0.820437 1.067838
0.862525 0.869975 1.035538
0.962388 0.867890 1.041692
-0.576794 0.994965 1.080374
-0.558140 0.994548 1.079929
-0.387752 0.991068 1.077115
0.555187 0.982378 1.069579
0.830256 0.971901 1.059167
0.957438 0.966300 1.038452
