luts/04_Color Finale LUTs_Insta Look.cube
LUT_3D_SIZE 16
-0.080456 -0.081138 -0.086687
-0.062082 -0.081131 -0.086680
0.094082 -0.083810 -0.090077
0.177468 -0.089231 -0.095026
0.265776 -0.099410 -0.104435
0.353642 -0.113011 -0.117251
0.449129 -0.130552 -0.134035
0.543999 -0.149814 -0.152711
0.636477 -0.169730 -0.172159
0.721635 -0.188730 -0.190819
0.796838 -0.205860 -0.207715
0.860772 -0.220648 -0.222351
0.914585 -0.233209 -0.234751
0.954925 -0.242670 -0.244157
0.987764 -0.250409 -0.251826
1.014894 -0.256817 -0.258190
-0.080431 -0.062585 -0.086670
-0.062048 -0.062573 -0.086658
0.092592 -0.067996 -0.091626
0.176763 -0.072043 -0.096719
0.265278 -0.081645 -0.106258
0.353254 -0.096639 -0.119003
0.448807 -0.115762 -0.135684
0.543727 -0.136804 -0.154201
0.636251 -0.158376 -0.173485
0.721405 -0.178871 -0.191994
0.796676 -0.197346 -0.208763
0.860655 -0.213296 -0.223253
0.914426 -0.226844 -0.235537
0.954798 -0.237191 -0.244836
0.987634 -0.245657 -0.252421
1.014817 -0.252678 -0.258704
-0.090328 0.090531 -0.096772
-0.074899 0.090022 -0.097229
0.088370 0.089437 -0.115081
0.169222 0.095566 -0.094048
0.258981 0.102678 -0.105839
0.347920 0.100193 -0.119367
0.444389 0.089703 -0.136664
0.539932 0.058180 -0.155313
0.632976 -0.073866 -0.174629
0.718517 -0.117072 -0.193082
0.794233 -0.148201 -0.209745
0.858254 -0.172372 -0.223649
0.913150 -0.194382 -0.237321
0.953013 -0.208235 -0.245019
0.986382 -0.221792 -0.253263
1.013759 -0.232250 -0.259511
-0.107678 0.173275 -0.112789
-0.093898 0.173019 -0.113235
0.063881 0.174185 -0.129280
0.169691 0.171820 -0.152562
0.251371 0.183619 -0.093875
0.339384 0.192041 -0.111572
0.436258 0.197752 -0.132574
0.532708 0.196727 -0.153626
0.626578 0.189030 -0.174284
0.713002 0.173285 -0.193492
0.789689 0.146918 -0.211368
0.854106 0.108810 -0.224572
0.908921 -0.053842 -0.237253
0.950489 -0.124194 -0.247327
0.983688 -0.156215 -0.254193
1.011352 -0.179560 -0.260381
-0.134184 0.257866 -0.137989
-0.122483 0.257688 -0.138388
-0.060716 0.258797 -0.152575
0.153914 0.259961 -0.182030
0.253572 0.256755 -0.204222
0.334532 0.266192 -0.098766
0.427943 0.279781 -0.116293
0.523616 0.286559 -0.143117
0.617861 0.287161 -0.168194
0.704989 0.280824 -0.190254
0.782036 0.268260 -0.208710
0.847895 0.249759 -0.224398
0.903921 0.225306 -0.238853
0.945228 0.197166 -0.247144
0.979364 0.162442 -0.254940
1.007596 0.117340 -0.261212
-0.166913 0.346443 -0.169728
-0.157154 0.346332 -0.170057
-0.118238 0.347305 -0.182633
0.126030 0.348900 -0.208239
0.238007 0.348485 -0.241776
0.339013 0.343288 -0.261796
0.426993 0.354341 -0.132944
0.516506 0.366805 -0.120107
0.608912 0.372713 -0.150538
0.695728 0.370917 -0.178656
0.773336 0.362238 -0.201710
0.839915 0.347507 -0.220369
0.896415 0.328332 -0.236102
0.938788 0.305160 -0.246129
0.973658 0.279903 -0.254502
1.002472 0.253053 -0.261259
-0.203293 0.437855 -0.205444
-0.195145 0.437740 -0.205753
-0.165708 0.438570 -0.216457
0.028375 0.440160 -0.238877
0.214603 0.441594 -0.271787
0.324525 0.440234 -0.306188
0.429202 0.434619 -0.324782
0.520002 0.442578 -0.189814
0.603333 0.452400 -0.125011
0.687669 0.453964 -0.154743
0.764322 0.447640 -0.184547
0.830865 0.434590 -0.208770
0.887700 0.416870 -0.227860
0.930916 0.394250 -0.240873
0.966534 0.369989 -0.251420
0.996146 0.344963 -0.259427
-0.241583 0.530473 -0.243282
-0.234663 0.530361 -0.243532
-0.212247 0.531247 -0.253741
-0.144387 0.532501 -0.272240
0.176419 0.534186 -0.301046
0.301404 0.535113 -0.337774
0.412689 0.533189 -0.373187
0.520013 0.526545 -0.389706
0.610863 0.529505 -0.253115
0.683586 0.532871 -0.132743
0.757365 0.528280 -0.155927
0.822469 0.516136 -0.186071
0.878840 0.498799 -0.211238
0.922788 0.475481 -0.230989
0.958664 0.450867 -0.243843
0.988805 0.425428 -0.254266
-0.279657 0.620734 -0.281040
-0.273736 0.620632 -0.281256
-0.255045 0.621308 -0.289958
-0.207182 0.622605 -0.306895
0.080313 0.624308 -0.332798
0.268323 0.625646 -0.365063
0.386946 0.625898 -0.403188
0.499316 0.623251 -0.438919
0.608465 0.616118 -0.453647
0.694520 0.610710 -0.315935
0.754992 0.605815 -0.148922
0.816935 0.593975 -0.157349
0.871693 0.576562 -0.186902
0.914819 0.552443 -0.212456
0.950618 0.526795 -0.229717
0.981017 0.500284 -0.244076
-0.315119 0.703823 -0.316274
-0.310054 0.703663 -0.316473
-0.294781 0.704342 -0.324375
-0.256071 0.705372 -0.338147
-0.162247 0.706850 -0.360037
0.216009 0.708626 -0.390752
0.351775 0.709799 -0.426736
0.467796 0.709303 -0.465194
0.580401 0.706057 -0.499967
0.689911 0.698624 -0.512801
0.769144 0.684178 -0.377460
0.817285 0.669513 -0.189696
0.867151 0.651603 -0.159377
0.908264 0.626463 -0.183279
0.943391 0.599402 -0.207598
0.973561 0.571555 -0.227230
-0.346792 0.777502 -0.347824
-0.342445 0.777440 -0.348012
-0.329268 0.778049 -0.354635
-0.299038 0.779021 -0.367623
-0.232789 0.780253 -0.385891
0.120256 0.781876 -0.412386
0.305306 0.783551 -0.446004
0.428575 0.784282 -0.483137
0.542232 0.783230 -0.521253
0.653778 0.779417 -0.554554
0.762320 0.771866 -0.566509
0.831234 0.746833 -0.428528
0.870727 0.724668 -0.241303
0.904967 0.698096 -0.161999
0.938127 0.669563 -0.180154
0.967197 0.640117 -0.203337
-0.373956 0.840420 -0.374859
-0.370241 0.840363 -0.375039
-0.358076 0.840768 -0.379918
-0.333497 0.841654 -0.391685
-0.281765 0.842710 -0.407124
-0.174507 0.844524 -0.432636
0.242038 0.846080 -0.461262
0.381343 0.847346 -0.495555
0.497500 0.847662 -0.532852
0.608252 0.846125 -0.569906
0.717544 0.841915 -0.601200
0.824015 0.834384 -0.610927
0.883741 0.800994 -0.475234
0.911440 0.768398 -0.287202
0.935874 0.738041 -0.166748
0.962957 0.706911 -0.177491
-0.396015 0.891340 -0.396867
-0.392781 0.891340 -0.396980
-0.383303 0.891766 -0.402079
-0.362590 0.892537 -0.412115
-0.323867 0.893753 -0.427478
-0.244269 0.894787 -0.445285
0.138589 0.896580 -0.472406
0.324824 0.898048 -0.503384
0.447212 0.899036 -0.538157
0.557616 0.898888 -0.574756
0.664691 0.896887 -0.610271
0.770898 0.892471 -0.639617
0.874766 0.885839 -0.647911
0.923184 0.842746 -0.512624
0.944917 0.805380 -0.330175
0.961979 0.772151 -0.182576
-0.413486 0.931674 -0.414301
-0.410724 0.931628 -0.414408
-0.403453 0.932133 -0.419608
-0.385183 0.932762 -0.427593
-0.352155 0.933702 -0.439977
-0.294391 0.934808 -0.457268
-0.170288 0.936354 -0.480153
0.254746 0.937923 -0.507784
0.391606 0.939186 -0.539376
0.503719 0.939825 -0.573826
0.608796 0.939229 -0.609115
0.711987 0.936992 -0.642759
0.813768 0.932171 -0.669825
0.913367 0.924875 -0.676594
0.955023 0.877799 -0.544808
0.972893 0.837026 -0.369665
-0.427277 0.963435 -0.428049
-0.424878 0.963484 -0.428145
-0.416911 0.963653 -0.430994
-0.402483 0.964276 -0.439140
-0.373500 0.964924 -0.448819
-0.327842 0.966080 -0.464409
-0.247074 0.967613 -0.485510
0.151895 0.969089 -0.510031
0.330412 0.970543 -0.538441
0.448123 0.971573 -0.570083
0.552567 0.971826 -0.603636
0.652775 0.970932 -0.637572
0.751313 0.968452 -0.669733
0.849390 0.963548 -0.694276
0.944590 0.956406 -0.698822
0.981394 0.906999 -0.572376
-0.438763 0.989979 -0.439523
-0.436683 0.989937 -0.439587
-0.430144 0.990149 -0.442481
-0.416326 0.990560 -0.448225
-0.395119 0.991491 -0.459654
-0.356068 0.992310 -0.471802
-0.294550 0.993601 -0.489789
-0.162302 0.994960 -0.511537
0.259417 0.996410 -0.536995
0.390764 0.997645 -0.565720
0.497390 0.998345 -0.596418
0.595821 0.998365 -0.628721
0.691022 0.997193 -0.661476
0.785652 0.994477 -0.691682
0.879307 0.989756 -0.714591
0.970501 0.982728 -0.717867
-0.080453 -0.081135 -0.066889
-0.062077 -0.081128 -0.066882
0.093912 -0.084018 -0.071109
0.177400 -0.089462 -0.074018
0.265723 -0.099643 -0.082215
0.353579 -0.113230 -0.096449
0.449088 -0.130749 -0.115027
0.543956 -0.150005 -0.135878
0.636450 -0.169884 -0.157426
0.721599 -0.188862 -0.178035
0.796815 -0.205973 -0.196642
0.860752 -0.220755 -0.212791
0.914566 -0.233292 -0.226484
0.954926 -0.242752 -0.237027
0.987746 -0.250479 -0.245650
1.014885 -0.256875 -0.252804
-0.080428 -0.062580 -0.066860
-0.062043 -0.062572 -0.066853
0.092173 -0.065572 -0.070320
0.176722 -0.072973 -0.077107
0.265347 -0.085902 -0.089229
0.353319 -0.102037 -0.104684
0.448901 -0.121777 -0.123856
0.543874 -0.142688 -0.144354
0.636308 -0.163792 -0.165178
0.721450 -0.183642 -0.184812
0.796751 -0.201369 -0.202399
0.860719 -0.216578 -0.217521
0.914477 -0.229441 -0.230299
0.954836 -0.239126 -0.239941
0.987658 -0.247019 -0.247795
1.014825 -0.253544 -0.254292
-0.090540 0.090319 -0.079478
-0.072905 0.089724 -0.077584
0.087745 0.088829 -0.096176
0.169200 0.095207 -0.075556
0.259150 0.099870 -0.090137
0.348411 0.094589 -0.106616
0.444739 0.079961 -0.125898
0.540290 0.025870 -0.146344
0.633293 -0.088714 -0.167018
0.718930 -0.125925 -0.186484
0.794584 -0.154883 -0.204127
0.858607 -0.177358 -0.218513
0.913219 -0.197717 -0.232278
0.953101 -0.210616 -0.240233
0.986496 -0.223493 -0.248801
1.013807 -0.233316 -0.255214
-0.107873 0.173171 -0.096782
-0.094776 0.172949 -0.098087
0.062387 0.174046 -0.115668
0.169468 0.171587 -0.140593
0.251391 0.182946 -0.076395
0.339524 0.190511 -0.098036
0.436508 0.195242 -0.122045
0.532948 0.193316 -0.144998
0.626864 0.184774 -0.166977
0.713286 0.168101 -0.187127
0.789516 0.141781 -0.204671
0.855041 0.095327 -0.220939
0.909043 -0.070008 -0.232273
0.950576 -0.128905 -0.242641
0.983748 -0.158898 -0.249796
1.011398 -0.181019 -0.256127
-0.134350 0.257792 -0.124048
-0.125058 0.257674 -0.127318
-0.065379 0.258686 -0.141955
0.152800 0.259829 -0.173009
0.253419 0.256605 -0.196202
0.334511 0.265666 -0.082392
0.428009 0.278670 -0.104152
0.523803 0.284932 -0.134121
0.618071 0.285112 -0.160937
0.705182 0.278481 -0.184041
0.782349 0.265644 -0.203398
0.848101 0.247024 -0.219555
0.904032 0.222760 -0.234023
0.945305 0.194693 -0.242537
0.979468 0.159931 -0.250608
1.007640 0.114679 -0.257012
-0.167040 0.346393 -0.157961
-0.160317 0.346334 -0.161919
-0.121465 0.347188 -0.174261
0.122399 0.348866 -0.201531
0.237770 0.349143 -0.235658
0.339445 0.343687 -0.256501
0.426900 0.353856 -0.121500
0.516564 0.365992 -0.108668
0.609042 0.371577 -0.142400
0.695972 0.369606 -0.172198
0.773568 0.360718 -0.196339
0.840050 0.345967 -0.215543
0.896509 0.326942 -0.231351
0.938833 0.303865 -0.241596
0.973655 0.278800 -0.250243
1.002512 0.252196 -0.257126
-0.203406 0.437808 -0.195535
-0.198366 0.437754 -0.199539
-0.169571 0.438583 -0.210566
-0.042326 0.440158 -0.233536
0.213071 0.441492 -0.266267
0.323495 0.439878 -0.301795
0.429127 0.434545 -0.320827
0.519932 0.442229 -0.182451
0.603353 0.451804 -0.114235
0.687739 0.453152 -0.147010
0.764445 0.446734 -0.178578
0.831028 0.433593 -0.203708
0.887774 0.415943 -0.223019
0.930972 0.393476 -0.236328
0.966614 0.369303 -0.247187
0.996087 0.344422 -0.255331
-0.241689 0.530427 -0.234849
-0.237720 0.530383 -0.238655
-0.214167 0.531069 -0.247757
-0.149837 0.532522 -0.267878
0.172888 0.534162 -0.296845
0.300408 0.535021 -0.333354
0.412136 0.533136 -0.369880
0.519982 0.526518 -0.386666
0.610772 0.529224 -0.247929
0.683593 0.532422 -0.122820
0.757400 0.527672 -0.148231
0.822548 0.515515 -0.180173
0.878889 0.498193 -0.206040
0.922830 0.474921 -0.226302
0.958728 0.450374 -0.239532
0.988849 0.425065 -0.250143
-0.279741 0.620675 -0.273822
-0.276513 0.620649 -0.277266
-0.256325 0.621143 -0.284538
-0.208854 0.622418 -0.301768
0.075815 0.624087 -0.327708
0.266255 0.625635 -0.361782
0.385980 0.625870 -0.400085
0.498860 0.623227 -0.436246
0.608423 0.616098 -0.451177
0.694466 0.610478 -0.312005
0.754995 0.605489 -0.140520
0.816954 0.593582 -0.149737
0.871677 0.576126 -0.180878
0.914846 0.552055 -0.207326
0.950637 0.526462 -0.225132
0.981050 0.500024 -0.239800
-0.315188 0.703795 -0.310080
-0.312465 0.703681 -0.313093
-0.295421 0.704141 -0.319320
-0.259085 0.705390 -0.334999
-0.166640 0.706854 -0.356631
0.213032 0.708661 -0.387710
0.350512 0.709819 -0.423894
0.467071 0.709360 -0.462691
0.580071 0.706034 -0.497726
0.689871 0.698585 -0.510726
0.768463 0.683806 -0.369450
0.817288 0.669200 -0.183731
0.867159 0.651343 -0.151870
0.908277 0.626198 -0.177099
0.943419 0.599150 -0.202421
0.973584 0.571359 -0.222602
-0.346878 0.777477 -0.342505
-0.344493 0.777455 -0.345053
-0.331414 0.777966 -0.351726
-0.301423 0.779036 -0.364874
-0.235355 0.780205 -0.382824
0.113500 0.781842 -0.409560
0.303748 0.783511 -0.443336
0.427679 0.784275 -0.480774
0.541683 0.783210 -0.519137
0.653569 0.779395 -0.552614
0.762848 0.772408 -0.565325
0.831159 0.746639 -0.426607
0.870749 0.724456 -0.236606
0.904970 0.697970 -0.154656
0.938138 0.669402 -0.173896
0.967210 0.640003 -0.197997
-0.374015 0.840397 -0.370271
-0.371864 0.840375 -0.372348
-0.359817 0.840712 -0.377292
-0.335382 0.841665 -0.389151
-0.283535 0.842662 -0.404309
-0.177966 0.844486 -0.430047
0.240008 0.846037 -0.458783
0.380331 0.847313 -0.493308
0.496873 0.847638 -0.530825
0.607876 0.846105 -0.568041
0.717303 0.841888 -0.599433
0.823885 0.834330 -0.609388
0.883711 0.800867 -0.472988
0.911417 0.768266 -0.283530
0.935874 0.737913 -0.159692
0.962962 0.706843 -0.171082
-0.396055 0.891319 -0.392897
-0.394083 0.891348 -0.394522
-0.384652 0.891774 -0.399657
-0.364015 0.892545 -0.409766
-0.325122 0.893708 -0.424924
-0.246114 0.894748 -0.442877
0.134689 0.896538 -0.470096
0.323686 0.898013 -0.501235
0.446506 0.899007 -0.536148
0.557157 0.898866 -0.572947
0.664470 0.896860 -0.608522
0.770729 0.892443 -0.638013
0.874670 0.885740 -0.646334
0.923160 0.842650 -0.510680
0.944888 0.805317 -0.327054
0.961972 0.772069 -0.176263
-0.413507 0.931656 -0.410880
-0.411648 0.931631 -0.412133
-0.404420 0.932137 -0.417348
-0.386193 0.932765 -0.425417
-0.353043 0.933663 -0.437605
-0.295493 0.934772 -0.455006
-0.172571 0.936341 -0.477964
0.253448 0.937889 -0.505726
0.390933 0.939157 -0.537480
0.503258 0.939800 -0.572061
0.608489 0.939277 -0.607421
0.711737 0.936965 -0.641253
0.813688 0.932161 -0.668386
0.913298 0.924805 -0.675208
0.955002 0.877796 -0.543064
0.972873 0.836962 -0.367015
-0.427318 0.963418 -0.425093
-0.425561 0.963483 -0.425980
-0.417628 0.963652 -0.428846
-0.403223 0.964275 -0.437035
-0.374124 0.964982 -0.446589
-0.331874 0.966381 -0.464571
-0.248093 0.967577 -0.483460
0.149869 0.969058 -0.508075
0.329753 0.970526 -0.536590
0.447705 0.971547 -0.568320
0.551495 0.971968 -0.603486
0.652600 0.970905 -0.636058
0.751262 0.968431 -0.668319
0.849393 0.963504 -0.692873
0.944558 0.956375 -0.697549
0.981373 0.906947 -0.570737
-0.438800 0.989959 -0.436930
-0.437113 0.989933 -0.437518
-0.430594 0.990144 -0.440411
-0.416768 0.990555 -0.446182
-0.395480 0.991465 -0.457565
-0.356443 0.992284 -0.469767
-0.295076 0.993574 -0.487848
-0.163531 0.994934 -0.509641
0.258787 0.996385 -0.535237
0.390420 0.997620 -0.563998
0.497162 0.998374 -0.594786
0.595640 0.998339 -0.627203
0.690868 0.997171 -0.660011
0.785542 0.994452 -0.690319
0.879236 0.989727 -0.713204
0.970470 0.982697 -0.716616
-0.080446 -0.081125 0.092484
-0.064522 -0.081119 0.092492
0.095464 -0.085567 0.102493
0.185051 -0.096888 0.112501
0.271299 -0.107141 0.116401
0.357613 -0.119866 0.113517
0.452587 -0.137180 0.105213
0.546831 -0.155702 0.083167
0.638794 -0.174830 -0.038821
0.723549 -0.193028 -0.103071
0.797953 -0.208755 -0.137624
0.861774 -0.223156 -0.165229
0.915658 -0.235764 -0.187658
0.955110 -0.243565 -0.202952
0.988204 -0.251627 -0.217315
1.015117 -0.257635 -0.228279
-0.080421 -0.065049 0.092504
-0.062029 -0.062555 0.092516
0.093506 -0.067518 0.100721
0.183757 -0.081779 0.109714
0.270359 -0.094140 0.111612
0.357102 -0.109188 0.106479
0.452015 -0.128193 0.094571
0.546349 -0.148167 0.063695
0.638416 -0.168410 -0.071022
0.723099 -0.187454 -0.115819
0.798143 -0.204641 -0.147417
0.861383 -0.218455 -0.171095
0.915535 -0.231831 -0.192421
0.955044 -0.239869 -0.206448
0.988053 -0.248043 -0.219689
1.015009 -0.254231 -0.229899
-0.098736 0.091456 0.098909
-0.081707 0.090440 0.098003
0.084890 0.085643 0.091776
0.174613 0.080323 0.088135
0.263878 0.066337 0.076084
0.352222 0.020714 0.047564
0.448117 -0.076882 -0.067322
0.543263 -0.110638 -0.105197
0.635870 -0.138783 -0.134882
0.721103 -0.162939 -0.159852
0.796353 -0.183503 -0.180890
0.860377 -0.200643 -0.198353
0.914220 -0.214827 -0.212744
0.954629 -0.225404 -0.223457
0.987498 -0.233936 -0.232087
1.014580 -0.240975 -0.239198
-0.090979 0.169897 0.100771
-0.075539 0.169845 0.100104
0.061008 0.171382 0.072528
0.168569 0.170706 -0.073454
0.252206 0.177173 0.084111
0.341713 0.179482 0.053143
0.439009 0.179064 -0.068057
0.535443 0.172366 -0.107377
0.629135 0.158663 -0.137315
0.715281 0.135451 -0.162233
0.791731 0.094415 -0.183941
0.856116 -0.064201 -0.200308
0.910656 -0.122572 -0.214886
0.951366 -0.152892 -0.224976
0.984740 -0.175003 -0.233555
1.012210 -0.191745 -0.240489
-0.119021 0.255289 0.090943
-0.109279 0.255300 0.085947
-0.077032 0.256828 -0.066468
0.146329 0.258963 -0.125634
0.252893 0.256085 -0.163020
0.334516 0.262222 0.081747
0.428985 0.272067 0.028310
0.525279 0.275706 -0.094140
0.619708 0.273760 -0.131909
0.706897 0.265546 -0.160205
0.784104 0.251246 -0.183316
0.849616 0.232030 -0.200879
0.904274 0.209059 -0.214154
0.946144 0.179197 -0.225312
0.980437 0.142089 -0.234771
1.008410 0.090830 -0.241703
-0.153703 0.344341 -0.027591
-0.147447 0.344409 -0.055511
-0.131069 0.345709 -0.126395
0.110531 0.347804 -0.163162
0.232241 0.348356 -0.208788
0.338576 0.342856 -0.234965
0.426113 0.351454 0.006297
0.517006 0.361510 -0.030540
0.609939 0.365548 -0.107906
0.697051 0.362349 -0.147277
0.774760 0.352783 -0.175675
0.841158 0.337805 -0.196928
0.897325 0.319005 -0.213579
0.940209 0.295502 -0.226661
0.974552 0.271500 -0.234760
1.003226 0.245600 -0.242141
-0.191890 0.436113 -0.122756
-0.187655 0.436186 -0.131342
-0.179021 0.437455 -0.176038
-0.082573 0.439241 -0.203423
0.204768 0.440977 -0.242369
0.320563 0.440679 -0.283979
0.428889 0.434291 -0.305696
0.519150 0.440362 -0.143863
0.603535 0.448614 -0.049362
0.688267 0.448966 -0.114478
0.764964 0.441963 -0.154179
0.831696 0.428549 -0.183633
0.888927 0.410531 -0.207182
0.931513 0.388694 -0.219620
0.967260 0.364783 -0.231911
0.996754 0.340484 -0.240559
-0.231688 0.528976 -0.179198
-0.228672 0.529069 -0.185757
-0.222015 0.530032 -0.219810
-0.162863 0.531696 -0.242681
0.159716 0.533546 -0.275621
0.294124 0.534774 -0.316858
0.409298 0.533006 -0.356348
0.519765 0.526314 -0.375165
0.610221 0.527748 -0.223137
0.683648 0.530127 -0.068995
0.757802 0.524660 -0.117322
0.823129 0.512113 -0.157757
0.879791 0.494564 -0.188994
0.923290 0.471639 -0.209106
0.959236 0.447289 -0.224001
0.989318 0.422388 -0.235304
-0.271106 0.619390 -0.228698
-0.268772 0.619519 -0.234085
-0.263701 0.620283 -0.261969
-0.219236 0.621750 -0.281208
-0.058003 0.623596 -0.309891
0.258311 0.625238 -0.345949
0.381491 0.625667 -0.387159
0.496716 0.623106 -0.425749
0.608263 0.615920 -0.441971
0.694006 0.609358 -0.294069
0.754960 0.603782 -0.096401
0.817146 0.591465 -0.118527
0.871938 0.573835 -0.157358
0.915146 0.549765 -0.188197
0.951074 0.524289 -0.208495
0.981467 0.498102 -0.224391
-0.307750 0.702667 -0.272621
-0.305828 0.702767 -0.277073
-0.302129 0.703467 -0.300723
-0.267704 0.704810 -0.317904
-0.183587 0.706460 -0.341661
0.201389 0.708225 -0.373398
0.344917 0.709454 -0.411532
0.463737 0.709215 -0.452336
0.578442 0.705953 -0.489106
0.689789 0.698444 -0.503051
0.768343 0.682919 -0.358358
0.816946 0.668052 -0.151303
0.867253 0.649839 -0.119029
0.908629 0.624573 -0.155196
0.943711 0.597645 -0.182984
0.973924 0.569987 -0.205628
-0.340541 0.776581 -0.311041
-0.338837 0.776668 -0.314667
-0.335364 0.777310 -0.334126
-0.306506 0.778387 -0.348421
-0.242382 0.779599 -0.367249
0.074256 0.781599 -0.397418
0.297077 0.783168 -0.431625
0.423653 0.784048 -0.470635
0.539189 0.783093 -0.510539
0.652275 0.779331 -0.545240
0.762685 0.772352 -0.558786
0.830380 0.745885 -0.409419
0.870413 0.723447 -0.213981
0.905009 0.696914 -0.122368
0.938298 0.668300 -0.148588
0.967372 0.639040 -0.177666
-0.368632 0.839602 -0.343669
-0.367045 0.839675 -0.346579
-0.362913 0.840054 -0.361809
-0.339159 0.841108 -0.374466
-0.290301 0.842290 -0.391698
-0.186386 0.843957 -0.416678
0.231657 0.845781 -0.447729
0.375899 0.847135 -0.483505
0.493949 0.847504 -0.522244
0.606021 0.846002 -0.560592
0.716310 0.841874 -0.593565
0.823813 0.834204 -0.603050
0.883447 0.800343 -0.462276
0.911111 0.767634 -0.265714
0.935874 0.737273 -0.128699
0.963058 0.706130 -0.144674
-0.391530 0.890657 -0.370321
-0.390013 0.890712 -0.372599
-0.386930 0.891214 -0.385914
-0.366820 0.892067 -0.396689
-0.326838 0.893044 -0.411084
-0.256957 0.894722 -0.434209
0.118294 0.896202 -0.459638
0.319047 0.897734 -0.491760
0.443525 0.898820 -0.527677
0.555061 0.898708 -0.565427
0.663166 0.896785 -0.601506
0.770050 0.892332 -0.631892
0.874759 0.885855 -0.642016
0.922943 0.842213 -0.501322
0.944624 0.804785 -0.312941
0.961839 0.771614 -0.147944
-0.409742 0.931157 -0.391699
-0.408204 0.931194 -0.393364
-0.403470 0.931384 -0.402573
-0.385337 0.932042 -0.410907
-0.353153 0.932974 -0.424410
-0.296084 0.934255 -0.442547
-0.180256 0.936000 -0.468090
0.248447 0.937610 -0.496607
0.388056 0.938949 -0.529162
0.501213 0.939689 -0.564508
0.607179 0.939070 -0.600332
0.710616 0.936946 -0.635788
0.813138 0.932129 -0.663091
0.913337 0.924839 -0.669538
0.954922 0.877499 -0.535625
0.972646 0.836665 -0.355144
-0.424176 0.963013 -0.408713
-0.422637 0.963032 -0.409868
-0.418432 0.963271 -0.417552
-0.404188 0.963923 -0.425992
-0.375870 0.964650 -0.436392
-0.330885 0.965844 -0.452561
-0.251190 0.967314 -0.474031
0.142685 0.968792 -0.499260
0.327205 0.970314 -0.528462
0.445944 0.971314 -0.560880
0.551045 0.971646 -0.594850
0.651636 0.970812 -0.629514
0.750626 0.968342 -0.662121
0.849006 0.963511 -0.687888
0.944442 0.956347 -0.692517
0.981225 0.906734 -0.563941
-0.436199 0.989542 -0.422865
-0.434643 0.989544 -0.423611
-0.430877 0.989749 -0.430000
-0.417036 0.990182 -0.435879
-0.393434 0.990924 -0.445429
-0.357498 0.992019 -0.460527
-0.296330 0.993295 -0.478823
-0.166845 0.994688 -0.501162
0.256694 0.996124 -0.527290
0.389061 0.997460 -0.556634
0.495057 0.998374 -0.589451
0.594193 0.998384 -0.622148
0.690445 0.997003 -0.653352
0.785099 0.994366 -0.684482
0.878954 0.989731 -0.708299
0.970357 0.982581 -0.711818
-0.080416 -0.081097 0.179882
-0.060982 -0.081089 0.179885
0.094135 -0.078431 0.174688
0.178973 -0.094136 0.193280
0.281231 -0.121941 0.216361
0.367326 -0.135523 0.217898
0.460583 -0.151390 0.219950
0.553631 -0.168524 0.217179
0.644588 -0.186245 0.209150
0.728421 -0.203078 0.194283
0.802176 -0.217649 0.172189
0.865771 -0.231447 0.138397
0.918495 -0.241915 0.086014
0.957769 -0.249248 -0.087942
0.990526 -0.256671 -0.137861
1.017148 -0.262050 -0.166267
-0.080386 -0.061475 0.179892
-0.061988 -0.062517 0.179892
0.094441 -0.059146 0.175029
0.178174 -0.078923 0.192569
0.280460 -0.111376 0.214346
0.366520 -0.126145 0.215011
0.460037 -0.143550 0.216264
0.553170 -0.161757 0.212776
0.644139 -0.180355 0.204018
0.728063 -0.197884 0.188398
0.802353 -0.213791 0.164537
0.865369 -0.226957 0.130195
0.918305 -0.238119 0.069409
0.958391 -0.247024 -0.102515
0.990323 -0.253185 -0.142324
1.017039 -0.258712 -0.168799
-0.089046 0.098184 0.186659
-0.072024 0.097511 0.186489
0.084921 0.085645 0.180147
0.174137 0.078115 0.188642
0.276200 -0.035870 0.201998
0.362476 -0.074310 0.198712
0.456462 -0.103750 0.196194
0.550038 -0.129562 0.189121
0.641487 -0.153450 0.176457
0.725748 -0.174765 0.156167
0.799924 -0.192469 0.126314
0.864076 -0.209560 0.065621
0.916577 -0.220796 -0.093191
0.956749 -0.230698 -0.135872
0.989293 -0.238495 -0.162263
1.016096 -0.244748 -0.181355
-0.127227 0.174408 0.189246
-0.116002 0.174007 0.188881
-0.044578 0.172491 0.187503
0.166018 0.167499 0.179487
0.261481 0.162607 0.177384
0.350676 0.154962 0.170283
0.446878 0.141844 0.158799
0.542141 0.120994 0.141439
0.634871 0.084566 0.114565
0.720146 -0.064698 0.065689
0.795822 -0.116750 -0.087865
0.859689 -0.145305 -0.125819
0.913434 -0.165978 -0.150277
0.953894 -0.180727 -0.166989
0.986727 -0.192169 -0.179655
1.013902 -0.201331 -0.189635
-0.083782 0.251638 0.195607
-0.066926 0.251650 0.194878
0.076690 0.251979 0.188273
0.152339 0.254173 0.168773
0.251903 0.255138 0.120815
0.335515 0.256468 0.174968
0.432599 0.259851 0.161200
0.529791 0.258155 0.141285
0.624299 0.251961 0.111306
0.711114 0.240726 0.052126
0.787592 0.225119 -0.093452
0.853003 0.204273 -0.131439
0.907834 0.179715 -0.155327
