luts/04_Film Emulation LUTs_Dramatic Light.cube
TITLE "Generated by Resolve"
LUT_3D_SIZE 9
0 0 0
0.035584 0 0
0.115618 0 0
0.232441 0 0
0.369284 0 0
0.515282 0 0
0.655848 0 0
0.79234 0 0
0.932876 0 0
0 0.0328069 0
0.042237 0.0358282 0
0.129137 0.030045 0
0.252735 0.0169528 0
0.396292 0.00154116 0
0.548211 0 0
0.695659 0 0
0.839048 0 0
0.985748 0 0
0 0.104402 0
0.0382696 0.114229 0
0.132174 0.115434 0
0.262913 0.109407 0
0.413382 0.100938 0
0.571344 0.091722 0
0.724681 0.0846571 0
0.873045 0.0803235 0
1 0.0762341 0
0 0.211215 0
0.0281224 0.227863 0
0.128405 0.235431 0
0.26482 0.23505 0
0.419928 0.23125 0
0.581231 0.22565 0
0.737118 0.22118 0
0.887251 0.218708 0
1 0.216464 0
0 0.343786 0
0.0224613 0.364675 0
0.125978 0.375479 0
0.264622 0.377325 0
0.421561 0.375341 0
0.584604 0.371664 0
0.74258 0.369314 0
0.89482 0.369055 0
1 0.36846 0
0 0.489845 0
0.01738 0.512703 0
0.122866 0.525536 0
0.263691 0.52961 0
0.42266 0.529625 0
0.58703 0.527306 0
0.745754 0.525704 0
0.898161 0.525567 0
1 0.524514 0
0 0.643076 0
0.0223087 0.667857 0
0.128969 0.681956 0
0.270329 0.686656 0
0.429328 0.686687 0
0.593149 0.683772 0
0.750698 0.681056 0
0.90161 0.679469 0
1 0.676768 0
0 0.798077 0
0.0351263 0.822675 0
0.140978 0.835981 0.00654612
0.281025 0.83946 0.00993362
0.43856 0.837995 0.00840772
0.600885 0.833509 0.00390631
0.756786 0.829206 0
0.906142 0.826139 0
1 0.822202 0
0 0.950881 0
0.0425422 0.973922 0.000823987
0.146807 0.985656 0.0123751
0.285191 0.987579 0.0141756
0.441352 0.98471 0.0112306
0.602701 0.979095 0.00560006
0.757839 0.974121 0.00062562
0.90692 0.97084 0
1 0.967147 0
0 0 0.077821
0.0337835 0 0.0523384
0.114183 0 0.039826
0.231693 0 0.0208438
0.369192 0 0
0.515831 0 0
0.657053 0 0
0.794278 0 0
0.935531 0 0
0 0.035935 0.069688
0.0429999 0.0353552 0.0648661
0.129946 0.0308385 0.0555886
0.254261 0.0184482 0.0431983
0.398535 0.00378424 0.0285191
0.551095 0 0.0134585
0.699229 0 0.00112917
0.84329 0 0
0.990539 0 0
0 0.109682 0.0457008
0.0401465 0.11696 0.0586709
0.135378 0.118639 0.0610056
0.266819 0.113283 0.0556649
0.417899 0.105455 0.047837
0.576303 0.0967727 0.0391546
0.730053 0.0901045 0.0324865
0.878721 0.0861067 0.0284733
1 0.0822309 0.0245975
0 0.216938 0.0313726
0.0326543 0.23267 0.0510109
0.133608 0.240635 0.0592508
0.270436 0.24062 0.0592508
0.425803 0.237095 0.0557107
0.587152 0.231693 0.0502937
0.74313 0.227298 0.0458991
0.893538 0.225101 0.0437018
1 0.223117 0.0417182
0 0.350423 0.0237583
0.0282902 0.370657 0.0466468
0.132067 0.381552 0.0576944
0.270878 0.383505 0.0596628
0.428077 0.381826 0.057969
0.591196 0.378378 0.0545052
0.74934 0.376196 0.0523232
0.901686 0.376043 0.0521248
1 0.375509 0.0515602
0 0.496818 0.0179294
0.0238956 0.519341 0.042237
0.129656 0.532372 0.0552987
0.27068 0.536599 0.0595102
0.429709 0.53669 0.0596017
0.593927 0.534401 0.0573281
0.752636 0.532784 0.0557412
0.904936 0.53254 0.0555581
1 0.531334 0.0543984
0 0.650599 0.0220645
0.0293126 0.674998 0.0476539
0.136034 0.689082 0.061677
0.277409 0.693736 0.0662699
0.436255 0.693645 0.0661479
0.599695 0.690578 0.0630961
0.757107 0.687709 0.0602579
0.907851 0.685939 0.0585641
1 0.683101 0.0558175
0 0.805493 0.0353094
0.0419318 0.829587 0.0602731
0.147662 0.842725 0.0732891
0.287602 0.846052 0.076524
0.444938 0.844419 0.0748455
0.606867 0.83978 0.0701915
0.762646 0.83534 0.0657816
0.91191 0.832166 0.0626535
1 0.828199 0.0587625
0 0.957702 0.0439307
0.0488136 0.980316 0.067155
0.152941 0.991867 0.078584
0.291264 0.993667 0.0802625
0.447303 0.990723 0.0772412
0.608377 0.985092 0.0715801
0.763546 0.980133 0.0666209
0.912703 0.976898 0.0634318
1 0.973327 0.0599069
0 0 0.192752
0.034287 0 0.162966
0.110887 0 0.129503
0.228809 0 0.110933
0.366949 0 0.0901198
0.514305 0 0.0687266
0.656229 0 0.0500343
0.794171 0 0.0351263
0.93611 0 0.0217441
0 0.0307012 0.1935
0.0392767 0.0310826 0.183734
0.128969 0.0294041 0.147631
0.253666 0.0178683 0.135561
0.398672 0.00392157 0.121614
0.551949 0 0.10724
0.700755 0 0.0955978
0.845441 0 0.087541
0.993194 0 0.0805524
0 0.115618 0.163195
0.0166781 0.12256 0.170718
0.137392 0.119203 0.157595
0.268605 0.115068 0.150393
0.420279 0.107836 0.14316
0.579126 0.0996262 0.134951
0.733257 0.0933547 0.128679
0.882185 0.0896315 0.124941
1 0.0859236 0.121248
0 0.227787 0.126497
0.0167391 0.241047 0.143252
0.136065 0.243854 0.154803
0.273823 0.243977 0.155535
0.429419 0.240696 0.152255
0.590814 0.235431 0.146975
0.746914 0.231144 0.142687
0.897612 0.229252 0.140795
1 0.227512 0.139055
0 0.35935 0.115053
0.0234379 0.377249 0.139116
0.135637 0.385382 0.154238
0.274876 0.387472 0.156588
0.432334 0.386053 0.155154
0.595544 0.382818 0.151919
0.753857 0.380789 0.149874
0.906294 0.380728 0.149767
1 0.380224 0.149233
0 0.504417 0.110079
0.0232395 0.52549 0.136339
0.134066 0.53695 0.152667
0.275364 0.541268 0.157092
0.434424 0.541436 0.157259
0.598535 0.539162 0.155001
0.757198 0.537469 0.153353
0.909392 0.537133 0.153063
1 0.53576 0.151751
0 0.657786 0.115618
0.0306859 0.68101 0.142901
0.140688 0.693858 0.159274
0.282094 0.698421 0.163851
0.440772 0.698207 0.163607
0.603906 0.694972 0.160388
0.761166 0.691936 0.157382
0.911742 0.690028 0.155535
1 0.687022 0.152621
0 0.811994 0.129473
0.0439155 0.835019 0.155734
0.151888 0.847074 0.170489
0.291783 0.850233 0.173602
0.44892 0.848447 0.171756
0.610513 0.843641 0.166949
0.766171 0.839078 0.162402
0.915358 0.835828 0.159197
1 0.83183 0.155261
0 0.963287 0.138094
0.0508125 0.985 0.162448
0.156649 0.995697 0.175235
0.294957 0.997375 0.176852
0.450904 0.994354 0.17377
0.61178 0.988724 0.168093
0.766995 0.983795 0.163165
0.916213 0.980652 0.160037
1 0.977203 0.156649
0 0 0.341268
0.0285649 0 0.314168
0.110979 0 0.262486
0.223804 0 0.231693
0.36257 0 0.211551
0.510658 0 0.190845
0.6533 0 0.172885
0.791959 0 0.158679
0.934585 0 0.145998
0 0.0231327 0.346975
0.0328374 0.0245823 0.335409
0.131579 0.0223087 0.288029
0.25098 0.0151522 0.258473
0.396674 0.0019379 0.245274
0.550668 0 0.231678
0.700145 0 0.220783
0.845426 0 0.213367
0.993667 0 0.206851
0 0.110994 0.326116
0.0116426 0.117998 0.332189
0.136126 0.115068 0.313222
0.268269 0.114672 0.275547
0.420462 0.108019 0.268894
0.579736 0.100267 0.261204
0.734218 0.0943313 0.255344
0.883391 0.0908522 0.251926
1 0.0872969 0.248417
0 0.234104 0.283589
0 0.248325 0.297978
0.110536 0.250431 0.300847
0.275074 0.244984 0.282292
0.430701 0.241978 0.279026
0.592157 0.23682 0.273915
0.74847 0.232746 0.269886
0.899428 0.231113 0.26833
1 0.229587 0.266865
0 0.371939 0.248966
0 0.389029 0.267918
0.1178 0.392905 0.277256
0.276524 0.389197 0.283665
0.434287 0.388006 0.282551
0.59762 0.384955 0.27953
0.756054 0.383062 0.277668
0.908568 0.383062 0.277714
1 0.382574 0.277256
0 0.515114 0.233753
0.00358587 0.534524 0.258534
0.127337 0.54226 0.275883
0.277684 0.543603 0.28481
0.43679 0.543801 0.285039
0.600793 0.541527 0.282795
0.759396 0.539773 0.281117
0.911452 0.5393 0.280751
1 0.537758 0.279332
0 0.666407 0.237675
0.019379 0.688045 0.26508
0.137713 0.698131 0.283711
0.284352 0.70071 0.291539
0.442863 0.700328 0.291112
0.605707 0.696941 0.287739
0.762814 0.693736 0.284611
0.913237 0.691676 0.282643
1 0.688518 0.279622
0 0.818799 0.25156
0.0364691 0.840406 0.27834
0.150134 0.850324 0.295277
0.293507 0.851972 0.300786
0.450462 0.850019 0.298756
0.611765 0.845075 0.293767
0.767315 0.840391 0.289128
0.916442 0.837079 0.285893
1 0.833082 0.281987
0 0.96849 0.260258
0.0452583 0.989059 0.285298
0.155306 0.998093 0.300084
0.296239 0.998672 0.303624
0.452125 0.995605 0.300465
0.612818 0.989975 0.294759
0.768109 0.985092 0.289876
0.917418 0.98204 0.28687
1 0.978729 0.283635
0 0 0.509514
0.019791 0 0.484581
0.110277 0 0.428382
0.222324 0 0.376257
0.357061 0 0.348989
0.505943 0 0.329091
0.649332 0 0.312062
0.788678 0 0.298772
0.932006 0 0.286992
0 0.014374 0.518883
0.0250095 0.0167391 0.506798
0.130587 0.0132906 0.460624
0.252415 0.00883497 0.407218
0.393591 0 0.38497
0.548333 0 0.372091
0.698466 0 0.361929
0.844297 0 0.355169
0.992996 0 0.349294
0 0.104097 0.505943
0.00689708 0.111955 0.509804
0.131609 0.110216 0.487999
0.273014 0.109743 0.432319
0.419486 0.107042 0.410712
0.579202 0.0997024 0.403418
0.733974 0.0940871 0.397848
0.88336 0.0908064 0.39469
1 0.0873579 0.391379
0 0.231495 0.470512
0 0.245502 0.484947
0.10631 0.24686 0.485466
0.27747 0.240848 0.456809
0.430716 0.241993 0.421881
0.592248 0.236912 0.416815
0.748821 0.233112 0.413031
0.900038 0.231739 0.411704
1 0.230396 0.410468
0 0.378836 0.428382
0 0.39646 0.446159
0.0800488 0.401221 0.451286
0.249943 0.395712 0.446677
0.434989 0.388693 0.426123
0.598459 0.385824 0.423255
0.757015 0.384039 0.421469
0.90956 0.384085 0.42153
1 0.383581 0.421027
0 0.528618 0.391241
0 0.54818 0.411826
0.0889296 0.554711 0.421286
0.260502 0.550469 0.424262
0.437827 0.544854 0.428946
0.60174 0.542535 0.426657
0.76025 0.540703 0.424872
0.912154 0.540078 0.424308
1 0.538369 0.422705
0 0.67924 0.381018
0 0.699657 0.405722
0.114839 0.706844 0.421469
0.276921 0.704509 0.430838
0.443565 0.70106 0.434684
0.60618 0.697505 0.431144
0.763134 0.694148 0.427832
0.91339 0.69192 0.425681
1 0.688609 0.422461
0 0.828733 0.389578
0.0133059 0.848798 0.41529
0.135393 0.856016 0.43212
0.288899 0.854139 0.440635
0.450645 0.850217 0.441779
0.611688 0.845121 0.436652
0.767163 0.840345 0.431891
0.916228 0.837003 0.428595
1 0.83299 0.424674
0 0.975769 0.396582
0.0282139 0.99498 0.421393
0.14461 1 0.437156
0.292744 0.999878 0.443778
0.452003 0.995514 0.443153
0.612604 0.989899 0.437491
0.767956 0.985092 0.43267
0.917372 0.982147 0.429755
1 0.978988 0.426657
0 0 0.705516
0.00874342 0 0.682292
0.105531 0 0.627115
0.223804 0 0.55938
0.354269 0 0.511864
0.500099 0 0.486351
0.644251 0 0.469551
0.784298 0 0.456764
0.928298 0 0.445579
0 0.00399786 0.718608
0.0154726 0.007187 0.706752
0.125139 0.00323491 0.663508
0.255909 0 0.598505
0.393683 0 0.55256
0.544869 0 0.533135
0.695644 0 0.523064
0.841993 0 0.516243
0.991089 0 0.510185
0 0.0955062 0.712291
0.000411994 0.104387 0.714748
0.125216 0.1037 0.6916
0.276036 0.101366 0.634791
0.422461 0.102342 0.583322
0.577417 0.0978561 0.566979
0.732464 0.0925154 0.561257
0.882002 0.0894179 0.557733
1 0.0860456 0.553933
0 0.225132 0.684947
0 0.239384 0.698863
0.102266 0.24126 0.695293
0.273594 0.235843 0.663371
0.435874 0.237217 0.601434
0.591058 0.235676 0.581506
0.747921 0.232166 0.577691
0.899351 0.231037 0.576165
1 0.229862 0.574594
0 0.376806 0.647028
0 0.393912 0.665705
0.0686351 0.397696 0.670695
0.244862 0.391043 0.662654
0.43888 0.38352 0.623621
0.598001 0.385336 0.589044
0.756634 0.383642 0.587091
0.909194 0.383719 0.586831
1 0.383185 0.585885
0 0.535546 0.601267
0 0.555611 0.622202
0.0449226 0.562875 0.630167
0.215808 0.559503 0.627604
0.410529 0.550027 0.619471
0.601328 0.542123 0.592737
0.759716 0.540169 0.590646
0.911452 0.539376 0.589654
1 0.537514 0.587533
0 0.69369 0.569177
0 0.714534 0.591241
0.0581216 0.721798 0.600275
0.229358 0.717617 0.599298
0.422263 0.706874 0.596048
0.605249 0.696605 0.596841
0.762036 0.693095 0.593256
0.912123 0.6907 0.590738
1 0.687236 0.587076
0 0.843473 0.558831
0 0.862821 0.582025
0.0914931 0.868101 0.594217
0.258762 0.862348 0.598795
0.440116 0.852171 0.602213
0.610224 0.843702 0.601831
0.765621 0.838865 0.596963
0.914656 0.835492 0.5935
1 0.831495 0.589364
0 0.987549 0.555932
0 1 0.579767
0.112978 1 0.593973
0.272618 1 0.600717
0.444999 0.996002 0.60441
0.611048 0.988418 0.602533
0.766476 0.983688 0.597818
0.916014 0.980865 0.594949
1 0.97789 0.591867
0 0 0.925719
0 0 0.903792
0.0975967 0 0.851408
0.224201 0 0.777752
0.357641 0 0.70985
0.498161 0 0.665812
0.638926 0 0.643168
0.77966 0 0.629999
0.924331 0 0.618219
0 0 0.942168
0.00495918 0 0.930678
0.117281 0 0.890135
0.256672 0 0.823713
0.399786 0 0.757443
0.54583 0 0.717067
0.692531 0 0.70042
0.839323 0 0.693614
0.988815 0 0.687388
0 0.0860761 0.94136
0 0.095964 0.942748
0.1178 0.0962234 0.91899
0.274266 0.0926375 0.865476
0.43032 0.0930343 0.797498
0.580713 0.09308 0.754757
0.730556 0.0904555 0.74052
0.880201 0.0875105 0.736797
1 0.0842603 0.732708
0 0.217304 0.921813
0 0.23209 0.934249
0.0970016 0.234775 0.926757
0.267994 0.229923 0.892927
0.441718 0.228428 0.827344
0.596078 0.230854 0.773449
0.746639 0.230762 0.758007
0.898253 0.229847 0.756436
1 0.228824 0.754726
0 0.370642 0.89041
0 0.387488 0.908461
0.0632029 0.391241 0.911131
0.240665 0.385168 0.897124
0.435813 0.377813 0.855695
0.605188 0.380026 0.789014
0.755825 0.382696 0.768154
0.908354 0.382818 0.767681
1 0.382239 0.766491
0 0.533913 0.847761
0 0.553552 0.869413
0.0282444 0.559884 0.87744
0.204532 0.555093 0.873655
0.405722 0.544305 0.859464
0.60618 0.535515 0.812146
0.758724 0.538979 0.77171
0.910201 0.538079 0.770352
1 0.536049 0.76791
0 0.700603 0.80766
0 0.721508 0.83003
0.0102235 0.728878 0.838514
0.180575 0.724956 0.83566
0.373358 0.714611 0.826642
0.575845 0.699763 0.813214
0.760647 0.691279 0.774121
0.910323 0.688853 0.771038
1 0.685252 0.767132
0 0.858412 0.776242
0 0.878157 0.797467
0.0204471 0.884138 0.804639
0.188693 0.878752 0.800519
0.378897 0.867079 0.790722
0.576623 0.851362 0.779324
0.763287 0.836896 0.776959
0.912596 0.833402 0.773663
1 0.82945 0.769467
0 1 0.751003
0 1 0.772045
0.0460059 1 0.780591
0.214481 1 0.780041
0.403906 1 0.777249
0.594568 0.991333 0.776394
0.764477 0.981781 0.778119
0.914229 0.97908 0.775433
1 0.976272 0.772488
0 0 1
0 0 1
0.0882429 0 1
0.221653 0 1
0.362066 0 0.925231
0.503471 0 0.86186
0.639094 0 0.823697
0.775738 0 0.804593
0.920974 0 0.793393
0 0 1
0 0 1
0.108843 0 1
0.254154 0 1
0.405676 0 0.978683
0.553933 0 0.918181
0.695308 0 0.884062
0.837354 0 0.870207
0.987015 0 0.864179
0 0.0770581 1
0 0.0879072 1
0.110582 0.0889601 1
0.270176 0.0848554 1
0.435508 0.0834211 1
0.590677 0.0846723 0.962356
0.735119 0.0860914 0.926772
0.879011 0.085893 0.914244
1 0.0829175 0.91017
0 0.209751 1
0 0.225132 1
0.0916152 0.228565 1
0.262303 0.22414 1
0.442374 0.220569 1
0.606378 0.222339 0.989654
0.752819 0.226535 0.947326
0.897826 0.228962 0.934737
1 0.228168 0.932906
0 0.363775 1
0 0.380728 1
0.0590219 0.384924 1
0.236255 0.379705 1
0.431479 0.372717 1
0.61294 0.371908 1
0.763745 0.378058 0.962173
0.908171 0.382101 0.946303
1 0.381582 0.944701
0 0.528771 1
0 0.548211 1
0.0218204 0.554162 1
0.200137 0.549157 1
0.401907 0.538888 1
0.603861 0.529717 1
0.767926 0.532647 0.974563
0.909697 0.536858 0.94873
1 0.534859 0.945647
0 0.699489 1
0 0.71986 1
0 0.726238 1
0.165667 0.720958 1
0.363943 0.709026 1
0.571359 0.693309 1
0.765835 0.683207 0.998459
0.909499 0.686992 0.949248
1 0.683574 0.944427
0 0.86424 1
0 0.883726 1
0 0.889387 1
0.143267 0.883696 1
0.334157 0.871687 1
0.533333 0.855741 1
0.73315 0.838712 1
0.912428 0.83093 0.953536
1 0.827741 0.946761
0 1 0.977783
0 1 0.997345
0 1 1
0.140215 1 0.99736
0.32874 1 0.986084
0.524468 1 0.971817
0.717968 0.993317 0.958328
0.908675 0.979065 0.951492
1 0.975067 0.950286
0 0 1
0 0 1
0.0783551 0 1
0.216541 0 1
0.363973 0 1
0.510307 0 1
0.645457 0 1
0.777371 0 0.982879
0.918379 0 0.965606
0 0 1
0 0 1
0.100435 0 1
0.249622 0 1
0.408499 0 1
0.562783 0 1
0.704143 0 1
0.841169 0 1
0.986374 0 1
0 0.0686503 1
0 0.0803693 1
0.103777 0.0821393 1
0.265263 0.0778973 1
0.436957 0.0749523 1
0.599771 0.0754101 1
0.745449 0.0786755 1
0.884031 0.0819257 1
1 0.0818036 1
0 0.202777 1
0 0.218708 1
0.0863355 0.222782 1
0.256825 0.218647 1
0.440299 0.213962 1
0.613458 0.213886 1
0.764218 0.21915 1
0.904402 0.22536 1
1 0.227649 1
0 0.357168 1
0 0.374426 1
0.0551614 0.379187 1
0.231891 0.374716 1
0.4271 0.368002 1
0.615305 0.365103 1
0.775036 0.370306 1
0.915938 0.378058 1
1 0.380972 1
0 0.522988 1
0 0.542428 1
0.0179141 0.548409 1
0.196765 0.543633 1
0.39794 0.533974 1
0.600076 0.524697 1
0.775509 0.524407 1
0.91841 0.531411 1
1 0.533623 1
0 0.695125 1
0 0.715099 1
0 0.720882 1
0.159564 0.715007 1
0.359594 0.702739 1
0.567132 0.687526 1
0.763012 0.67686 1
0.919142 0.679515 1
1 0.681758 1
0 0.862989 1
0 0.881895 1
0 0.886702 1
0.125856 0.879896 1
0.321096 0.86656 1
0.525338 0.849332 1
0.728618 0.832074 1
0.917281 0.822461 1
1 0.825757 1
0 1 1
0 1 1
0 1 1
0.0984207 1 1
0.288624 1 1
0.487053 1 1
0.68452 0.994736 1
0.88307 0.979294 1
1 0.972473 1
