luts/04_Film Emulation LUTs_Dramatic Light.cube
TITLE "Generated by Resolve"
LUT_3D_SIZE 5
0 0 0
0.115618 0 0
0.369284 0 0
0.655848 0 0
0.932876 0 0
0 0.104402 0
0.132174 0.115434 0
0.413382 0.100938 0
0.724681 0.0846571 0
1 0.0762341 0
0 0.343786 0
0.125978 0.375479 0
0.421561 0.375341 0
0.74258 0.369314 0
1 0.36846 0
0 0.643076 0
0.128969 0.681956 0
0.429328 0.686687 0
0.750698 0.681056 0
1 0.676768 0
0 0.950881 0
0.146807 0.985656 0.0123751
0.441352 0.98471 0.0112306
0.757839 0.974121 0.00062562
1 0.967147 0
0 0 0.192752
0.110887 0 0.129503
0.366949 0 0.0901198
0.656229 0 0.0500343
0.93611 0 0.0217441
0 0.115618 0.163195
0.137392 0.119203 0.157595
0.420279 0.107836 0.14316
0.733257 0.0933547 0.128679
1 0.0859236 0.121248
0 0.35935 0.115053
0.135637 0.385382 0.154238
0.432334 0.386053 0.155154
0.753857 0.380789 0.149874
1 0.380224 0.149233
0 0.657786 0.115618
0.140688 0.693858 0.159274
0.440772 0.698207 0.163607
0.761166 0.691936 0.157382
1 0.687022 0.152621
0 0.963287 0.138094
0.156649 0.995697 0.175235
0.450904 0.994354 0.17377
0.766995 0.983795 0.163165
1 0.977203 0.156649
0 0 0.509514
0.110277 0 0.428382
0.357061 0 0.348989
0.649332 0 0.312062
0.932006 0 0.286992
0 0.104097 0.505943
0.131609 0.110216 0.487999
0.419486 0.107042 0.410712
0.733974 0.0940871 0.397848
1 0.0873579 0.391379
0 0.378836 0.428382
0.0800488 0.401221 0.451286
0.434989 0.388693 0.426123
0.757015 0.384039 0.421469
1 0.383581 0.421027
0 0.67924 0.381018
0.114839 0.706844 0.421469
0.443565 0.70106 0.434684
0.763134 0.694148 0.427832
1 0.688609 0.422461
0 0.975769 0.396582
0.14461 1 0.437156
0.452003 0.995514 0.443153
0.767956 0.985092 0.43267
1 0.978988 0.426657
0 0 0.925719
0.0975967 0 0.851408
0.357641 0 0.70985
0.638926 0 0.643168
0.924331 0 0.618219
0 0.0860761 0.94136
0.1178 0.0962234 0.91899
0.43032 0.0930343 0.797498
0.730556 0.0904555 0.74052
1 0.0842603 0.732708
0 0.370642 0.89041
0.0632029 0.391241 0.911131
0.435813 0.377813 0.855695
0.755825 0.382696 0.768154
1 0.382239 0.766491
0 0.700603 0.80766
0.0102235 0.728878 0.838514
0.373358 0.714611 0.826642
0.760647 0.691279 0.774121
1 0.685252 0.767132
0 1 0.751003
0.0460059 1 0.780591
0.403906 1 0.777249
0.764477 0.981781 0.778119
1 0.976272 0.772488
0 0 1
0.0783551 0 1
0.363973 0 1
0.645457 0 1
0.918379 0 0.965606
0 0.0686503 1
0.103777 0.0821393 1
0.436957 0.0749523 1
0.745449 0.0786755 1
1 0.0818036 1
0 0.357168 1
0.0551614 0.379187 1
0.4271 0.368002 1
0.775036 0.370306 1
1 0.380972 1
0 0.695125 1
0 0.720882 1
0.359594 0.702739 1
0.763012 0.67686 1
1 0.681758 1
0 1 1
0 1 1
0.288624 1 1
0.68452 0.994736 1
1 0.972473 1
