luts/04_Film Emulation LUTs_Dramatic Light.cube
TITLE "Generated by Resolve"
LUT_3D_SIZE 33
0 0 0
0.00239567 0 0
0.0106966 0 0
0.0218814 0 0
0.035584 0 0
0.0517281 0 0
0.0704356 0 0
0.0917678 0 0
0.115618 0 0
0.141924 0 0
0.170413 0 0
0.200626 0 0
0.232441 0 0
0.265446 0 0
0.299138 0 0
0.333715 0 0
0.369284 0 0
0.405493 0 0
0.442115 0 0
0.478889 0 0
0.515282 0 0
0.550988 0 0
0.586175 0 0
0.62118 0 0
0.655848 0 0
0.690181 0 0
0.724239 0 0
0.758236 0 0
0.79234 0 0
0.826719 0 0
0.86154 0 0
0.896986 0 0
0.932876 0 0
0 0.00233463 0
0.0037995 0.0028687 0
0.0129549 0.00239567 0
0.0248264 0.00140383 0
0.0391241 0 0
0.0558175 0 0
0.0750286 0 0
0.0968185 0 0
0.121126 0 0
0.14786 0 0
0.176761 0 0
0.207401 0 0
0.239689 0 0
0.273121 0 0
0.307225 0 0
0.342199 0 0
0.378164 0 0
0.41471 0 0
0.451698 0 0
0.488807 0 0
0.525429 0 0
0.561456 0 0
0.597086 0 0
0.632532 0 0
0.667643 0 0
0.702419 0 0
0.736919 0 0
0.771374 0 0
0.805905 0 0
0.840726 0 0
0.87599 0 0
0.911864 0 0
0.94818 0 0
0 0.0100252 0
0.00396735 0.0111391 0
0.0136416 0.0111849 0
0.0260014 0.0106966 0
0.0407568 0.00972 0
0.057908 0.00825513 0
0.0775311 0.00627146 0
0.0997482 0.00375372 0
0.124453 0.000701915 0
0.151583 0 0
0.180896 0 0
0.211948 0 0
0.244678 0 0
0.278538 0 0
0.313054 0 0
0.348424 0 0
0.384771 0 0
0.421698 0 0
0.459098 0 0
0.496544 0 0
0.533486 0 0
0.569909 0 0
0.606012 0 0
0.641917 0 0
0.67747 0 0
0.712688 0 0
0.747631 0 0
0.782513 0 0
0.817487 0 0
0.852735 0 0
0.888411 0 0
0.924712 0 0
0.961456 0 0
0 0.0203098 0
0.00369268 0.0218662 0
0.0138094 0.0223697 0.00015259
0.0265812 0.0222934 7.62951e-05
0.0417639 0.0217136 0
0.0592966 0.0206607 0
0.0793317 0.019089 0
0.101946 0.016968 0
0.127062 0.014313 0
0.154589 0.0111696 0
0.184298 0.00759899 0
0.215778 0.00367742 0
0.248951 0 0
0.283223 0 0
0.318166 0 0
0.353964 0 0
0.390723 0 0
0.428077 0 0
0.465904 0 0
0.503716 0 0
0.541024 0 0
0.577859 0 0
0.61445 0 0
0.650767 0 0
0.686763 0 0
0.722408 0 0
0.757778 0 0
0.793088 0 0
0.828473 0 0
0.864149 0 0
0.900252 0 0
0.936965 0 0
0.973648 0 0
0 0.0328069 0
0.00296025 0.0347753 0
0.0134737 0.0356756 0
0.0266575 0.035996 0.00015259
0.042237 0.0358282 0
0.0601816 0.035172 0
0.0806134 0.0339971 0
0.103639 0.0322881 0
0.129137 0.030045 0
0.157092 0.0272984 0
0.187198 0.0241398 0
0.21912 0.0206455 0
0.252735 0.0169528 0
0.287465 0.0131533 0
0.32285 0.00935378 0
0.359106 0.00550851 0
0.396292 0.00154116 0
0.434089 0 0
0.472343 0 0
0.510536 0 0
0.548211 0 0
0.585458 0 0
0.622492 0 0
0.659251 0 0
0.695659 0 0
0.731731 0 0
0.767529 0 0
0.803235 0 0
0.839048 0 0
0.875135 0 0
0.911635 0 0
0.948714 0 0
0.985748 0 0
0 0.0474098 0
0.00167849 0.0497749 0
0.012604 0.0510719 0
0.0261845 0.0518044 0
0.0421607 0.0520485 0
0.0605173 0.0518044 0
0.0813764 0.0510414 0
0.104799 0.0497292 0
0.130739 0.0479133 0
0.159106 0.0456092 0
0.189654 0.0428779 0
0.222049 0.0398413 0
0.256138 0.0366064 0
0.291325 0.0332647 0
0.327169 0.0299229 0
0.363867 0.0265202 0
0.40148 0.0229953 0
0.439704 0.0194095 0
0.47837 0.0158389 0
0.51693 0.0123445 0
0.554986 0.00895705 0
0.592645 0.00576791 0
0.630121 0.00280766 0
0.667292 0.000106813 0
0.704128 0 0
0.740612 0 0
0.776806 0 0
0.812909 0 0
0.849104 0 0
0.885527 0 0
0.922362 0 0
0.959762 0 0
0.997086 0 0
0 0.0641794 0
0 0.0669413 0
0.0110781 0.0686503 0
0.0250706 0.0697948 0
0.041474 0.0704509 0
0.0602579 0.070634 0
0.081529 0.0702983 0
0.105409 0.0694438 0
0.131807 0.0680858 0
0.160632 0.0662242 0
0.191623 0.0639506 0
0.224491 0.0613718 0
0.259022 0.0585641 0
0.294667 0.0556649 0
0.330953 0.0527657 0
0.368078 0.0498054 0
0.406104 0.0467231 0
0.444755 0.0435645 0
0.483833 0.0404212 0
0.522759 0.0373388 0
0.561181 0.0343786 0
0.599268 0.0316167 0
0.637171 0.0290837 0
0.674739 0.0267796 0
0.711955 0.0247196 0
0.748791 0.0228733 0
0.785336 0.0212253 0
0.821775 0.0197299 0
0.858274 0.0183108 0
0.894987 0.0169375 0
0.932097 0.0155642 0
0.969772 0.0141299 0
1 0.012665 0
0 0.0831617 0
0 0.0863508 0
0.00885023 0.0884871 0
0.0232853 0.0900587 0
0.0401312 0.0911727 0
0.0593729 0.0918135 0
0.0811017 0.0919356 0
0.10544 0.0915236 0
0.13228 0.0906081 0
0.161547 0.0892042 0
0.192981 0.0873732 0
0.226291 0.0852216 0
0.26128 0.0828565 0
0.297353 0.0803845 0
0.334066 0.0779126 0
0.371633 0.0753796 0
0.410071 0.0727245 0
0.449134 0.0699931 0
0.488594 0.067277 0
0.527886 0.0646067 0
0.56669 0.0620432 0
0.605142 0.0596628 0
0.643412 0.0574807 0
0.681315 0.0555276 0
0.718853 0.0537881 0
0.755993 0.0522469 0
0.792828 0.0509041 0
0.829541 0.0496834 0
0.866285 0.0485237 0
0.903258 0.0474098 0
0.940597 0.0462654 0
0.978469 0.0450294 0
1 0.0437629 0
0 0.104402 0
0 0.108049 0
0.00608835 0.110643 0
0.0209659 0.112673 0
0.0382696 0.114229 0
0.0579538 0.115312 0
0.0801251 0.115877 0
0.104906 0.115923 0
0.132174 0.115434 0
0.161883 0.114458 0
0.193744 0.113069 0
0.227497 0.111345 0
0.262913 0.109407 0
0.299413 0.107362 0
0.336568 0.105318 0
0.374548 0.103197 0
0.413382 0.100938 0
0.452827 0.0986038 0
0.492653 0.0962539 0
0.53225 0.0939498 0
0.571344 0.091722 0
0.610117 0.089662 0
0.648692 0.0877852 0
0.686885 0.0861219 0
0.724681 0.0846571 0
0.762081 0.0833753 0
0.799161 0.0822614 0
0.836088 0.0812695 0
0.873045 0.0803235 0
0.910185 0.0793927 0
0.947707 0.0784314 0
0.985733 0.0773632 0
1 0.0762341 0
0 0.127977 0
0 0.132067 0
0.00283818 0.135103 0
0.0181582 0.137575 0
0.0358892 0.139574 0
0.0560159 0.1411 0
0.0786297 0.142092 0
0.103822 0.142565 0
0.131533 0.142519 0
0.161669 0.14197 0
0.193942 0.140993 0
0.228138 0.139681 0
0.263966 0.13817 0
0.300877 0.136522 0
0.338415 0.134859 0
0.376761 0.133104 0
0.41593 0.131212 0
0.455711 0.129198 0
0.495827 0.127169 0
0.535683 0.125154 0
0.575036 0.123217 0
0.614084 0.121416 0
0.652903 0.119799 0
0.691325 0.118364 0
0.729335 0.117113 0
0.766949 0.116045 0
0.804196 0.115114 0
0.841291 0.11429 0
0.878386 0.113497 0
0.915679 0.112718 0
0.953307 0.111864 0
0.99144 0.110903 0
1 0.10988 0
0 0.15375 0
0 0.158282 0
0 0.161761 0
0.0150301 0.16466 0
0.0332036 0.167086 0
0.0537423 0.169039 0
0.0767834 0.170459 0
0.102403 0.171344 0
0.130541 0.171725 0
0.161074 0.171588 0
0.193759 0.171008 0
0.228321 0.170077 0
0.26453 0.168917 0
0.301778 0.16762 0
0.339651 0.166293 0
0.378302 0.164843 0
0.417762 0.163226 0
0.457801 0.161501 0
0.498177 0.159731 0
0.538231 0.157961 0
0.577798 0.156252 0
0.617044 0.154665 0
0.656062 0.153246 0
0.694667 0.151995 0
0.732845 0.150912 0
0.770581 0.149981 0
0.807965 0.149187 0
0.845167 0.148486 0
0.882383 0.147799 0
0.919738 0.147097 0
0.957443 0.146319 0
0.995621 0.145418 0
1 0.144427 0
0 0.181552 0
0 0.186511 0
0 0.190417 0
0.0119326 0.193744 0
0.030518 0.196597 0
0.0514839 0.198962 0
0.0749218 0.200793 0
0.100938 0.202075 0
0.129442 0.202823 0
0.160342 0.203037 0
0.193347 0.202792 0
0.228244 0.202182 0
0.264759 0.201328 0
0.302296 0.20032 0
0.340444 0.199252 0
0.379339 0.198062 0
0.419028 0.196689 0
0.459297 0.195193 0
0.499855 0.193622 0
0.540078 0.19205 0
0.579797 0.190509 0
0.619211 0.189075 0
0.658366 0.187793 0
0.697093 0.186679 0
0.735378 0.185702 0
0.77322 0.184878 0
0.810666 0.184161 0
0.847944 0.18352 0
0.885191 0.182879 0
0.922591 0.182223 0
0.960357 0.181521 0
0.998672 0.180743 0
1 0.179934 0
0 0.211215 0
0 0.216587 0
0 0.220905 0
0.00915541 0.224628 0
0.0281224 0.227863 0
0.0494545 0.230594 0
0.0732433 0.232761 0
0.0995956 0.234379 0
0.128405 0.235431 0
0.159609 0.23595 0
0.192905 0.235981 0
0.228061 0.235645 0
0.26482 0.23505 0
0.302602 0.234272 0
0.340963 0.233417 0
0.380072 0.232441 0
0.419928 0.23125 0
0.460365 0.229908 0
0.50106 0.228504 0
0.541405 0.22707 0
0.581231 0.22565 0
0.620737 0.224323 0
0.659983 0.223148 0
0.698787 0.222095 0
0.737118 0.22118 0
0.775006 0.220401 0
0.812497 0.219745 0
0.849867 0.219196 0
0.887251 0.218708 0
0.924849 0.218235 0
0.962798 0.217716 0
1 0.217121 0
1 0.216464 0
0 0.242496 0
0 0.248234 0
0 0.252903 0
0.00689708 0.256977 0
0.0261997 0.260533 0
0.047837 0.263554 0
0.0719158 0.266026 0
0.0985428 0.267918 0
0.127611 0.26923 0
0.159045 0.269978 0
0.192569 0.270253 0
0.227939 0.270115 0
0.264897 0.269718 0
0.302861 0.269123 0
0.34139 0.268437 0
0.380636 0.267597 0
0.420645 0.266545 0
0.461189 0.265324 0
0.501976 0.264012 0
0.542367 0.262669 0
0.582254 0.261326 0
0.62182 0.26006 0
0.661112 0.258915 0
0.699962 0.257939 0
0.738415 0.257145 0
0.776455 0.256535 0
0.814145 0.256062 0
0.851682 0.255711 0
0.889235 0.25539 0
0.926986 0.255085 0
0.965087 0.254719 0
1 0.254276 0
1 0.253758 0
0 0.275074 0
0 0.281132 0
0 0.286091 0
0.00531014 0.290455 0
0.0248722 0.29427 0
0.0467689 0.297551 0
0.0710918 0.300267 0
0.0979324 0.302358 0
0.127199 0.303883 0
0.158831 0.304829 0
0.192523 0.305272 0
0.228061 0.305303 0
0.265156 0.305028 0
0.303243 0.30457 0
0.341878 0.30399 0
0.381231 0.303243 0
0.421302 0.302281 0
0.461921 0.301122 0
0.502739 0.29987 0
0.543175 0.298558 0
0.583124 0.297307 0
0.622827 0.296178 0
0.662287 0.295216 0
0.70132 0.294423 0
0.739956 0.293812 0
0.778149 0.29337 0
0.815991 0.29305 0
0.853681 0.292851 0
0.891371 0.292683 0
0.929244 0.2925 0
0.967468 0.292271 0
1 0.291936 0
1 0.291539 0
0 0.308873 0
0 0.31519 0
0 0.320409 0
0.00396735 0.324987 0
0.023743 0.32903 0
0.0458381 0.332509 0
0.0703441 0.335393 0
0.0973526 0.337667 0
0.126787 0.33933 0
0.158541 0.340414 0
0.192355 0.340978 0
0.228 0.341115 0
0.265187 0.340932 0
0.303349 0.340536 0
0.342046 0.340017 0
0.381445 0.339315 0
0.421576 0.338399 0
0.462272 0.337362 0
0.503243 0.336248 0
0.543847 0.335134 0
0.583963 0.334066 0
0.62385 0.333104 0
0.663478 0.332311 0
0.702663 0.33167 0
0.741436 0.331212 0
0.779767 0.330892 0
0.817731 0.330724 0
0.855528 0.330632 0
0.893339 0.330571 0
0.931304 0.330495 0
0.969604 0.330358 0
1 0.330098 0
1 0.329778 0
0 0.343786 0
0 0.350317 0
0 0.355718 0
0.00251774 0.360479 0
0.0224613 0.364675 0
0.0446937 0.368307 0
0.069337 0.371328 0
0.0964523 0.373709 0
0.125978 0.375479 0
0.157839 0.376654 0
0.191714 0.377279 0
0.227405 0.377462 0
0.264622 0.377325 0
0.302861 0.377005 0
0.34168 0.376608 0
0.381247 0.376074 0
0.421561 0.375341 0
0.462455 0.374472 0
0.503594 0.373541 0
0.544335 0.37258 0
0.584604 0.371664 0
0.624628 0.370855 0
0.664378 0.370184 0
0.7037 0.369665 0
0.74258 0.369314 0
0.781003 0.369116 0
0.819059 0.369039 0
0.856947 0.369024 0
0.89482 0.369055 0
0.932845 0.369039 0
0.971206 0.368963 0
1 0.36875 0
1 0.36846 0
0 0.379568 0
0 0.386252 0
0 0.391806 0
0.000991836 0.396689 0
0.0210422 0.400992 0
0.0433814 0.404715 0
0.0680858 0.407813 0
0.0952773 0.410269 0
0.124849 0.412085 0
0.156741 0.413306 0
0.190723 0.414008 0
0.226535 0.414343 0
0.263935 0.414389 0
0.302373 0.414252 0
0.34136 0.414023 0
0.381109 0.413657 0
0.421576 0.413092 0
0.462608 0.412375 0
0.503883 0.411566 0
0.544747 0.410742 0
0.585138 0.409934 0
0.625269 0.409232 0
0.66511 0.408667 0
0.704524 0.40824 0
0.743481 0.407965 0
0.781979 0.407843 0
0.820096 0.407813 0
0.85803 0.407874 0
0.895949 0.407935 0
0.934005 0.407965 0
0.972396 0.407904 0
1 0.407721 0
1 0.407431 0
0 0.415991 0
0 0.422797 0
0 0.428428 0
0 0.433402 0
0.0195315 0.437766 0
0.0419013 0.441535 0
0.0666819 0.444694 0
0.0939651 0.447257 0
0.123705 0.449226 0
0.155779 0.450629 0
0.189944 0.45153 0
0.225925 0.452033 0
0.263493 0.452232 0
0.302083 0.452262 0
0.341222 0.452186 0
0.381094 0.451942 0
0.421698 0.451499 0
0.462852 0.450904 0
0.504219 0.450202 0
0.54519 0.44947 0
0.585641 0.448753 0
0.625864 0.448127 0
0.665782 0.447639 0
0.705242 0.447272 0
0.744244 0.447044 0
0.782788 0.446952 0
0.820935 0.446952 0
0.858885 0.447028 0
0.896819 0.447105 0
0.934874 0.44712 0
0.973251 0.447059 0
1 0.44686 0
1 0.446555 0
0 0.452811 0
0 0.459663 0
0 0.465339 0
0 0.47039 0
0.0181277 0.474876 0
0.0406653 0.478813 0
0.0656291 0.48217 0
0.0931106 0.484901 0
0.123003 0.487053 0
0.155245 0.488609 0
0.189563 0.489662 0
0.225681 0.490303 0
0.263371 0.490639 0
0.302083 0.490776 0
0.341344 0.490822 0
0.381323 0.490684 0
0.422019 0.490333 0
0.463264 0.489815 0
0.504707 0.489204 0
0.545739 0.488533 0
0.586252 0.487877 0
0.626505 0.487297 0
0.666468 0.486839 0
0.705943 0.486503 0
0.744961 0.486305 0
0.78352 0.486229 0
0.821668 0.486229 0
0.859602 0.486305 0
0.89752 0.486351 0
0.935546 0.486351 0
0.973892 0.486259 0
1 0.486015 0
1 0.485649 0
0 0.489845 0
0 0.496864 0
0 0.502754 0
0 0.508003 0
0.01738 0.512703 0
0.0400854 0.516823 0
0.0652018 0.520348 0
0.0928359 0.523247 0
0.122866 0.525536 0
0.155245 0.527245 0
0.18967 0.52842 0
0.225879 0.529183 0
0.263691 0.52961 0
0.30248 0.529854 0
0.341833 0.529976 0
0.381888 0.529915 0
0.42266 0.529625 0
0.463951 0.529152 0
0.50544 0.528572 0
0.546502 0.527947 0
0.58703 0.527306 0
0.627298 0.526726 0
0.667262 0.526268 0
0.706737 0.525933 0
0.745754 0.525704 0
0.784283 0.525582 0
0.822385 0.525567 0
0.860288 0.525567 0
0.898161 0.525567 0
0.936126 0.52549 0
0.974395 0.525322 0
1 0.524971 0
1 0.524514 0
0 0.527596 0
0 0.534813 0
0 0.540871 0
0 0.546288 0
0.0174105 0.551141 0
0.0402533 0.555398 0
0.065507 0.559045 0
0.0932479 0.562066 0
0.123384 0.564477 0
0.155856 0.566278 0
0.190387 0.567544 0
0.226658 0.568383 0
0.26453 0.568902 0
0.303395 0.569192 0
0.342779 0.56936 0
0.382879 0.569345 0
0.423682 0.5691 0
0.465003 0.568643 0
0.506523 0.568078 0
0.54757 0.567452 0
0.588113 0.566812 0
0.628367 0.566232 0
0.668299 0.565744 0
0.707744 0.565362 0
0.7467 0.565087 0
0.785183 0.564935 0
0.823224 0.564843 0
0.861067 0.564782 0
0.898833 0.564691 0
0.936706 0.564523 0
0.974884 0.564233 0
1 0.56379 0
1 0.56321 0
0 0.565805 0
0 0.573175 0
0 0.579385 0
0 0.584924 0
0.0183108 0.589883 0
0.0412604 0.594263 0
0.0665904 0.598016 0
0.0944228 0.601114 0
0.124636 0.603601 0
0.157168 0.605478 0
0.19176 0.606806 0
0.228077 0.607691 0
0.26598 0.60824 0
0.30486 0.60856 0
0.344274 0.608759 0
0.38439 0.608759 0
0.425208 0.608499 0
0.466514 0.608057 0
0.508019 0.607477 0
0.54905 0.606821 0
0.589548 0.606134 0
0.629755 0.605509 0
0.669627 0.604974 0
0.70901 0.604532 0
0.74789 0.604181 0
0.786282 0.603922 0
0.824231 0.603738 0
0.861952 0.603586 0
0.899626 0.603387 0
0.937407 0.603128 0
0.975464 0.602731 0
1 0.602182 0
1 0.601511 0
0 0.604334 0
0 0.611826 0
0 0.618143 0
0 0.623774 0
0.0199741 0.628824 0
0.0429999 0.63328 0
0.0684062 0.637095 0
0.0962692 0.640253 0
0.126543 0.642786 0
0.159106 0.644709 0
0.193729 0.646067 0
0.23003 0.646967 0
0.267948 0.647532 0
0.306828 0.647852 0
0.346242 0.648051 0
0.386328 0.64802 0
0.427131 0.64773 0
0.468406 0.647242 0
0.50985 0.646616 0
0.550835 0.645899 0
0.591272 0.645167 0
0.631388 0.64445 0
0.671168 0.643824 0
0.710445 0.64329 0
0.749233 0.642832 0
0.787518 0.642481 0
0.82536 0.642191 0
0.862989 0.641932 0
0.900557 0.641642 0
0.938231 0.641276 0
0.976196 0.640787 0
1 0.640131 0
1 0.639353 0
0 0.643076 0
0 0.65066 0
0 0.657053 0
0.00151064 0.66276 0
0.0223087 0.667857 0
0.0453651 0.672358 0
0.0708019 0.676219 0
0.0986954 0.679408 0
0.128969 0.681956 0
0.161547 0.683864 0
0.19617 0.685222 0
0.232456 0.686122 0
0.270329 0.686656 0
0.309178 0.686961 0
0.348547 0.687099 0
0.388602 0.687022 0
0.429328 0.686687 0
0.470542 0.686122 0
0.511925 0.68542 0
0.552819 0.684611 0
0.593149 0.683772 0
0.633173 0.682963 0
0.672847 0.682231 0
0.712016 0.681605 0
0.750698 0.681056 0
0.788876 0.680598 0
0.826627 0.680217 0
0.864149 0.67985 0
0.90161 0.679469 0
0.939193 0.678996 0
0.97705 0.678401 0
1 0.677653 0
1 0.676768 0
0 0.68191 0
0 0.68954 0
0 0.695979 0
0.0043946 0.701701 0
0.0252079 0.706828 0
0.0482795 0.711345 0
0.0737163 0.71519 0
0.101595 0.718379 0
0.131853 0.720913 0
0.164401 0.722805 0
0.198993 0.724117 0.000579843
0.235218 0.724971 0.00140383
0.27303 0.72546 0.00187686
0.311818 0.725689 0.00210575
0.35111 0.725765 0.00216678
0.391073 0.725612 0.00199893
0.431724 0.72517 0.00155642
0.472847 0.724514 0.000900282
0.514122 0.723705 9.15541e-05
0.55494 0.722805 0
0.595163 0.721859 0
0.635065 0.720958 0
0.674647 0.720134 0
0.713726 0.719402 0
0.7523 0.718746 0
0.790372 0.718196 0
0.828016 0.717723 0
0.865431 0.71725 0
0.9028 0.716762 0
0.940276 0.716197 0
0.978027 0.715511 0
1 0.714672 0
1 0.71368 0
0 0.720714 0
0 0.728359 0
0 0.734798 0
0.00769055 0.740536 0
0.0284886 0.745647 0
0.051545 0.750134 0
0.0769513 0.753964 0
0.104799 0.757107 0
0.135012 0.759594 0.000564584
0.167498 0.761425 0.00236515
0.202014 0.762676 0.00360113
0.238148 0.763455 0.00434882
0.275868 0.763851 0.0047303
0.314565 0.763989 0.00486763
0.35375 0.763958 0.00482185
0.393622 0.763699 0.00456245
0.43418 0.763165 0.00401312
0.475196 0.762417 0.00326543
0.516396 0.761501 0.00234989
0.557107 0.76051 0.00135805
0.597238 0.759472 0.000320439
0.637049 0.758465 0
0.676509 0.757534 0
0.71548 0.75671 0
0.753964 0.755962 0
0.791943 0.755306 0
0.82948 0.754726 0
0.866789 0.754177 0
0.904051 0.753582 0
0.941421 0.752926 0
0.97908 0.752132 0
1 0.751186 0
1 0.750118 0
0 0.759457 0
0 0.767086 0
0 0.773495 0
0.0111238 0.779202 0
0.0318914 0.784268 0
0.0548867 0.788708 0
0.0802319 0.792477 0
0.108003 0.79556 0.00132753
0.138125 0.797955 0.00369268
