luts/05_Vlog LUTs_Clean Tones .cube
TITLE "Generated by Resolve"
LUT_3D_SIZE 33
0 0 0
0.0255741 0 0
0.0512245 0 0
0.0759747 0 0
0.100679 0 0
0.125948 0 0
0.152697 0 0
0.181628 0 0
0.212894 0 0
0.246647 0 0
0.282628 0 0
0.320211 0 0
0.35877 0 0
0.397696 0 0
0.436484 0 0
0.475578 0 0
0.515496 0 0
0.555962 0 0
0.596597 0 0
0.637232 0 0
0.680354 0 0
0.738308 0 0
0.774639 0 0
0.808637 0 0
0.840803 0 0
0.871183 0 0
0.899962 0 0
0.927565 0 0
0.954345 0 0
0.980667 0 0
1 0 0
1 0 0
1 0 0
0.00610361 0.0187686 0.00610361
0.0216373 0.0216373 0
0.0505684 0.0196078 0
0.0749371 0.0188602 0
0.0992752 0.018143 0
0.124361 0.0171969 0
0.15108 0.0158083 0
0.180011 0.0138399 0
0.211292 0.0112459 0
0.24509 0.00801099 0
0.281132 0.00419623 0
0.318807 0 0
0.357488 0 0
0.396536 0 0
0.435477 0 0
0.474769 0 0
0.514885 0 0
0.555566 0 0
0.596475 0 0
0.637385 0 0
0.677455 0 0
0.729229 0 0
0.774838 0 0
0.809201 0 0
0.841779 0 0
0.872587 0 0
0.901823 0 0
0.92987 0 0
0.957107 0 0
0.983886 0 0
1 0 0
1 0 0
1 0 0
0.0124208 0.0380713 0.0124208
0.0206455 0.0434882 0
0.0436103 0.0436103 0
0.0727855 0.0413672 0
0.0970626 0.0406653 0
0.122194 0.0397498 0
0.148959 0.038407 0
0.177951 0.0365148 0
0.209339 0.0340124 0
0.243259 0.0308995 0
0.279454 0.0272374 0
0.317281 0.0231937 0
0.356161 0.0189517 0
0.395422 0.0146944 0
0.434607 0.0105745 0
0.474144 0.00645457 0
0.514549 0.00222782 0
0.55555 0 0
0.59678 0 0
0.638041 0 0
0.678508 0 0
0.720455 0 0
0.775509 0 0
0.811002 0 0
0.844038 0 0
0.875303 0 0
0.904997 0 0
0.933501 0 0
0.961196 0 0
0.988434 0 0
1 0 0
1 0 0
1 0 0
0.0185092 0.0572824 0.0185092
0.0238499 0.0635538 0.0043946
0.0411231 0.0661784 0
0.0656291 0.0656291 0
0.094667 0.063508 0
0.120027 0.0626535 0
0.146914 0.0614481 0
0.176074 0.0597086 0
0.20763 0.0573892 0
0.241749 0.0544594 0
0.278157 0.0510262 0
0.316243 0.0472267 0
0.355383 0.0432593 0
0.394949 0.0393072 0
0.43444 0.0354772 0
0.474327 0.0317082 0
0.515099 0.0278477 0
0.556497 0.0239872 0
0.598154 0.0202182 0
0.639872 0.0166171 0
0.680781 0.0133974 0
0.720638 0.0106355 0
0.771282 0.00527962 0
0.814221 0.002121 0
0.847715 0.0016022 0
0.879454 0.00172427 0
0.90959 0.0024567 0
0.938567 0.00367742 0
0.966735 0.00529488 0
0.994446 0.00721752 0
1 0.00933852 0
1 0.0115663 0
1 0.0140078 0
0.0240482 0.0769055 0.0240482
0.0282139 0.0836042 0.0104829
0.0409705 0.0879377 0
0.062623 0.0890974 0
0.0883497 0.0883497 0
0.116884 0.0867018 0
0.144732 0.0853895 0
0.174105 0.0838941 0
0.205936 0.0818189 0
0.240314 0.0791791 0
0.277043 0.0760357 0
0.315435 0.0725567 0
0.354925 0.0689403 0
0.394873 0.0653697 0
0.434791 0.0619669 0
0.475105 0.0586252 0
0.516335 0.0552224 0
0.55819 0.0518044 0
0.600305 0.0485084 0
0.642466 0.0453498 0
0.683848 0.0425879 0
0.724147 0.0402838 0
0.76704 0.0375372 0
0.81825 0.0328527 0
0.852293 0.0327764 0
0.884489 0.0333715 0
0.915114 0.0345617 0
0.944549 0.0362707 0
0.97319 0.0383459 0
1 0.0407416 0
1 0.0433204 0
1 0.0459602 0
1 0.0487831 0
0.0287938 0.0973983 0.0287938
0.0324407 0.104433 0.0157626
0.0425574 0.10985 0.000701915
0.0604562 0.11281 0
0.0849622 0.113237 0
0.112398 0.112398 0
0.141985 0.110964 0
0.171832 0.109529 0
0.203998 0.10779 0
0.238743 0.105501 0
0.275853 0.102754 0
0.314672 0.0997177 0
0.35462 0.0965438 0
0.39501 0.0934157 0
0.43537 0.0904707 0
0.476158 0.0875868 0
0.51783 0.0846265 0
0.560143 0.0816815 0
0.602716 0.0788281 0
0.64535 0.0761425 0
0.68719 0.0738384 0
0.727962 0.0720073 0
0.767346 0.0707408 0
0.819013 0.0665599 0
0.857252 0.0660258 0
0.889921 0.0670787 0
0.921004 0.0687419 0
0.950881 0.0708782 0
0.979919 0.0733654 0
1 0.0761273 0
1 0.0790417 0
1 0.0820172 0
1 0.0851301 0
0.0324254 0.119265 0.0324254
0.035874 0.12665 0.0198978
0.04448 0.13286 0.0052491
0.0595254 0.137209 0
0.0814527 0.139284 0
0.108537 0.139315 0
0.138399 0.138399 0
0.170474 0.137011 0
0.201724 0.135805 0
0.236759 0.134005 0
0.274311 0.131701 0
0.313588 0.129107 0
0.353979 0.12639 0
0.394842 0.12372 0
0.43566 0.121233 0
0.476905 0.118807 0
0.519051 0.11632 0
0.561822 0.113832 0
0.604868 0.111452 0
0.647959 0.109239 0
0.690272 0.107408 0
0.731517 0.10605 0
0.771298 0.105257 0
0.817533 0.103029 0
0.861952 0.101488 0
0.895003 0.102937 0
0.926452 0.104967 0
0.95668 0.107439 0
0.986023 0.110231 0
1 0.113283 0
1 0.116457 0
1 0.119646 0
1 0.122972 0
0.0347753 0.142947 0.0347753
0.0382544 0.150729 0.0227665
0.0460212 0.15761 0.00874342
0.0591287 0.163104 0
0.0786297 0.16669 0
0.104143 0.168215 0
0.134157 0.168017 0
0.167056 0.167056 0
0.202182 0.165606 0
0.235294 0.164645 0
0.272053 0.163073 0
0.311788 0.160937 0
0.352651 0.158694 0
0.393973 0.156481 0
0.435248 0.154467 0
0.476967 0.152514 0
0.519585 0.150484 0
0.562814 0.14847 0
0.606332 0.146563 0
0.649912 0.144808 0
0.692653 0.14342 0
0.734325 0.142489 0
0.774487 0.142077 0
0.816236 0.141421 0
0.865324 0.139132 0
0.899001 0.140795 0
0.930724 0.143099 0
0.961181 0.145815 0
0.990753 0.148836 0
1 0.152071 0
1 0.155413 0
1 0.15874 0
1 0.162173 0
0.0360723 0.16875 0.0360723
0.039765 0.177005 0.0246433
0.0471199 0.184558 0.0113527
0.0589914 0.191012 0
0.0765545 0.195895 0
0.100175 0.198871 0
0.12929 0.199954 0
0.162524 0.199557 0
0.19852 0.19852 0
0.236927 0.196963 0
0.272297 0.196201 0
0.309255 0.19527 0
0.350576 0.193484 0
0.39237 0.191745 0
0.434119 0.190188 0
0.47631 0.188708 0
0.519371 0.187152 0
0.563058 0.185565 0
0.606973 0.18407 0
0.650919 0.182681 0
0.694011 0.181643 0
0.735988 0.181018 0
0.77644 0.180896 0
0.81593 0.181125 0
0.865293 0.17908 0
0.901549 0.180377 0
0.93344 0.182864 0
0.964065 0.185733 0
0.993759 0.188876 0
1 0.192218 0
1 0.195621 0
1 0.199008 0
1 0.202457 0
0.0365301 0.196963 0.0365301
0.040528 0.205707 0.0256809
0.047715 0.21387 0.0131075
0.0587625 0.221164 0
0.0748913 0.227131 0
0.0967727 0.231403 0
0.124483 0.233829 0
0.15729 0.234516 0
0.193698 0.233982 0
0.232837 0.232837 0
0.27425 0.231266 0
0.311772 0.230732 0
0.348272 0.230655 0
0.389975 0.229511 0
0.432166 0.228382 0
0.474739 0.227283 0
0.518166 0.226093 0
0.562173 0.224842 0
0.606409 0.223636 0
0.650629 0.222538 0
0.693965 0.221744 0
0.736171 0.221347 0
0.776822 0.221424 0
0.816068 0.221927 0
0.862898 0.220691 0
0.902281 0.221393 0
0.934264 0.223957 0
0.96495 0.226886 0
0.994675 0.230076 0
1 0.233417 0
1 0.23682 0
1 0.240146 0
1 0.243534 0
0.0365148 0.227512 0.0365148
0.0408484 0.236744 0.0262303
0.0480049 0.245487 0.0143435
0.0585489 0.253513 0.00144961
0.07364 0.260426 0
0.0940871 0.265843 0
0.120317 0.26952 0
0.152132 0.271443 0
0.188464 0.271824 0
0.228061 0.271153 0
0.270008 0.270008 0
0.313573 0.268559 0
0.352941 0.268223 0
0.388952 0.268864 0
0.429343 0.268574 0
0.472221 0.267781 0
0.515923 0.266865 0
0.560174 0.265843 0
0.604623 0.264866 0
0.649027 0.263966 0
0.692531 0.263325 0
0.734874 0.263066 0
0.775631 0.263249 0
0.814954 0.263844 0
0.85919 0.26331 0
0.901198 0.263401 0
0.933165 0.265965 0
0.963836 0.268879 0
0.993515 0.272007 0
1 0.275273 0
1 0.278553 0
1 0.281758 0
1 0.284977 0
0.0366827 0.260166 0.0366827
0.0413672 0.269886 0.0269322
0.0486305 0.279194 0.0157168
0.0588693 0.287907 0.0034638
0.0732128 0.295659 0
0.0925307 0.302083 0
0.117449 0.306889 0
0.148043 0.309972 0
0.183627 0.311391 0
0.223255 0.311391 0
0.265553 0.310582 0
0.309438 0.309438 0
0.354269 0.308156 0
0.394888 0.307973 0
0.43035 0.309163 0
0.469123 0.309651 0
0.512978 0.308904 0
0.557382 0.308049 0
0.601953 0.307195 0
0.646464 0.306371 0
0.690044 0.305821 0
0.732418 0.305592 0
0.773205 0.305806 0
0.812512 0.306386 0
0.854856 0.306264 0
0.898619 0.305867 0
0.93051 0.308324 0
0.961044 0.311116 0
0.990585 0.314107 0
1 0.31722 0
1 0.320424 0
1 0.323644 0
1 0.32697 0
0.0376593 0.294713 0.037644
0.0427405 0.304921 0.0284581
0.0501564 0.314778 0.0178683
0.0602274 0.324102 0.00624094
0.0740063 0.332555 0
0.0923781 0.339803 0
0.11606 0.345541 0
0.145373 0.349584 0
0.179889 0.351965 0
0.218921 0.352789 0
0.26128 0.352422 0
0.305394 0.351492 0
0.350408 0.350408 0
0.395605 0.349325 0
0.436759 0.349279 0
0.472526 0.350622 0
0.51043 0.351461 0
0.554116 0.350866 0
0.598718 0.350057 0
0.643229 0.349248 0
0.686793 0.348669 0
0.729137 0.348394 0
0.769833 0.348531 0
0.809049 0.349004 0
0.850248 0.349004 0
0.894652 0.348257 0
0.926619 0.350545 0
0.957107 0.353292 0
0.986694 0.356313 0
1 0.359548 0
1 0.36289 0
1 0.366201 0
1 0.369619 0
0.0400397 0.330846 0.0400397
0.0454719 0.341482 0.0313115
0.0530098 0.351766 0.0212558
0.0629282 0.361578 0.0101472
0.0762188 0.370596 0
0.0937667 0.378485 0
0.116335 0.384939 0
0.144381 0.389792 0
0.177676 0.392996 0
0.215747 0.394598 0
0.257603 0.394842 0
0.301762 0.394156 0
0.346883 0.393179 0
0.392172 0.392157 0
0.436912 0.391302 0
0.478965 0.391104 0
0.515694 0.392233 0
0.552972 0.393194 0
0.595254 0.392889 0
0.639689 0.392004 0
0.683131 0.391318 0
0.725338 0.390906 0
0.765881 0.39089 0
0.80499 0.391257 0
0.845884 0.391302 0
0.890471 0.390616 0
0.922759 0.392981 0
0.953384 0.395834 0
0.983063 0.398978 0
1 0.402289 0
1 0.405692 0
1 0.409064 0
1 0.412528 0
0.0441596 0.368048 0.0441596
0.049836 0.379004 0.0357977
0.0574502 0.389639 0.026154
0.067216 0.399802 0.0154879
0.0800641 0.409232 0.00396735
0.0968795 0.417624 0
0.118441 0.424643 0
0.145281 0.430121 0
0.177295 0.433997 0
0.214206 0.436255 0
0.255192 0.437095 0
0.298909 0.436835 0
0.344015 0.435904 0
0.389273 0.434882 0
0.433982 0.433982 0
0.478691 0.433036 0
0.521843 0.432441 0
0.559228 0.433219 0
0.595941 0.434134 0
0.63624 0.434089 0
0.679515 0.433356 0
0.721736 0.432975 0
0.762387 0.433066 0
0.801633 0.433555 0
0.843046 0.433616 0
0.887358 0.433112 0
0.919738 0.435554 0
0.950408 0.438483 0
0.980133 0.441657 0
1 0.445014 0
1 0.448432 0
1 0.451804 0
1 0.455238 0
0.0492103 0.40621 0.0492103
0.0550546 0.417395 0.0411078
0.0626841 0.428244 0.0317845
0.0722515 0.438682 0.0214237
0.0846876 0.448402 0.0101778
0.100801 0.45713 0
0.121431 0.464576 0
0.147112 0.470527 0
0.177874 0.474907 0
0.213519 0.477699 0
0.253391 0.479026 0
0.2963 0.479194 0
0.340963 0.478477 0
0.386114 0.477378 0
0.430701 0.476341 0
0.475242 0.475242 0
0.520256 0.474022 0
0.564004 0.473152 0
0.601968 0.473808 0
0.638514 0.474891 0
0.676951 0.475517 0
0.718486 0.475441 0
0.759228 0.475624 0
0.798535 0.476188 0
0.841184 0.47602 0
0.884642 0.475761 0
0.916823 0.478294 0
0.947509 0.481224 0
0.977249 0.484413 0
1 0.487724 0
1 0.491112 0
1 0.494423 0
1 0.497795 0
0.0544594 0.445167 0.0544594
0.0603952 0.456489 0.0465248
0.0679789 0.467475 0.0374151
0.0773327 0.478065 0.0272831
0.0893263 0.487968 0.0162051
0.104784 0.496925 0.00434882
0.124514 0.504631 0
0.149111 0.510903 0
0.178622 0.515648 0
0.21297 0.518822 0
0.251591 0.520531 0
0.2934 0.521019 0
0.337285 0.520577 0
0.382101 0.519585 0
0.426673 0.518547 0
0.471321 0.51754 0
0.516457 0.516457 0
0.561669 0.515358 0
0.605707 0.514626 0
0.644114 0.515328 0
0.68011 0.51667 0
0.716854 0.517861 0
0.75581 0.518532 0
0.795148 0.519127 0
0.839796 0.518471 0
0.881498 0.518624 0
0.913466 0.521172 0
0.944106 0.524056 0
0.973785 0.527169 0
1 0.530419 0
1 0.533715 0
1 0.536919 0
1 0.540169 0
0.0599985 0.484459 0.0599985
0.0659342 0.495842 0.0521401
0.0733959 0.506874 0.0431373
0.082475 0.51751 0.0331121
0.0940108 0.527474 0.0221256
0.108812 0.536538 0.0102846
0.127687 0.544381 0
0.151217 0.550835 0
0.179507 0.55581 0
0.212573 0.559243 0
0.250004 0.561349 0
0.290822 0.562325 0
0.334005 0.562417 0
0.378439 0.561929 0
0.42298 0.561151 0
0.46772 0.56025 0
0.512932 0.559228 0
0.558206 0.558206 0
0.603143 0.55729 0
0.64686 0.55671 0
0.685115 0.557504 0
0.720287 0.559091 0
0.755245 0.560754 0
0.792569 0.561807 0
0.839048 0.560647 0
0.877958 0.561379 0
0.90985 0.563851 0
0.940398 0.566644 0
0.969955 0.56965 0
0.998856 0.572763 0
1 0.575906 0
1 0.578958 0
1 0.582025 0
0.0658885 0.523674 0.0658885
0.0717479 0.534997 0.0579995
0.078996 0.545983 0.0489967
0.0877546 0.556558 0.0390021
0.0988022 0.566491 0.0280156
0.112932 0.57554 0.016083
0.130999 0.583459 0.00340276
0.153674 0.590158 0
0.181064 0.595499 0
0.213199 0.599451 0
0.249668 0.60209 0
0.28957 0.603601 0
0.331945 0.604212 0
0.375753 0.604196 0
0.419928 0.6038 0
0.464637 0.603021 0
0.50988 0.602029 0
0.555154 0.601007 0
0.600092 0.600092 0
0.644251 0.599359 0
0.687007 0.598978 0
0.724559 0.599908 0
0.758556 0.601724 0
0.795041 0.602899 0
0.838712 0.602289 0
0.874403 0.603677 0
0.906157 0.606012 0
0.936553 0.608652 0
0.965942 0.61149 0
0.994659 0.61442 0
1 0.617365 0
1 0.620203 0
1 0.623041 0
0.0721752 0.562325 0.0721752
0.0778668 0.57351 0.0641794
0.0848554 0.58436 0.0551003
0.0933242 0.594903 0.0451209
0.104067 0.604913 0.0342565
0.117845 0.614176 0.0225376
0.135454 0.622415 0.00999466
0.157504 0.629435 0
0.184131 0.635172 0
0.215381 0.639536 0
0.250904 0.642618 0
0.289845 0.644587 0
0.331319 0.64564 0
0.37435 0.646036 0
0.417945 0.646006 0
0.462303 0.645487 0
0.507469 0.644511 0
0.552712 0.643458 0
0.597574 0.642466 0
0.641672 0.641657 0
0.68455 0.641123 0
0.725734 0.641016 0
0.762173 0.642069 0
0.798825 0.64303 0
0.837568 0.643458 0
0.871015 0.645182 0
0.902571 0.647318 0
0.932769 0.64976 0
0.961929 0.652369 0
0.990417 0.65507 0
1 0.657755 0
1 0.660334 0
1 0.662882 0
0.0791028 0.600153 0.0791028
0.0848096 0.611383 0.0711986
0.0918441 0.622385 0.0623026
0.100252 0.633082 0.0525521
0.110826 0.643275 0.0419165
0.124315 0.652735 0.0303807
0.141482 0.661204 0.0179751
0.162936 0.668482 0.00485237
0.18883 0.67451 0
0.219242 0.679194 0
0.253819 0.682628 0
0.291798 0.684962 0
0.332311 0.686397 0
0.374456 0.687129 0
0.417288 0.687419 0
0.461067 0.687175 0
0.505913 0.686351 0
0.551049 0.685206 0
0.595804 0.684108 0
0.63975 0.683162 0
0.68249 0.68249 0
0.723583 0.682185 0
0.762676 0.682353 0
0.799451 0.683055 0
0.834852 0.684047 0
0.867979 0.685557 0
0.89929 0.687465 0
0.929229 0.689632 0
0.958114 0.691981 0
0.986313 0.694392 0
1 0.696773 0
1 0.699001 0
1 0.701198 0
0.0876783 0.637797 0.0876783
0.0935378 0.649104 0.0799573
0.100633 0.660182 0.0712749
0.10898 0.670985 0.0617075
0.119356 0.6813 0.0512245
0.132525 0.690883 0.0398413
0.149248 0.699504 0.0275273
0.170138 0.706966 0.0144045
0.195331 0.713207 0.000701915
0.224903 0.718135 0
0.258579 0.721828 0
0.295583 0.724437 0
0.335088 0.726162 0
0.376287 0.727184 0
0.418265 0.727733 0
0.461295 0.727687 0
0.505577 0.727031 0
0.550362 0.725917 0
0.594949 0.724666 0
0.638727 0.723537 0
0.681254 0.722652 0
0.722133 0.722133 0
0.761013 0.722072 0
0.797833 0.722438 0
0.83267 0.723247 0
0.865507 0.724483 0
0.896529 0.726085 0
0.926131 0.727947 0
0.954696 0.729946 0
0.982528 0.732006 0
1 0.73402 0
1 0.735897 0
1 0.737728 0
0.0981308 0.675074 0.0981308
0.104128 0.686397 0.0905776
0.111254 0.69749 0.082063
0.119539 0.708324 0.0726482
0.129732 0.718669 0.0623331
0.142596 0.728328 0.0510414
0.158877 0.737011 0.0387884
0.179202 0.744595 0.0256352
0.203708 0.750957 0.0118105
0.232486 0.756039 0
0.265248 0.759915 0
0.301274 0.762737 0
0.339788 0.764645 0
0.37998 0.765881 0
0.420996 0.766629 0
0.463172 0.766751 0
0.506706 0.766217 0
0.550942 0.765179 0
0.595178 0.763821 0
0.638712 0.762463 0
0.680995 0.761318 0
0.721599 0.76054 0
0.760189 0.760189 0
0.796704 0.76025 0
0.83122 0.760739 0
0.863706 0.761624 0
0.894377 0.762875 0
0.923613 0.76437 0
0.951812 0.766003 0
0.979278 0.767697 0
1 0.769345 0
1 0.770855 0
1 0.772335 0
0.110307 0.711803 0.110307
0.116396 0.723079 0.102861
0.123537 0.734127 0.0944686
0.131731 0.74493 0.0851759
0.141741 0.755245 0.0749676
0.154299 0.764889 0.0637675
0.170153 0.773587 0.0515297
0.189929 0.781186 0.0383459
0.213748 0.787594 0.0243839
0.241749 0.792767 0.00982681
0.273625 0.796735 0
0.30869 0.799664 0
0.346181 0.801709 0
0.385336 0.803082 0
0.425345 0.803937 0
0.46656 0.804181 0
0.509239 0.803723 0
0.552728 0.802716 0
0.596384 0.801328 0
0.639551 0.799756 0
0.681529 0.798306 0
0.721798 0.797192 0
0.760037 0.79649 0
0.796201 0.796201 0
0.830335 0.796323 0
0.86247 0.796841 0
0.89276 0.797726 0
0.921645 0.798856 0
0.949477 0.800137 0
0.976593 0.801465 0
1 0.802762 0
1 0.803906 0
1 0.805035 0
0.12398 0.747829 0.123964
0.130129 0.758999 0.116594
0.13724 0.76994 0.108263
0.145327 0.780636 0.0990616
0.155138 0.790875 0.0889143
0.167376 0.800427 0.0777447
0.182818 0.809049 0.0655222
0.202045 0.816602 0.0522621
0.225208 0.822995 0.0381476
0.25243 0.828153 0.0233463
0.283436 0.832135 0.00819409
0.31754 0.835096 0
0.354025 0.837186 0
0.392126 0.838605 0
0.431067 0.839536 0
0.471244 0.839811 0
0.512963 0.839368 0
0.555581 0.838331 0
0.598489 0.836896 0
0.641047 0.835187 0
0.682628 0.833432 0
0.72253 0.831937 0
0.760403 0.830869 0
0.796201 0.830213 0
0.829984 0.829984 0
0.861753 0.830137 0
0.891691 0.830655 0
0.920226 0.831434 0
0.947692 0.832364 0
0.974456 0.833341 0
1 0.834272 0
1 0.835081 0
1 0.835843 0
0.138903 0.782986 0.138903
0.145083 0.793988 0.131548
0.152163 0.804761 0.123247
0.160113 0.81529 0.114076
0.169696 0.82536 0.103944
0.181613 0.83476 0.0927749
0.196612 0.843259 0.0805066
0.215305 0.85069 0.067155
0.237827 0.856977 0.0528725
0.264286 0.862043 0.0378271
0.294438 0.865965 0.0222934
0.327596 0.868879 0.00666819
0.363043 0.870939 0
0.400092 0.872343 0
0.437934 0.873228 0
0.477028 0.873472 0
0.517693 0.872969 0
0.559335 0.871885 0
0.601389 0.870344 0
0.643229 0.868544 0
0.68423 0.866606 0
0.723766 0.86479 0
0.761273 0.863355 0
0.796719 0.862333 0
0.830137 0.861738 0
0.861555 0.861555 0
0.891142 0.861723 0
0.91931 0.862135 0
0.946441 0.862715 0
0.972839 0.86334 0
0.998917 0.86392 0
1 0.864378 0
1 0.864805 0
0.154757 0.817166 0.154742
0.160937 0.827939 0.147387
0.167926 0.838483 0.139071
0.175723 0.848783 0.12987
0.185061 0.858625 0.119707
0.196643 0.867811 0.108492
0.2112 0.876097 0.0961318
0.229343 0.883345 0.0826734
0.251209 0.889448 0.0682078
0.276921 0.894362 0.0528725
0.306218 0.898131 0.0369573
0.33843 0.900923 0.0208438
0.372869 0.902861 0.00489815
0.40882 0.904143 0
0.445563 0.904936 0
0.483574 0.905104 0
0.523186 0.90454 0
0.563836 0.90338 0
0.604974 0.901778 0
0.646006 0.89987 0
0.686336 0.89781 0
0.725368 0.895796 0
0.762524 0.894011 0
0.797604 0.892638 0
0.830671 0.891691 0
0.861738 0.891157 0
0.890974 0.890959 0
0.918791 0.891035 0
0.945571 0.891264 0
0.971618 0.891539 0
0.997345 0.891783 0
1 0.89189 0
1 0.891981 0
0.170947 0.850324 0.170947
0.177081 0.860807 0.163516
0.183978 0.871061 0.155138
0.191592 0.881071 0.145876
0.200656 0.890623 0.135637
0.211872 0.899535 0.124331
0.225986 0.907546 0.111849
0.24358 0.914519 0.0982223
0.26479 0.920378 0.0835279
