luts/05_Vlog LUTs_Clean Tones .cube
TITLE "Generated by Resolve"
LUT_3D_SIZE 9
0 0 0
0.100679 0 0
0.212894 0 0
0.35877 0 0
0.515496 0 0
0.680354 0 0
0.840803 0 0
0.954345 0 0
1 0 0
0.0240482 0.0769055 0.0240482
0.0883497 0.0883497 0
0.205936 0.0818189 0
0.354925 0.0689403 0
0.516335 0.0552224 0
0.683848 0.0425879 0
0.852293 0.0327764 0
0.97319 0.0383459 0
1 0.0487831 0
0.0360723 0.16875 0.0360723
0.0765545 0.195895 0
0.19852 0.19852 0
0.350576 0.193484 0
0.519371 0.187152 0
0.694011 0.181643 0
0.865293 0.17908 0
0.993759 0.188876 0
1 0.202457 0
0.0376593 0.294713 0.037644
0.0740063 0.332555 0
0.179889 0.351965 0
0.350408 0.350408 0
0.51043 0.351461 0
0.686793 0.348669 0
0.850248 0.349004 0
0.986694 0.356313 0
1 0.369619 0
0.0544594 0.445167 0.0544594
0.0893263 0.487968 0.0162051
0.178622 0.515648 0
0.337285 0.520577 0
0.516457 0.516457 0
0.68011 0.51667 0
0.839796 0.518471 0
0.973785 0.527169 0
1 0.540169 0
0.0791028 0.600153 0.0791028
0.110826 0.643275 0.0419165
0.18883 0.67451 0
0.332311 0.686397 0
0.505913 0.686351 0
0.68249 0.68249 0
0.834852 0.684047 0
0.958114 0.691981 0
1 0.701198 0
0.12398 0.747829 0.123964
0.155138 0.790875 0.0889143
0.225208 0.822995 0.0381476
0.354025 0.837186 0
0.512963 0.839368 0
0.682628 0.833432 0
0.829984 0.829984 0
0.947692 0.832364 0
1 0.835843 0
0.186969 0.882429 0.186969
0.215946 0.921324 0.151202
0.278019 0.949737 0.0983444
0.392874 0.961456 0.0317693
0.534981 0.962264 0
0.690929 0.954818 0
0.831449 0.946777 0
0.94374 0.94374 0
1 0.942351 0
0.240238 0.999557 0.240223
0.266224 1 0.202045
0.321569 1 0.146731
0.425391 1 0.0755627
0.553429 1 0.00392157
0.695659 1 0
0.827115 1 0
0.936126 1 0
1 1 0
0.0028687 0.0028687 0.0377966
0.0977493 0 0.0977493
0.213123 0 0.0683757
0.359091 0 0.0524758
0.516045 0 0.0343023
0.677943 0 0.0160678
0.840558 0 0.0210575
0.954818 0 0.0199893
1 0 0.0238651
0.0830091 0.0638895 0.0638895
0.0873121 0.0873121 0.0873121
0.20705 0.0829328 0.0623026
0.356664 0.0706798 0.0500496
0.518791 0.0576791 0.0370489
0.687037 0.0457923 0.0251621
0.842222 0.0399634 0.0222171
0.976181 0.0413367 0.0413367
1 0.052369 0.052369
0.106081 0.150759 0.114931
0.1066 0.186419 0.106584
0.200259 0.200259 0.0703136
0.354803 0.197711 0.048188
0.524315 0.192081 0.0425574
0.699458 0.187106 0.037583
0.858518 0.187945 0.0384222
0.998016 0.193133 0.0631723
1 0.206699 0.0767529
0.107988 0.278584 0.132021
0.117968 0.322164 0.117968
0.189197 0.353094 0.0698711
0.354574 0.354574 0.0501106
0.515633 0.357641 0.033875
0.692714 0.354589 0.0308232
0.851972 0.355642 0.0318761
0.989944 0.360983 0.0531319
1 0.373877 0.0694133
0.124224 0.430488 0.155962
0.139239 0.477073 0.139239
0.200259 0.512627 0.0932631
0.342412 0.523751 0.0428168
0.520623 0.520623 0.0323796
0.679377 0.524269 0.0172274
0.838514 0.526207 0.0184329
0.974136 0.533639 0.0309911
1 0.544076 0.055848
0.147295 0.585428 0.183566
0.163485 0.631662 0.163485
0.219623 0.668772 0.119524
0.34403 0.687007 0.0608072
0.510201 0.690181 0.0233768
0.68629 0.68629 0.0175784
0.829267 0.691127 0.0093843
0.95816 0.696696 0.0174258
1 0.703593 0.0348974
0.191897 0.733043 0.231327
0.209583 0.77847 0.209583
0.261555 0.814847 0.165652
0.372213 0.83418 0.10312
0.519112 0.840238 0.0460822
0.68481 0.835584 0.0162356
0.831586 0.831571 0.0120699
0.948714 0.833371 0.0138705
1 0.836301 0.0168002
0.253437 0.866438 0.295735
0.270726 0.906935 0.270726
0.317372 0.938476 0.22417
0.415732 0.954345 0.157137
0.54432 0.95906 0.087953
0.692775 0.954025 0.0337987
0.831159 0.946487 0.0116426
0.943038 0.943038 0.00819409
1 0.941314 0.00648508
0.304189 0.981582 0.349355
0.320195 1 0.320195
0.362463 1 0.270741
0.451804 1 0.200595
0.566629 1 0.124727
0.699519 1 0.0565652
0.826505 1 0.012604
0.934661 1 0
1 1 0
0.00450141 0.00450141 0.101335
0.0808118 0 0.189731
0.215015 0 0.215015
0.35642 0 0.170733
0.51368 0 0.15285
0.67602 0 0.135058
0.83859 0 0.149035
0.953582 0 0.148699
1 0 0.153323
0.0798352 0.0709087 0.0889448
0.0893416 0.0893416 0.151247
0.207767 0.077821 0.207767
0.355596 0.0696117 0.169909
0.518471 0.0573434 0.157641
0.687465 0.0462043 0.146502
0.841398 0.0419471 0.142245
0.977417 0.0425727 0.172534
1 0.0541085 0.18407
0.155505 0.144213 0.144213
0.166186 0.174014 0.174014
0.200305 0.200305 0.200305
0.356268 0.199176 0.170581
0.526406 0.194186 0.165591
0.702022 0.189654 0.161059
0.861357 0.190784 0.162188
0.99646 0.198718 0.174121
1 0.208942 0.208942
0.179583 0.265248 0.198001
0.189334 0.305531 0.225147
0.220249 0.344625 0.220249
0.356817 0.356817 0.182315
0.518578 0.360586 0.157763
0.695537 0.357412 0.154574
0.854627 0.358297 0.155474
0.988739 0.3664 0.163561
1 0.376165 0.201663
0.200458 0.415137 0.245136
0.209049 0.46041 0.260044
0.242878 0.500893 0.242878
0.34995 0.523095 0.186069
0.522866 0.522866 0.164599
0.68159 0.527489 0.140627
0.841413 0.529107 0.142245
0.97554 0.537224 0.150362
1 0.546273 0.182971
0.222858 0.568826 0.285512
0.231296 0.61503 0.290013
0.267552 0.655909 0.267552
0.363745 0.682078 0.212192
0.513359 0.691386 0.159945
0.688014 0.688014 0.149264
0.82678 0.694835 0.127993
0.95697 0.699763 0.131807
1 0.70544 0.145159
0.266468 0.715846 0.341711
0.275639 0.761578 0.338872
0.311574 0.800595 0.311574
0.399878 0.82533 0.255238
0.527214 0.837232 0.190173
0.685054 0.835386 0.147738
0.831006 0.831006 0.141451
0.943954 0.835004 0.125963
1 0.835889 0.130541
0.32575 0.847745 0.411307
0.334874 0.88835 0.401282
0.367651 0.921889 0.367636
0.447623 0.941741 0.307179
0.557885 0.951415 0.234974
0.69424 0.950225 0.170703
0.828763 0.94406 0.13933
0.94023 0.94023 0.135348
1 0.938216 0.133333
0.373266 0.9608 0.468101
0.38201 0.994202 0.451286
0.412589 1 0.412589
0.486641 1 0.348882
0.585168 1 0.27277
0.704875 1 0.198001
0.82472 1 0.1449
0.931212 1 0.126329
1 1 0.122972
0.00282292 0.00282292 0.206119
0.0668498 0.000259403 0.298528
0.19585 0 0.361151
0.364584 0 0.364584
0.510582 0 0.322255
0.670558 0 0.301381
0.8336 0 0.318563
0.949325 0 0.318959
1 0 0.324331
0.0690166 0.0735332 0.181033
0.0882734 0.0882734 0.256626
0.18883 0.0798962 0.342306
0.363272 0.0588388 0.363272
0.514687 0.0535744 0.325658
0.684428 0.043183 0.315267
0.839139 0.0396735 0.311772
0.975601 0.0407568 0.345235
1 0.0527504 0.357229
0.15761 0.149065 0.202823
0.162524 0.18056 0.243153
0.202274 0.202274 0.308721
0.365698 0.191196 0.365698
0.524971 0.192752 0.335943
0.700984 0.188617 0.331823
0.860548 0.189975 0.333181
0.995071 0.198505 0.341695
1 0.207858 0.382361
0.220447 0.26154 0.26154
0.238727 0.298955 0.298955
0.279423 0.331823 0.331823
0.355856 0.355856 0.355856
0.517784 0.359808 0.328771
0.69456 0.356435 0.325399
0.853666 0.357336 0.326284
0.987915 0.365591 0.334539
1 0.377035 0.350317
0.262882 0.404013 0.332769
0.278538 0.444984 0.368475
0.311345 0.481346 0.391714
0.377874 0.511513 0.377874
0.521904 0.521904 0.338125
0.680827 0.526726 0.311666
0.840558 0.528252 0.313191
0.974502 0.536187 0.321126
1 0.546578 0.331518
0.293339 0.553109 0.393652
0.304295 0.596429 0.420478
0.334127 0.635996 0.429679
0.403174 0.667155 0.403174
0.517479 0.687312 0.344335
0.686351 0.686351 0.322118
0.824384 0.693187 0.297017
0.954528 0.697322 0.301152
1 0.702983 0.306813
0.339544 0.697688 0.46482
0.347585 0.74136 0.481758
0.375311 0.779889 0.478569
0.443244 0.807889 0.443244
0.541863 0.827222 0.381064
0.682765 0.831128 0.3234
0.826993 0.826993 0.31194
0.937789 0.831968 0.285283
1 0.832105 0.284184
0.397971 0.826978 0.544503
0.404227 0.865934 0.550988
0.428122 0.899443 0.535912
0.491829 0.921675 0.491829
0.579614 0.936629 0.425711
0.696391 0.941283 0.353414
0.823178 0.938033 0.30956
0.934066 0.934066 0.3037
1 0.933715 0.281315
0.442878 0.937377 0.60827
0.448371 0.969558 0.605447
0.470832 0.996521 0.581781
0.531167 1 0.531167
0.611566 1 0.46186
0.713268 1 0.384405
0.821439 1 0.321614
0.924498 1 0.294255
1 1 0.290806
0.000396735 0.000411994 0.319417
0.057969 0 0.412268
0.174029 0 0.490257
0.346929 0 0.525567
0.522286 0 0.522301
0.67454 0 0.492302
0.828199 0 0.496925
0.944656 0 0.498054
1 0 0.504173
0.0614939 0.0736706 0.289448
0.0866865 0.0867018 0.370764
0.175692 0.0821393 0.461189
0.345632 0.0596017 0.520195
0.529274 0.0410773 0.529274
0.683268 0.0383307 0.499901
0.836133 0.0366674 0.494102
0.973281 0.0384375 0.52668
1 0.0508431 0.539086
0.146258 0.155383 0.289815
0.153948 0.185428 0.346746
0.203815 0.203815 0.425986
0.349523 0.196033 0.512261
0.541054 0.182803 0.541054
0.699062 0.186694 0.515236
0.858778 0.18822 0.516747
0.993301 0.196735 0.525261
1 0.206012 0.564294
0.228992 0.267399 0.328145
0.24329 0.306249 0.369268
0.277745 0.340337 0.412177
0.359136 0.359136 0.474845
0.534142 0.350393 0.534142
0.6925 0.354391 0.508675
0.851774 0.355444 0.509743
0.98616 0.363821 0.51812
1 0.375586 0.529885
0.299596 0.40235 0.40235
0.319615 0.441474 0.441474
0.360311 0.474342 0.474342
0.436454 0.4981 0.4981
0.520272 0.520272 0.520272
0.679072 0.524956 0.495232
0.838682 0.526375 0.496651
0.972396 0.534081 0.504341
1 0.544152 0.514412
0.348547 0.544289 0.479011
0.366033 0.584634 0.516701
0.402975 0.619913 0.546715
0.471077 0.647028 0.560708
0.544396 0.674723 0.544396
0.683879 0.683879 0.50341
0.821332 0.690135 0.479301
0.950896 0.69369 0.482856
1 0.698756 0.487922
0.404303 0.683986 0.566979
0.416892 0.724468 0.597971
0.446632 0.759625 0.616632
0.507652 0.785824 0.612467
0.578668 0.809674 0.578668
0.683894 0.824079 0.514046
0.822095 0.822095 0.490837
0.932021 0.826566 0.463966
1 0.825986 0.463386
0.465873 0.808988 0.660121
0.474525 0.844999 0.680583
0.497002 0.876143 0.684993
0.552285 0.897673 0.664805
0.619608 0.915801 0.619608
0.707713 0.927947 0.55021
0.817716 0.930617 0.491325
0.927138 0.927138 0.480537
1 0.927367 0.449485
0.510567 0.915679 0.73434
0.517205 0.945403 0.744518
0.536889 0.970825 0.737469
0.588556 0.987549 0.705608
0.652964 1 0.652964
0.732555 1 0.581949
0.821576 1 0.511559
0.917342 1 0.472175
1 1 0.467247
0 0 0.429618
0.051957 0 0.522286
0.157687 0 0.606531
0.324041 0 0.661494
0.506935 0 0.684138
0.680262 0 0.680262
0.82327 0 0.672465
0.940475 0 0.674342
1 0 0.681224
0.0564431 0.0733043 0.397513
0.0855421 0.0855421 0.482033
0.168826 0.0835126 0.573632
0.326467 0.0640421 0.648646
0.514778 0.0419013 0.69012
0.69688 0.0282292 0.69688
0.839918 0.0309758 0.686
0.971359 0.0365148 0.705226
1 0.0492714 0.717968
0.136248 0.160678 0.386633
0.149737 0.188876 0.455161
0.205859 0.205875 0.540444
0.340032 0.201923 0.631479
0.526787 0.186938 0.698039
0.716152 0.177447 0.716152
0.858808 0.185702 0.702892
0.991501 0.194919 0.708782
1 0.204318 0.743069
0.22295 0.276753 0.405219
0.235172 0.315801 0.456184
0.27187 0.347906 0.515175
0.362646 0.362661 0.590784
0.519112 0.356374 0.678553
0.709239 0.345037 0.709239
0.849943 0.353613 0.693217
0.984421 0.362081 0.701686
1 0.373831 0.713436
0.312047 0.408515 0.465278
0.329 0.448173 0.505623
0.365286 0.482048 0.541756
0.435065 0.50692 0.575463
0.523796 0.523796 0.63621
0.696223 0.51577 0.696223
0.836728 0.524437 0.680018
0.970184 0.531868 0.687465
1 0.541588 0.697169
0.382712 0.543832 0.543832
0.402991 0.583215 0.583215
0.444327 0.616709 0.616709
0.520256 0.640253 0.640253
0.602731 0.661067 0.661067
0.681514 0.681514 0.681514
0.818097 0.6869 0.661387
0.947082 0.689876 0.664347
1 0.694347 0.668833
0.453529 0.677394 0.64303
0.471656 0.715221 0.679606
0.507454 0.746914 0.708629
0.575082 0.768322 0.724773
0.644724 0.787717 0.73106
0.708644 0.809323 0.708644
0.817258 0.817258 0.666453
0.926268 0.820813 0.643534
1 0.819699 0.64242
0.523186 0.796567 0.748852
0.537316 0.829313 0.777462
0.56405 0.857008 0.795636
0.62118 0.874998 0.797131
0.681559 0.891279 0.783062
0.742153 0.908019 0.742153
0.816678 0.92137 0.676493
0.920348 0.920348 0.6542
1 0.920134 0.626322
0.57142 0.898314 0.834913
0.58265 0.924956 0.854368
0.604883 0.94757 0.861433
0.655344 0.962158 0.849271
0.711635 0.975433 0.820844
0.771145 0.989059 0.771145
0.831952 1 0.704112
0.91136 1 0.650095
1 1 0.640665
0 0 0.513771
0.0494545 0 0.605051
0.147784 0 0.691798
0.305882 0 0.75787
0.487144 0 0.8
0.669078 0 0.817609
0.820722 0 0.820722
0.93872 0 0.823392
1 0 0.831022
0.0547341 0.0747997 0.479728
0.0867628 0.0867628 0.566003
0.166964 0.0865949 0.658167
0.314885 0.0703593 0.740032
0.497124 0.0490578 0.801617
0.687068 0.0314641 0.834592
0.847135 0.0276799 0.847135
0.971725 0.0368963 0.856413
1 0.0499275 0.869444
0.130999 0.167041 0.46273
0.150042 0.193881 0.538918
0.210315 0.210315 0.627649
0.338659 0.208789 0.719768
0.512764 0.196536 0.801984
0.706294 0.18291 0.851972
0.870939 0.18143 0.870939
0.994095 0.193591 0.873991
1 0.204807 0.894362
0.216327 0.28806 0.467369
0.230137 0.326085 0.528328
0.272053 0.355749 0.598321
0.368307 0.368322 0.679194
0.512413 0.365042 0.770901
0.697307 0.351507 0.838911
0.8636 0.348592 0.8636
0.985321 0.361913 0.86215
1 0.374014 0.871962
0.311833 0.420249 0.510109
0.325475 0.460044 0.555535
0.359442 0.493889 0.601312
0.431388 0.51667 0.65098
0.529473 0.529473 0.724636
0.683391 0.523949 0.813169
0.850355 0.519097 0.850355
0.969848 0.531533 0.845457
1 0.540841 0.854765
0.398352 0.551934 0.57911
0.417624 0.591562 0.618662
0.455955 0.625635 0.653422
0.52723 0.649958 0.680003
0.602838 0.671382 0.710262
0.686046 0.686046 0.768795
0.830762 0.679973 0.830762
0.945022 0.687816 0.82063
1 0.691722 0.824537
0.485405 0.679835 0.679835
0.507164 0.716091 0.716091
0.545266 0.746319 0.746319
0.616785 0.765454 0.765454
0.693874 0.780896 0.780896
0.766659 0.795331 0.795331
0.814404 0.814404 0.814404
0.922301 0.816846 0.797909
1 0.815229 0.796277
0.566629 0.792508 0.793179
0.586389 0.822583 0.823697
0.618418 0.847364 0.847211
0.681483 0.861753 0.858946
0.748455 0.873243 0.865187
0.807813 0.885664 0.864469
0.84126 0.906447 0.84126
0.915633 0.915633 0.800305
1 0.914702 0.779232
0.622095 0.888395 0.889311
0.639475 0.912047 0.912947
0.667338 0.931579 0.928344
0.722316 0.942946 0.930205
0.780804 0.953017 0.923796
0.833753 0.965194 0.905608
0.867506 0.984741 0.867506
0.911849 1 0.807141
1 1 0.786648
6.10361e-05 6.10361e-05 0.569665
0.0504616 0.00204471 0.657969
0.143618 0 0.744427
0.294362 0 0.816129
0.470542 0 0.871199
0.653819 0 0.906645
0.814054 0 0.927703
0.939742 0 0.939742
1 0 0.948211
0.0556344 0.0786603 0.533684
0.0906996 0.0906996 0.618814
0.169284 0.0921035 0.710246
0.310338 0.078645 0.795178
0.484733 0.059556 0.868269
0.673289 0.0414282 0.921019
0.841871 0.0337682 0.954925
0.974762 0.0400092 0.974762
1 0.0532387 0.988083
0.129473 0.175341 0.51252
0.154223 0.201266 0.591546
0.217563 0.217563 0.68217
0.342626 0.2177 0.774639
0.50663 0.208286 0.863325
0.693462 0.194888 0.93283
0.865187 0.188724 0.977234
0.999985 0.195178 0.999985
1 0.207965 1
0.211902 0.301183 0.507301
0.230137 0.337667 0.574182
0.276921 0.365301 0.651164
0.376516 0.376516 0.734676
0.513985 0.374853 0.826642
0.686015 0.363836 0.910094
0.856352 0.35668 0.966552
0.993057 0.362737 0.993057
1 0.376394 1
0.307057 0.43534 0.534707
0.32166 0.474174 0.585031
0.357092 0.506844 0.64065
0.434165 0.527123 0.701259
0.537743 0.537743 0.780179
0.679362 0.535286 0.872709
0.840848 0.528008 0.94696
0.977737 0.531182 0.977737
1 0.542306 0.982376
0.400946 0.566415 0.590051
0.42002 0.605905 0.63064
0.455131 0.640208 0.670558
0.523644 0.664042 0.706325
0.600916 0.682902 0.752071
0.693004 0.693004 0.823041
0.818723 0.688945 0.913024
0.951614 0.685512 0.951614
1 0.691325 0.949279
0.501091 0.690318 0.683421
0.524392 0.72578 0.717479
0.560983 0.755764 0.747387
0.629038 0.775021 0.76733
0.701106 0.790875 0.785443
0.766796 0.805692 0.809094
0.818845 0.818845 0.866117
0.927672 0.812345 0.927672
1 0.813031 0.919234
0.594568 0.796933 0.796918
0.618433 0.825208 0.825193
0.65391 0.848203 0.848203
0.719173 0.861051 0.861051
0.790082 0.870314 0.870314
0.857053 0.878935 0.878935
0.899611 0.892821 0.892821
0.913451 0.913451 0.913451
1 0.911665 0.90132
0.659617 0.886717 0.89865
0.682902 0.907988 0.921798
0.716594 0.925017 0.939284
0.777142 0.933761 0.946761
0.841917 0.940612 0.950942
0.901915 0.94844 0.953521
0.934859 0.96408 0.956039
0.938537 0.990585 0.938537
1 1 0.899794
0.00260929 0.00260929 0.61941
0.0529946 0.00521859 0.703563
0.142748 0 0.787839
0.287602 0 0.861494
0.458045 0 0.9243
0.638911 0 0.972778
0.801984 0 1
0.935836 0 1
1 0 1
0.0571298 0.0832074 0.581781
0.095491 0.095491 0.664302
0.173663 0.0982681 0.753399
0.310048 0.0872206 0.838544
0.47744 0.0706645 0.917617
0.661097 0.0536507 0.983474
0.830823 0.0446021 1
0.971908 0.0471046 1
1 0.0575875 1
0.129015 0.184161 0.557809
0.159472 0.209461 0.636698
0.225864 0.225864 0.726192
0.34902 0.227298 0.81767
0.505684 0.220172 0.908934
0.684047 0.208362 0.989288
0.853559 0.200839 1
0.996063 0.202594 1
1 0.212161 1
0.208057 0.314488 0.545312
0.231998 0.349386 0.614221
0.283772 0.375372 0.693324
0.385626 0.385626 0.777905
0.519142 0.38497 0.869566
0.680919 0.376608 0.959335
0.844495 0.369635 1
0.988281 0.370993 1
1 0.380377 1
0.299809 0.451011 0.559747
0.318364 0.488426 0.612955
0.358083 0.519432 0.674357
0.440009 0.537652 0.741924
0.546929 0.546929 0.823484
0.681987 0.546181 0.916365
0.830182 0.540963 1
0.970642 0.539406 1
1 0.544915 1
0.395392 0.583276 0.601312
0.416251 0.622003 0.643091
0.452247 0.655268 0.687846
0.521737 0.677455 0.732967
0.603662 0.693309 0.789166
0.70074 0.70074 0.864897
0.813703 0.69929 0.958419
0.940764 0.693065 1
1 0.691737 1
0.502541 0.705287 0.682887
0.526772 0.740047 0.715068
0.562661 0.769406 0.745495
0.62707 0.788449 0.770184
0.696086 0.80351 0.797177
0.763226 0.815549 0.836088
0.824063 0.824063 0.90547
0.913924 0.819623 0.995087
1 0.811444 1
0.606241 0.807034 0.789639
0.632593 0.83415 0.814115
0.669429 0.856184 0.83473
0.73315 0.868742 0.847227
0.800687 0.878233 0.857389
0.862821 0.887449 0.868879
0.898573 0.901991 0.892241
0.917067 0.917067 0.951202
1 0.90898 1
0.681254 0.891218 0.891203
0.70927 0.910811 0.910811
0.74728 0.926268 0.926268
0.811566 0.933547 0.933532
0.878935 0.939223 0.939223
0.943328 0.945281 0.945281
0.984298 0.957565 0.957565
0.997513 0.977569 0.977569
1 1 1
