luts/05_Vlog LUTs_Clean Tones .cube
TITLE "Generated by Resolve"
LUT_3D_SIZE 5
0 0 0
0.212894 0 0
0.515496 0 0
0.840803 0 0
1 0 0
0.0360723 0.16875 0.0360723
0.19852 0.19852 0
0.519371 0.187152 0
0.865293 0.17908 0
1 0.202457 0
0.0544594 0.445167 0.0544594
0.178622 0.515648 0
0.516457 0.516457 0
0.839796 0.518471 0
1 0.540169 0
0.12398 0.747829 0.123964
0.225208 0.822995 0.0381476
0.512963 0.839368 0
0.829984 0.829984 0
1 0.835843 0
0.240238 0.999557 0.240223
0.321569 1 0.146731
0.553429 1 0.00392157
0.827115 1 0
1 1 0
0.00450141 0.00450141 0.101335
0.215015 0 0.215015
0.51368 0 0.15285
0.83859 0 0.149035
1 0 0.153323
0.155505 0.144213 0.144213
0.200305 0.200305 0.200305
0.526406 0.194186 0.165591
0.861357 0.190784 0.162188
1 0.208942 0.208942
0.200458 0.415137 0.245136
0.242878 0.500893 0.242878
0.522866 0.522866 0.164599
0.841413 0.529107 0.142245
1 0.546273 0.182971
0.266468 0.715846 0.341711
0.311574 0.800595 0.311574
0.527214 0.837232 0.190173
0.831006 0.831006 0.141451
1 0.835889 0.130541
0.373266 0.9608 0.468101
0.412589 1 0.412589
0.585168 1 0.27277
0.82472 1 0.1449
1 1 0.122972
0.000396735 0.000411994 0.319417
0.174029 0 0.490257
0.522286 0 0.522301
0.828199 0 0.496925
1 0 0.504173
0.146258 0.155383 0.289815
0.203815 0.203815 0.425986
0.541054 0.182803 0.541054
0.858778 0.18822 0.516747
1 0.206012 0.564294
0.299596 0.40235 0.40235
0.360311 0.474342 0.474342
0.520272 0.520272 0.520272
0.838682 0.526375 0.496651
1 0.544152 0.514412
0.404303 0.683986 0.566979
0.446632 0.759625 0.616632
0.578668 0.809674 0.578668
0.822095 0.822095 0.490837
1 0.825986 0.463386
0.510567 0.915679 0.73434
0.536889 0.970825 0.737469
0.652964 1 0.652964
0.821576 1 0.511559
1 1 0.467247
0 0 0.513771
0.147784 0 0.691798
0.487144 0 0.8
0.820722 0 0.820722
1 0 0.831022
0.130999 0.167041 0.46273
0.210315 0.210315 0.627649
0.512764 0.196536 0.801984
0.870939 0.18143 0.870939
1 0.204807 0.894362
0.311833 0.420249 0.510109
0.359442 0.493889 0.601312
0.529473 0.529473 0.724636
0.850355 0.519097 0.850355
1 0.540841 0.854765
0.485405 0.679835 0.679835
0.545266 0.746319 0.746319
0.693874 0.780896 0.780896
0.814404 0.814404 0.814404
1 0.815229 0.796277
0.622095 0.888395 0.889311
0.667338 0.931579 0.928344
0.780804 0.953017 0.923796
0.867506 0.984741 0.867506
1 1 0.786648
0.00260929 0.00260929 0.61941
0.142748 0 0.787839
0.458045 0 0.9243
0.801984 0 1
1 0 1
0.129015 0.184161 0.557809
0.225864 0.225864 0.726192
0.505684 0.220172 0.908934
0.853559 0.200839 1
1 0.212161 1
0.299809 0.451011 0.559747
0.358083 0.519432 0.674357
0.546929 0.546929 0.823484
0.830182 0.540963 1
1 0.544915 1
0.502541 0.705287 0.682887
0.562661 0.769406 0.745495
0.696086 0.80351 0.797177
0.824063 0.824063 0.90547
1 0.811444 1
0.681254 0.891218 0.891203
0.74728 0.926268 0.926268
0.878935 0.939223 0.939223
0.984298 0.957565 0.957565
1 1 1
