luts/07_Photoshop LUTs_Cinematic.cube
LUT_3D_SIZE 6
0.065542 0.070877 0.096927
0.127594 0.067153 0.098377
0.249828 0.043468 0.086846
0.494427 -0.106165 -0.079508
0.821965 -0.195148 -0.185355
1.036600 -0.249965 -0.243159
0.097814 0.121760 0.108021
0.122421 0.124598 0.096193
0.247768 0.119456 0.077147
0.493151 0.106082 -0.094332
0.821120 -0.131609 -0.191977
1.036092 -0.216103 -0.247161
0.150842 0.238685 0.158782
0.161669 0.242250 0.149371
0.236735 0.248389 0.093683
0.483852 0.307048 -0.140816
0.815793 0.323217 -0.226338
1.032887 0.257216 -0.269550
0.281281 0.477945 0.284867
0.288211 0.480064 0.278526
0.328896 0.488567 0.243429
0.467626 0.512291 0.119664
0.798156 0.570480 -0.270320
1.023003 0.521395 -0.315245
0.434621 0.747403 0.436568
0.440160 0.748811 0.432244
0.468730 0.756173 0.406201
0.564150 0.770432 0.322279
0.777537 0.777504 -0.186453
1.004453 0.736711 -0.346907
0.516796 0.890639 0.518296
0.520565 0.891802 0.514827
0.541018 0.897347 0.496548
0.604917 0.909702 0.440655
0.764176 0.925710 0.293738
0.985859 0.909406 -0.313237
0.063518 0.069579 0.167531
0.131354 0.057838 0.170228
0.249450 0.039876 0.159605
0.494218 -0.107734 0.162104
0.821849 -0.195987 0.063416
1.036514 -0.250515 -0.180991
0.097634 0.124784 0.142145
0.122242 0.127010 0.161915
0.247366 0.119040 0.161918
0.493497 0.058122 0.130223
0.821536 -0.169378 -0.131713
1.036271 -0.232678 -0.210599
0.169380 0.235796 0.192818
0.178898 0.238537 0.194020
0.236817 0.250179 0.163148
0.484757 0.299339 0.063421
0.816469 0.304598 -0.182033
1.033186 0.236848 -0.237115
0.293351 0.476125 0.312982
0.293785 0.478003 0.302733
0.330031 0.487298 0.272820
0.467724 0.512961 0.176710
0.798695 0.565580 -0.241790
1.023464 0.514832 -0.291031
0.443575 0.746068 0.458768
0.441774 0.747493 0.446674
0.468793 0.754920 0.423067
0.561393 0.769838 0.344116
0.777431 0.778946 -0.132897
1.004730 0.734736 -0.328059
0.523432 0.889677 0.535144
0.523159 0.890504 0.527117
0.541704 0.896171 0.509268
0.603252 0.908886 0.455954
0.761659 0.924862 0.318529
0.985840 0.909519 -0.292273
0.057056 0.064068 0.288655
0.127530 0.052728 0.296327
0.261312 -0.077452 0.306205
0.493286 -0.113587 0.335845
0.821304 -0.199325 0.343418
1.036173 -0.252680 0.290634
0.064170 0.127808 0.277561
0.118810 0.126381 0.285984
0.256973 0.098567 0.307756
0.492517 0.036398 0.329813
0.820986 -0.174008 0.330375
1.035924 -0.235298 0.276012
0.197414 0.235759 0.244717
0.203634 0.238795 0.249662
0.239171 0.249753 0.271766
0.488353 0.241343 0.267523
0.818949 0.192071 0.221530
1.034487 0.062793 0.152690
0.336555 0.469666 0.388777
0.339168 0.470910 0.386937
0.342047 0.480108 0.355695
0.467968 0.510460 0.285899
0.802124 0.535410 0.111706
1.025489 0.480689 -0.147847
0.477356 0.741049 0.529917
0.475110 0.742427 0.522234
0.471686 0.748845 0.478983
0.551765 0.767121 0.413083
0.777479 0.776465 0.218745
1.006204 0.723520 -0.238680
0.549202 0.885862 0.593273
0.548637 0.886697 0.587585
0.546004 0.891651 0.552805
0.598313 0.905459 0.507519
0.752520 0.924243 0.388375
0.985866 0.908808 -0.186389
0.023422 0.040516 0.469582
0.136302 -0.029853 0.475534
0.298066 -0.107415 0.496869
0.505217 -0.155035 0.502655
0.820317 -0.204767 0.519193
1.035528 -0.256326 0.478660
0.025117 0.140019 0.461871
0.111780 0.119165 0.468254
0.286440 0.072709 0.492245
0.504263 -0.115571 0.502908
0.819947 -0.180676 0.514791
1.035274 -0.239392 0.473962
0.169968 0.295088 0.414737
0.174671 0.289697 0.422327
0.235866 0.247287 0.462202
0.496207 0.218251 0.489229
0.818100 0.167832 0.484880
1.033911 -0.076570 0.441561
0.388308 0.464145 0.450736
0.391552 0.465142 0.451819
0.406166 0.470030 0.455625
0.471596 0.500203 0.456690
0.806812 0.488652 0.419567
1.026192 0.457980 0.397893
0.528577 0.733394 0.612563
0.530191 0.733917 0.611383
0.528262 0.738821 0.595568
0.562827 0.759004 0.549520
0.777597 0.772266 0.424676
1.007933 0.715533 0.349159
0.590665 0.879591 0.670541
0.589989 0.880550 0.667568
0.589250 0.884334 0.649424
0.619737 0.898584 0.614683
0.750762 0.922582 0.523027
0.986033 0.907731 0.362418
-0.069261 -0.063039 0.668844
0.145695 -0.078068 0.673747
0.336494 -0.133467 0.695201
0.582503 -0.223489 0.720117
0.819070 -0.212032 0.672615
1.034626 -0.261061 0.631068
-0.071844 0.151226 0.662327
0.095221 0.101442 0.668136
0.319260 -0.057950 0.690505
0.574137 -0.199000 0.719189
0.818655 -0.189435 0.672243
1.034362 -0.244661 0.629435
0.146200 0.351289 0.617702
0.152582 0.336017 0.625997
0.235381 0.241632 0.665253
0.538638 0.168649 0.711720
0.816567 0.156262 0.666262
1.032971 -0.099539 0.615802
0.442529 0.539385 0.565302
0.439234 0.536735 0.565308
0.414488 0.518785 0.569370
0.470170 0.498769 0.639109
0.805465 0.480682 0.640764
1.024999 0.461975 0.595507
0.583312 0.726748 0.679414
0.585466 0.727164 0.679959
0.592351 0.730139 0.680814
0.629793 0.745222 0.686139
0.777084 0.774618 0.632037
1.005598 0.752381 0.602127
0.640434 0.872382 0.744646
0.641183 0.872969 0.743918
0.643506 0.876001 0.737735
0.675112 0.889186 0.731116
0.778276 0.921238 0.687020
0.985756 0.913579 0.600685
-0.100691 -0.097156 0.849573
0.131404 -0.106538 0.853391
0.329755 -0.145762 0.869846
0.573768 -0.230581 0.904093
0.850487 -0.295039 0.892691
1.033290 -0.268383 0.799937
-0.103409 0.138050 0.844821
0.058822 0.070839 0.849182
0.312027 -0.089766 0.866015
0.562369 -0.204638 0.901497
0.845837 -0.281575 0.893018
1.033010 -0.252710 0.800112
0.055500 0.354378 0.812897
0.098484 0.336531 0.819764
0.227523 0.234188 0.846957
0.514763 0.171674 0.887988
0.832393 -0.182960 0.892790
1.031519 -0.124836 0.795563
0.353441 0.565792 0.734444
0.348087 0.560625 0.738723
0.326512 0.526991 0.762683
0.461013 0.496810 0.827416
0.807604 0.452718 0.878719
1.023509 0.458415 0.783365
0.619799 0.726410 0.736941
0.618501 0.724498 0.736037
0.616375 0.718337 0.733814
0.649370 0.727048 0.746033
0.773569 0.779803 0.811184
1.003855 0.770111 0.787598
0.703223 0.865188 0.818578
0.704896 0.865514 0.819072
0.710560 0.867761 0.820052
0.742785 0.878971 0.828518
0.830383 0.912650 0.847190
0.985267 0.924184 0.794902
