luts/07_Photoshop LUTs_Cinematic.cube
LUT_3D_SIZE 16
0.065542 0.070877 0.096927
0.080928 0.069500 0.102301
0.102164 0.068196 0.100684
0.127594 0.067153 0.098377
0.159473 0.063842 0.096502
0.200101 0.057400 0.093056
0.249828 0.043468 0.086846
0.313229 -0.036452 0.074215
0.393338 -0.073530 0.038234
0.494427 -0.106165 -0.079508
0.609822 -0.138931 -0.122386
0.722290 -0.169129 -0.156987
0.821965 -0.195148 -0.185355
0.904426 -0.216343 -0.207947
0.975373 -0.234416 -0.226957
1.036600 -0.249965 -0.243159
0.074126 0.083513 0.090251
0.079862 0.083416 0.096056
0.101271 0.075722 0.099784
0.127275 0.073179 0.097901
0.159258 0.069798 0.096047
0.199935 0.064218 0.092573
0.249694 0.054252 0.086237
0.313108 0.019740 0.073331
0.393221 -0.064556 0.035493
0.494359 -0.100067 -0.080608
0.609742 -0.133879 -0.123124
0.722307 -0.165112 -0.157541
0.821896 -0.191830 -0.185798
0.904365 -0.213628 -0.208294
0.975312 -0.232066 -0.227260
1.036565 -0.247936 -0.243425
0.089105 0.099414 0.097064
0.091542 0.100278 0.097845
0.099051 0.101617 0.097396
0.125472 0.094804 0.095673
0.158247 0.090804 0.093930
0.199181 0.087849 0.090259
0.249086 0.083334 0.083477
0.312590 0.074833 0.069269
0.392836 0.052746 0.015578
0.493977 -0.062650 -0.085245
0.609441 -0.109806 -0.126091
0.721993 -0.145959 -0.159912
0.821717 -0.176197 -0.187734
0.904142 -0.200699 -0.209919
0.975153 -0.221219 -0.228634
1.036425 -0.238640 -0.244597
0.097814 0.121760 0.108021
0.099225 0.122358 0.108007
0.104875 0.125004 0.106181
0.122421 0.124598 0.096193
0.155745 0.120599 0.090049
0.197416 0.119940 0.085272
0.247768 0.119456 0.077147
0.311490 0.119235 0.059195
0.391886 0.116378 -0.044551
0.493151 0.106082 -0.094332
0.608710 0.071546 -0.132366
0.721395 -0.080615 -0.164953
0.821120 -0.131609 -0.191977
0.903735 -0.167633 -0.213380
0.974688 -0.194038 -0.231615
1.036092 -0.216103 -0.247161
0.109406 0.150901 0.119943
0.110457 0.151325 0.119567
0.114915 0.153198 0.117095
0.126911 0.156495 0.108276
0.152125 0.154768 0.094719
0.193679 0.156803 0.080643
0.244945 0.159584 0.066868
0.309322 0.164860 0.034036
0.390099 0.170464 -0.068943
0.491645 0.174269 -0.107984
0.607386 0.170655 -0.143029
0.720247 0.154657 -0.173663
0.820219 0.121019 -0.199214
0.902934 0.018718 -0.219592
0.974039 -0.122092 -0.236908
1.035464 -0.163798 -0.251703
0.126363 0.188874 0.135923
0.127243 0.189198 0.135415
0.130948 0.190610 0.132798
0.139709 0.193336 0.125411
0.159472 0.196115 0.112039
0.190084 0.195945 0.093545
0.240217 0.202911 0.063032
0.305231 0.213431 -0.044455
0.386703 0.226036 -0.089443
0.488811 0.239358 -0.124783
0.605076 0.247461 -0.157983
0.718323 0.243888 -0.186643
0.818578 0.230566 -0.210532
0.901477 0.208515 -0.229514
0.972820 0.175535 -0.245344
1.034454 0.128836 -0.258963
0.150842 0.238685 0.158782
0.151582 0.238944 0.158242
0.154560 0.240067 0.155591
0.161669 0.242250 0.149371
0.176336 0.245129 0.137519
0.201540 0.247913 0.120495
0.236735 0.248389 0.093683
0.299445 0.265311 -0.032726
0.381037 0.285220 -0.101395
0.483852 0.307048 -0.140816
0.600883 0.324115 -0.175139
0.714944 0.329452 -0.203640
0.815793 0.323217 -0.226338
0.899293 0.305522 -0.243231
0.970998 0.283957 -0.257512
1.032887 0.257216 -0.269550
0.184712 0.303258 0.190926
0.185353 0.303476 0.190425
0.188110 0.304354 0.188156
0.193886 0.306211 0.182630
0.205179 0.308883 0.172992
0.224783 0.312935 0.158415
0.254350 0.314788 0.135139
0.296470 0.318826 0.099472
0.374348 0.346598 -0.082087
0.476652 0.376676 -0.146840
0.594442 0.401450 -0.189616
0.709722 0.410908 -0.220692
0.811519 0.408549 -0.243566
0.895858 0.395306 -0.259861
0.968261 0.375926 -0.272784
1.030628 0.353111 -0.283362
0.228602 0.383633 0.233319
0.229142 0.383835 0.232837
0.231439 0.384577 0.230755
0.236826 0.386094 0.226337
0.245676 0.388435 0.218026
0.261505 0.391442 0.205470
0.285014 0.394890 0.185268
0.319896 0.397966 0.156812
0.372208 0.407681 0.111321
0.469415 0.446005 -0.118075
0.586247 0.476759 -0.190732
0.702340 0.491904 -0.232662
0.805560 0.490876 -0.259506
0.890966 0.479302 -0.276742
0.964287 0.461742 -0.289533
1.027365 0.440186 -0.299173
0.281281 0.477945 0.284867
0.281767 0.478097 0.284437
0.283534 0.478787 0.282337
0.288211 0.480064 0.278526
0.295644 0.482220 0.271042
0.308971 0.484945 0.260889
0.328896 0.488567 0.243429
0.358572 0.492413 0.218023
0.400360 0.495857 0.182242
0.467626 0.512291 0.119664
0.579096 0.549559 -0.159674
0.693892 0.569157 -0.232521
0.798156 0.570480 -0.270320
0.884618 0.560094 -0.291381
0.959019 0.542518 -0.305433
1.023003 0.521395 -0.315245
0.337393 0.577098 0.340183
0.337839 0.577219 0.339813
0.339667 0.577790 0.338129
0.343852 0.578949 0.334632
0.350287 0.580932 0.327925
0.362190 0.583541 0.318698
0.379269 0.587123 0.303330
0.405360 0.591265 0.280810
0.442977 0.595613 0.247822
0.494683 0.599309 0.201795
0.578884 0.618925 0.093915
0.686201 0.640646 -0.204650
0.789709 0.645587 -0.268249
0.877195 0.635243 -0.299654
0.952626 0.618698 -0.318177
1.017586 0.597766 -0.329798
0.390267 0.669893 0.392547
0.390662 0.670062 0.392214
0.391690 0.670638 0.390037
0.395882 0.671656 0.387374
0.402593 0.673350 0.382057
0.412935 0.675884 0.373252
0.428022 0.679385 0.359194
0.451349 0.683601 0.338929
0.485455 0.688378 0.309075
0.533554 0.693083 0.266077
0.596861 0.697951 0.202980
0.683401 0.708880 -0.108007
0.782396 0.714500 -0.246412
0.869385 0.705687 -0.297588
0.945450 0.690306 -0.325173
1.011278 0.669623 -0.340972
0.434621 0.747403 0.436568
0.434976 0.747492 0.436255
0.436936 0.747855 0.435317
0.440160 0.748811 0.432244
0.445721 0.750529 0.426962
0.455252 0.752850 0.419257
0.468730 0.756173 0.406201
0.489683 0.760380 0.387966
0.520418 0.765256 0.361159
0.564150 0.770432 0.322279
0.623061 0.775032 0.270430
0.696767 0.779692 0.179035
0.777537 0.777504 -0.186453
0.862275 0.771673 -0.281019
0.938095 0.756727 -0.323725
1.004453 0.736711 -0.346907
0.468767 0.806944 0.470531
0.469087 0.807065 0.470247
0.470580 0.807467 0.469096
0.472892 0.808505 0.465724
0.477665 0.810119 0.460390
0.487557 0.811893 0.455184
0.499416 0.815102 0.443181
0.518018 0.819059 0.426915
0.545165 0.823804 0.403224
0.583995 0.829160 0.368999
0.637227 0.834355 0.321820
0.704780 0.838629 0.257327
0.782740 0.839490 0.106490
0.858302 0.831986 -0.243546
0.931373 0.817842 -0.310757
0.997592 0.798723 -0.345768
0.495386 0.853440 0.497026
0.495683 0.853501 0.496764
0.496755 0.853920 0.495458
0.500331 0.854563 0.493768
0.504482 0.855949 0.489174
0.511706 0.858021 0.482408
0.522734 0.860773 0.472579
0.539010 0.864419 0.458255
0.562741 0.868948 0.437584
0.596563 0.874140 0.407934
0.642630 0.879650 0.366610
0.703961 0.884614 0.309674
0.778040 0.889048 0.229568
0.856956 0.887269 -0.149888
0.925919 0.874017 -0.281347
0.991260 0.855799 -0.335640
0.516796 0.890639 0.518296
0.517019 0.890669 0.518076
0.517734 0.891107 0.516633
0.520565 0.891802 0.514827
0.525798 0.892778 0.512138
0.531468 0.894743 0.505351
0.541018 0.897347 0.496548
0.555227 0.900644 0.484013
0.575778 0.904752 0.466094
0.604917 0.909702 0.440655
0.645042 0.915193 0.404909
0.697964 0.920539 0.356899
0.764176 0.925710 0.293738
0.841440 0.928610 0.181738
0.918416 0.924343 -0.218566
0.985859 0.909406 -0.313237
0.065009 0.070678 0.114847
0.080303 0.069414 0.116242
0.103867 0.066428 0.112367
0.127540 0.067045 0.104008
0.159432 0.063726 0.102362
0.200054 0.057241 0.100247
0.249800 0.043221 0.094943
0.313200 -0.036820 0.085370
0.393310 -0.073691 0.062965
0.494445 -0.106277 -0.060863
0.609810 -0.139019 -0.112628
0.722400 -0.169217 -0.149237
0.821955 -0.195194 -0.179446
0.904416 -0.216392 -0.202714
0.975363 -0.234489 -0.222556
1.036594 -0.250002 -0.239380
0.070073 0.084472 0.106277
0.079459 0.084579 0.113463
0.101015 0.081582 0.119772
0.126652 0.081181 0.115804
0.158720 0.078548 0.114277
0.199543 0.073874 0.111595
0.249433 0.064944 0.106870
0.312921 0.042849 0.097819
0.393129 -0.056856 0.078494
0.494298 -0.097172 -0.040905
0.609707 -0.132964 -0.106537
0.722268 -0.164634 -0.146301
0.821872 -0.191478 -0.177026
0.904396 -0.213178 -0.200895
0.975285 -0.231604 -0.220757
1.036545 -0.247391 -0.237549
0.090787 0.099550 0.099765
0.092815 0.101769 0.105346
0.099690 0.103335 0.110397
0.124795 0.098931 0.114182
0.157771 0.096230 0.112727
0.198818 0.093749 0.109882
0.248828 0.089636 0.104841
0.312418 0.081412 0.095150
0.392696 0.061379 0.074111
0.493890 -0.056502 -0.051480
0.609384 -0.106744 -0.110366
0.721953 -0.145315 -0.148926
0.821694 -0.175894 -0.179071
0.904116 -0.200289 -0.202583
0.975124 -0.220678 -0.222189
1.036404 -0.238024 -0.238766
0.100297 0.121400 0.111397
0.106846 0.121973 0.116686
0.111667 0.124039 0.117537
0.122484 0.126167 0.113551
0.155619 0.123131 0.109481
0.197222 0.123089 0.106158
0.247537 0.123229 0.100352
0.311333 0.122852 0.089069
0.391740 0.119645 0.063121
0.493061 0.108984 -0.067649
0.608612 0.078970 -0.117995
0.721345 -0.078083 -0.154527
0.821100 -0.131566 -0.183553
0.903696 -0.166403 -0.206288
0.974757 -0.193301 -0.225308
1.036070 -0.215295 -0.241429
0.111480 0.150551 0.123492
0.117674 0.150761 0.129656
0.121806 0.152424 0.129439
0.129577 0.155906 0.123393
0.152092 0.156091 0.112384
0.193549 0.158908 0.102033
0.244833 0.161886 0.093163
0.309190 0.167127 0.077566
0.390007 0.172475 0.031487
0.491559 0.175873 -0.087523
0.607338 0.171892 -0.130116
0.720203 0.155298 -0.163982
0.820181 0.122783 -0.191374
0.902895 0.036216 -0.212824
0.974019 -0.120413 -0.230800
1.035440 -0.162448 -0.246127
0.128088 0.188593 0.139343
0.133241 0.188721 0.145067
0.136325 0.190082 0.143219
0.143563 0.192822 0.137734
0.160174 0.195405 0.126211
0.190066 0.196414 0.111306
0.240111 0.204296 0.090153
0.305155 0.214943 0.061791
0.386640 0.227437 -0.060594
0.488782 0.240500 -0.109052
0.605074 0.247809 -0.146933
0.718360 0.245268 -0.178167
0.818496 0.232959 -0.203559
0.901472 0.207979 -0.222956
0.972879 0.176739 -0.239564
1.034428 0.130998 -0.253633
0.152280 0.238457 0.161935
0.156251 0.238537 0.166592
0.158917 0.239650 0.164124
0.165126 0.241871 0.159053
0.178698 0.245426 0.149329
0.201941 0.247729 0.133586
0.236738 0.249024 0.111569
0.299346 0.266310 0.066790
0.380986 0.286223 -0.079691
0.483808 0.307898 -0.128129
0.600912 0.323933 -0.165686
0.714941 0.329036 -0.196110
0.815857 0.322397 -0.219682
0.899253 0.306288 -0.237430
0.970960 0.284649 -0.252127
1.032860 0.258132 -0.264526
0.185918 0.303084 0.193752
0.188810 0.303168 0.197184
0.191323 0.304050 0.195129
0.196804 0.305901 0.190122
0.207424 0.308554 0.181615
0.225925 0.312213 0.167146
0.254562 0.314697 0.146326
0.296481 0.319336 0.116216
0.374251 0.347336 -0.048195
0.476610 0.377373 -0.135222
0.594434 0.400992 -0.180913
0.709670 0.411598 -0.214182
0.811627 0.407652 -0.237701
0.895894 0.395885 -0.254790
0.968230 0.376464 -0.267864
1.030602 0.353834 -0.278717
0.229618 0.383480 0.235828
0.231633 0.383591 0.238120
0.234544 0.384160 0.236845
0.238850 0.385823 0.231972
0.247838 0.388142 0.224478
0.262584 0.391252 0.212381
0.285662 0.394797 0.192819
0.319935 0.397938 0.166096
0.372257 0.408091 0.126018
0.469368 0.446437 -0.101709
0.586301 0.477158 -0.183779
0.702435 0.491090 -0.226707
0.805542 0.491276 -0.254347
0.891058 0.479695 -0.272323
0.964267 0.462150 -0.285045
1.027346 0.440662 -0.294875
0.282182 0.477824 0.287090
0.283585 0.477887 0.288538
0.284711 0.478680 0.285946
0.289717 0.479849 0.282796
0.297927 0.481915 0.276406
0.310143 0.484848 0.265391
0.329610 0.488449 0.248710
0.358881 0.492351 0.224132
0.400346 0.495810 0.189853
0.467654 0.512587 0.133128
0.578909 0.549556 -0.150052
0.694005 0.568256 -0.226700
0.797992 0.570845 -0.264852
0.884596 0.560512 -0.287066
0.959001 0.542868 -0.301338
1.022988 0.521796 -0.311304
0.338201 0.576966 0.342209
0.339171 0.577037 0.343076
0.340573 0.577694 0.340926
0.344965 0.578786 0.338021
0.352595 0.580588 0.332611
0.362888 0.583434 0.322170
0.379995 0.586995 0.307258
0.405773 0.591175 0.285197
0.443096 0.595567 0.252997
0.494579 0.599281 0.208496
0.577601 0.618896 0.113331
0.685998 0.640649 -0.198611
0.789701 0.645749 -0.263554
0.877180 0.635556 -0.295578
0.952619 0.618906 -0.314347
1.017575 0.598076 -0.326131
0.391025 0.669825 0.394455
0.391753 0.669904 0.394934
0.393900 0.670273 0.394002
0.396972 0.671542 0.390162
0.403425 0.673260 0.384818
0.413268 0.675745 0.376058
0.428661 0.679294 0.362352
0.451795 0.683456 0.342339
0.485675 0.688301 0.312928
0.533547 0.693080 0.270749
0.595802 0.696767 0.212177
0.684484 0.709881 -0.087150
0.782390 0.714703 -0.241286
0.869364 0.705939 -0.293536
0.945446 0.690471 -0.321511
1.011263 0.669920 -0.337544
0.435276 0.747333 0.438261
0.435859 0.747352 0.438613
0.437621 0.747698 0.437424
0.440988 0.748748 0.434644
0.446466 0.750391 0.429367
0.455904 0.752726 0.421723
0.469314 0.756160 0.408861
0.490109 0.760277 0.390803
0.520604 0.765164 0.364330
0.564206 0.770373 0.325935
0.623783 0.775120 0.273200
0.696581 0.778633 0.187503
0.777535 0.777587 -0.179098
0.862275 0.771730 -0.276745
0.938099 0.756799 -0.320092
1.004455 0.736797 -0.343538
0.469370 0.806863 0.472063
0.469878 0.806938 0.472362
0.471186 0.807425 0.471112
0.473734 0.808358 0.467906
0.479823 0.809643 0.464403
0.488177 0.811807 0.457385
0.499984 0.814974 0.445535
0.518426 0.818946 0.429428
0.545471 0.823745 0.405921
0.584119 0.829092 0.372005
0.637241 0.834368 0.325636
0.704550 0.838712 0.259790
0.782738 0.839596 0.120583
0.858301 0.832077 -0.238461
0.931364 0.817937 -0.306958
0.997595 0.798805 -0.342434
0.495918 0.853337 0.498425
0.496454 0.853407 0.498750
0.497311 0.853827 0.497290
0.500937 0.854472 0.495779
0.503332 0.856225 0.489216
0.512275 0.857954 0.484441
0.523285 0.860708 0.474713
0.539508 0.864306 0.460515
0.563089 0.868851 0.439990
0.596761 0.874106 0.410584
0.643708 0.879610 0.369914
0.704175 0.884489 0.316096
0.778052 0.889162 0.234808
0.855712 0.887437 -0.139592
0.925901 0.874161 -0.276937
0.991248 0.855953 -0.332194
0.517276 0.890544 0.519601
0.517753 0.890608 0.519940
0.520218 0.890656 0.520192
0.521260 0.891666 0.516700
0.524541 0.893036 0.511975
0.532088 0.894703 0.507258
0.541562 0.897226 0.498534
0.555729 0.900531 0.486086
0.576159 0.904657 0.468275
0.605172 0.909679 0.443020
0.645280 0.915121 0.407679
0.697970 0.920486 0.360170
0.764232 0.925579 0.300207
0.841441 0.928712 0.188831
0.918279 0.924328 -0.212229
0.985848 0.909462 -0.309507
0.064367 0.070255 0.139343
0.074544 0.069490 0.141730
0.103362 0.065443 0.141038
0.130224 0.063293 0.131127
0.159234 0.063155 0.125810
0.199930 0.056629 0.122591
0.249690 0.042136 0.121940
0.313109 -0.038316 0.118965
0.393225 -0.074379 0.111830
0.494363 -0.106769 0.093823
0.609751 -0.139418 0.025986
0.722321 -0.169514 -0.107401
0.821903 -0.195469 -0.148319
0.904367 -0.216628 -0.177559
0.975318 -0.234663 -0.202318
1.036568 -0.250173 -0.222291
0.065245 0.079318 0.136266
0.078388 0.084408 0.138114
0.100452 0.081718 0.142210
0.129834 0.078383 0.140485
0.158485 0.079366 0.133623
0.199365 0.074722 0.133295
0.249277 0.065903 0.131515
0.312808 0.044355 0.128244
0.393016 -0.056023 0.120821
0.494199 -0.096902 0.103323
0.609666 -0.132822 0.049662
0.722253 -0.164576 -0.099849
0.821859 -0.191442 -0.144086
0.904341 -0.213131 -0.175794
0.975235 -0.231570 -0.199663
1.036514 -0.247345 -0.219737
0.081206 0.102780 0.121782
0.086222 0.103765 0.127457
0.097845 0.103344 0.136235
0.127018 0.100253 0.144232
0.157264 0.099726 0.138479
0.198486 0.096529 0.136447
0.248653 0.090555 0.132939
0.312358 0.078866 0.126447
0.392733 0.048993 0.113891
0.493988 -0.074298 0.085642
0.609473 -0.119105 -0.065316
0.722116 -0.154574 -0.124396
0.821804 -0.183397 -0.160971
0.904215 -0.206326 -0.187684
0.975117 -0.225772 -0.209261
1.036455 -0.242128 -0.227229
0.107358 0.120929 0.120115
0.111162 0.122413 0.123745
0.115367 0.124595 0.127227
0.123498 0.127026 0.133650
0.155313 0.124651 0.136122
0.196882 0.125622 0.133646
0.247366 0.123950 0.129742
0.311273 0.121588 0.122428
0.391782 0.115369 0.108278
0.493166 0.099346 0.075063
0.608764 0.047819 -0.079370
0.721459 -0.099932 -0.131312
0.821229 -0.144066 -0.165972
0.903805 -0.174855 -0.191702
0.974760 -0.199987 -0.212565
1.036111 -0.220427 -0.230016
0.119456 0.149340 0.135005
0.125555 0.149786 0.139967
0.130453 0.151069 0.142269
0.137631 0.154248 0.142957
0.152155 0.156767 0.136129
0.193738 0.159190 0.129619
0.244920 0.162427 0.124232
0.309270 0.166427 0.115072
0.390081 0.170003 0.097311
0.491682 0.171012 0.047509
0.607481 0.163311 -0.098496
0.720322 0.144936 -0.142981
0.820296 0.103229 -0.174699
0.902945 -0.069940 -0.198748
0.974125 -0.134157 -0.218444
1.035504 -0.170800 -0.234974
0.135084 0.187484 0.151679
0.140745 0.187649 0.157275
0.144690 0.188662 0.158418
0.150932 0.191350 0.156568
0.162592 0.195484 0.147792
0.190066 0.197255 0.135373
0.240150 0.204942 0.120740
0.305301 0.214720 0.105531
0.386823 0.225941 0.077954
0.488972 0.237302 -0.064720
0.605252 0.242327 -0.121738
0.718439 0.238804 -0.159627
0.818652 0.224239 -0.188148
0.901549 0.200360 -0.209875
0.972918 0.166531 -0.227756
1.034503 0.116745 -0.242883
0.158245 0.237517 0.173987
0.162847 0.237603 0.179043
0.164925 0.238504 0.177744
0.171126 0.240696 0.175079
0.181364 0.244410 0.166696
0.202217 0.247743 0.153224
0.236759 0.249710 0.135686
0.299373 0.266560 0.106387
0.381121 0.285495 0.054039
0.484055 0.305907 -0.098673
0.601178 0.320565 -0.145911
0.715214 0.324206 -0.180298
0.816121 0.316148 -0.205976
0.899432 0.300065 -0.225235
0.971110 0.279180 -0.241142
1.032961 0.252535 -0.254376
0.190980 0.302311 0.204942
0.194445 0.302395 0.208968
0.196343 0.303029 0.207533
0.201028 0.305020 0.203086
0.210488 0.307870 0.195466
0.227159 0.312212 0.183477
0.254476 0.314539 0.163988
0.296539 0.319863 0.139298
0.374269 0.347252 0.080630
0.476781 0.376261 -0.110447
0.594662 0.399545 -0.165030
0.709947 0.407830 -0.200875
0.811795 0.405508 -0.226330
0.896077 0.391118 -0.243801
0.968428 0.372741 -0.257919
1.030690 0.350093 -0.269328
0.233944 0.382836 0.245936
0.236434 0.382903 0.248854
0.237379 0.383448 0.246223
0.241754 0.385107 0.242011
0.249818 0.387499 0.235156
0.263622 0.390791 0.223462
0.286019 0.394476 0.205921
0.319648 0.397772 0.181277
0.372301 0.408486 0.147077
0.469389 0.446167 -0.058961
0.586492 0.475125 -0.168075
0.702664 0.489493 -0.215584
0.805682 0.490058 -0.244491
0.891297 0.475927 -0.262514
0.964406 0.459503 -0.276139
1.027472 0.438009 -0.286369
0.285950 0.477256 0.296223
0.287721 0.477306 0.298222
0.287722 0.477830 0.294745
0.291967 0.479196 0.291030
0.298911 0.481402 0.284350
0.311683 0.484336 0.274638
0.330040 0.488073 0.258456
0.358722 0.492116 0.235049
0.399896 0.495727 0.202711
0.467673 0.512867 0.152841
0.579111 0.549537 -0.130246
0.694241 0.567361 -0.216460
0.798243 0.569111 -0.256411
0.884745 0.558737 -0.278649
0.959213 0.541060 -0.293388
1.023123 0.519938 -0.303601
0.341555 0.576469 0.350570
0.342855 0.576544 0.351834
0.342131 0.577093 0.347532
0.346573 0.578160 0.344918
0.353266 0.580084 0.339112
0.363392 0.583029 0.328868
0.380241 0.586597 0.314884
0.405551 0.590880 0.293523
0.442609 0.595386 0.262400
0.494027 0.599209 0.220000
0.577339 0.619906 0.140673
0.685064 0.640651 -0.185081
0.789987 0.644632 -0.256068
0.877369 0.634323 -0.287859
0.952736 0.617722 -0.307156
1.017696 0.596777 -0.319167
0.394069 0.669404 0.402095
0.395042 0.669443 0.403005
0.395093 0.669744 0.399648
0.398170 0.670913 0.396043
0.403997 0.672735 0.390381
0.413735 0.675368 0.381809
0.428764 0.678799 0.368649
0.451540 0.683169 0.349144
0.485078 0.688086 0.320461
0.532789 0.692887 0.279405
0.597162 0.698792 0.223362
0.684273 0.708829 0.030669
0.782404 0.714955 -0.232391
0.869516 0.706213 -0.287719
0.945513 0.689801 -0.314835
1.011371 0.669038 -0.331102
0.438044 0.746841 0.445293
0.438837 0.746947 0.445985
0.438601 0.747295 0.442387
0.442026 0.748171 0.439810
0.447027 0.749977 0.434323
0.454944 0.752581 0.425096
0.469395 0.755681 0.414388
0.489841 0.759861 0.396692
0.520043 0.764841 0.370701
0.563356 0.770263 0.333084
0.622783 0.774980 0.282437
0.694907 0.778633 0.202853
0.777476 0.778207 -0.161538
0.862427 0.771297 -0.270920
0.938102 0.756512 -0.313580
1.004529 0.736312 -0.337511
0.471911 0.806516 0.478509
0.472612 0.806585 0.479118
0.472088 0.806905 0.475551
0.474701 0.807916 0.472636
0.480554 0.809240 0.468940
0.487100 0.811702 0.460193
0.500070 0.814595 0.450440
0.518224 0.818578 0.434628
0.544911 0.823411 0.411577
0.583316 0.828844 0.378278
0.636193 0.834185 0.333293
0.703786 0.838584 0.269880
0.782731 0.840401 0.140302
0.858239 0.831871 -0.226307
0.931393 0.817807 -0.300159
0.997653 0.798593 -0.336489
0.498243 0.853020 0.504263
0.498909 0.853021 0.504866
0.498183 0.853448 0.501422
0.499942 0.854416 0.498104
0.505690 0.855479 0.495348
0.514259 0.857232 0.490637
0.523443 0.860340 0.479203
0.539392 0.864032 0.465244
0.562707 0.868516 0.445044
0.596112 0.873849 0.416144
0.641828 0.879360 0.376349
0.703172 0.884488 0.321461
0.776763 0.888477 0.243204
0.855711 0.887367 -0.119134
0.925890 0.874262 -0.269011
0.991274 0.855855 -0.326075
0.519350 0.890235 0.524868
0.519979 0.890292 0.525482
0.521026 0.890323 0.524116
0.522154 0.891323 0.520713
0.525092 0.892727 0.515912
0.532377 0.894333 0.511209
0.541851 0.896816 0.502654
0.555799 0.900174 0.490429
0.575963 0.904377 0.472899
0.604669 0.909431 0.447995
0.644613 0.914951 0.413423
0.696945 0.920503 0.364290
0.762869 0.924839 0.306549
0.840272 0.928683 0.205221
0.918028 0.924483 -0.199838
0.985843 0.909468 -0.302762
0.063518 0.069579 0.167531
0.071350 0.069010 0.168937
0.098498 0.065638 0.174041
0.131354 0.057838 0.170228
0.162585 0.056075 0.161863
0.199632 0.055255 0.157890
0.249450 0.039876 0.159605
0.312928 -0.041065 0.162189
0.393092 -0.075714 0.163906
0.494218 -0.107734 0.162104
0.609663 -0.140171 0.150453
0.722241 -0.170177 0.125143
0.821849 -0.195987 0.063416
0.904334 -0.217088 -0.103411
0.975230 -0.235051 -0.149705
1.036514 -0.250515 -0.180991
0.063713 0.076631 0.165803
0.077385 0.083921 0.166508
0.098400 0.081821 0.171340
0.129153 0.076962 0.171664
0.162967 0.072916 0.168251
0.199083 0.073829 0.164535
0.249047 0.064747 0.165805
0.312614 0.041937 0.168018
0.392855 -0.057970 0.169096
0.494070 -0.098000 0.166573
0.609525 -0.133655 0.155537
0.722091 -0.165213 0.127882
0.821833 -0.191985 0.079590
0.904248 -0.213616 -0.098546
0.975147 -0.231971 -0.145744
1.036478 -0.247689 -0.177611
0.069695 0.099413 0.157826
0.081202 0.102922 0.159627
0.097219 0.103880 0.164802
0.124946 0.101455 0.170419
0.161910 0.096168 0.174021
0.198123 0.097250 0.168181
0.248363 0.091375 0.168232
0.312155 0.079615 0.168281
0.392533 0.049599 0.166359
0.493837 -0.074576 0.159793
0.609371 -0.119902 0.143852
0.721951 -0.155304 0.109646
0.821700 -0.184049 -0.033981
0.904117 -0.206820 -0.119903
0.975118 -0.225948 -0.158870
1.036395 -0.242218 -0.186515
0.097634 0.124784 0.142145
0.100551 0.125861 0.146158
0.106993 0.127196 0.151895
0.122242 0.127010 0.161915
0.158210 0.123318 0.171245
0.196699 0.123376 0.164575
0.247366 0.119040 0.161918
0.311434 0.111654 0.157058
0.392029 0.096927 0.148032
0.493497 0.058122 0.130223
0.609082 -0.089448 0.092827
0.721819 -0.135493 -0.074557
0.821536 -0.169378 -0.131713
0.904007 -0.194201 -0.165220
0.974927 -0.215221 -0.190377
1.036271 -0.232678 -0.210599
0.129667 0.148633 0.147255
0.133039 0.149600 0.149703
0.137513 0.151265 0.152593
0.144257 0.153459 0.154445
0.154146 0.157034 0.159588
0.193930 0.158463 0.160969
0.245075 0.159717 0.157664
0.309484 0.160673 0.151824
0.390359 0.160081 0.141204
0.492012 0.155236 0.120191
0.607836 0.139996 0.072012
0.720647 0.107562 -0.096071
0.820568 -0.049476 -0.143083
0.903201 -0.123601 -0.173447
0.974344 -0.161892 -0.196914
1.035687 -0.189866 -0.215962
0.147177 0.185723 0.168530
0.151513 0.186108 0.171818
0.155916 0.187094 0.173930
0.159837 0.189150 0.173681
0.169335 0.193673 0.173279
0.190189 0.198226 0.162988
0.240502 0.203939 0.152865
0.305826 0.211352 0.144004
0.387402 0.219592 0.129650
0.489490 0.227295 0.100748
0.605680 0.229991 -0.050564
0.718929 0.221411 -0.121995
0.819085 0.202740 -0.159752
0.901875 0.176353 -0.186379
0.973185 0.135723 -0.207287
1.034701 0.056411 -0.224554
0.169380 0.235796 0.192818
0.173262 0.235965 0.196388
0.176901 0.236698 0.197826
0.178898 0.238537 0.194020
0.187273 0.242058 0.189607
0.203759 0.247035 0.177900
0.236817 0.250179 0.163148
0.299593 0.265274 0.142034
