luts/07_VSCO LUTs_Contrast.cube
TITLE "Generated by Resolve"
LUT_3D_SIZE 33
0 0 0
0 0 0
0.015671 0 0
0.0336004 0 0
0.0516213 0.000274662 0
0.0704204 0.00138857 0
0.0907454 0.00259403 0
0.113375 0.00289921 0
0.138994 0.00247196 0
0.168078 0.00131228 0
0.200961 0 0
0.235889 0 0
0.271748 0 0
0.307195 0 0
0.339757 0 0
0.371557 0 0
0.403906 0 0
0.436118 0 0
0.46746 0 0
0.497169 0 0
0.524514 0 0
0.549157 0 0
0.571252 0 0
0.590997 0 0
0.608606 0 0
0.624628 0 0
0.639521 0 0
0.653727 0 0
0.667659 0 0
0.681788 0 0
0.696544 0 0
0.710994 0 0
0.72575 0 0
0 0.0129244 0
0 0.0182345 0
0.0178225 0.01561 0
0.0379034 0.0161746 0
0.0558175 0.0173953 0
0.0745403 0.0184482 0
0.0947585 0.0191806 0
0.117342 0.0194247 0
0.142977 0.0190127 0
0.172091 0.0178683 0
0.205051 0.0159457 0
0.240085 0.0133516 0
0.276143 0.0108186 0
0.311742 0.00773632 0
0.344488 0.00479133 0
0.376471 0.00180056 0
0.409033 0 0
0.441474 0 0
0.47306 0 0
0.503059 0 0
0.530709 0 0
0.555688 0 0
0.578149 0 0
0.598276 0 0
0.616297 0 0
0.632776 0 0
0.648188 0 0
0.662913 0.00144961 0
0.677424 0.00508125 0
0.692119 0.00886549 0
0.707469 0.0127108 0
0.722499 0.0168612 0
0.737881 0.021149 0
0 0.0303349 0
0.0027924 0.0320287 0
4.57771e-05 0.0394141 0
0.0276493 0.0375372 0
0.0558328 0.0356756 0
0.0780346 0.0357214 0
0.098436 0.0364538 0
0.121096 0.036759 0
0.146838 0.0364385 0
0.176074 0.0354162 0
0.209201 0.0336309 0
0.244419 0.0311894 0
0.280598 0.0283818 0
0.316426 0.0255131 0
0.349355 0.022797 0
0.381674 0.0205234 0
0.414527 0.0177462 0
0.447288 0.0151217 0
0.479225 0.0128481 0
0.50959 0.0111543 0
0.537636 0.0102388 0
0.563043 0.010193 0
0.585977 0.011017 0
0.606622 0.0126497 0
0.625193 0.0150607 0
0.642237 0.0180819 0
0.658213 0.0216068 0
0.673548 0.0255283 0
0.68864 0.0297551 0
0.70396 0.0341497 0
0.719936 0.0386053 0
0.735607 0.0433814 0
0.751629 0.0483253 0.00489815
0 0.0476692 0
0.00883497 0.0484932 0
0.0131991 0.0538949 0
0.0139315 0.0602121 0
0.0390021 0.0592508 0
0.0695506 0.0568856 0
0.0976425 0.0554971 0
0.124102 0.0548714 0
0.150927 0.0544747 0
0.180407 0.0536507 0
0.213764 0.0520943 0
0.249241 0.049897 0
0.28571 0.047364 0
0.321813 0.0448005 0
0.354971 0.0424048 0
0.387564 0.0400092 0
0.420798 0.0375982 0
0.453971 0.0353704 0
0.486351 0.0335393 0
0.517266 0.0327916 0
0.545846 0.0323796 0
0.571801 0.0328985 0
0.595315 0.034287 0
0.616541 0.0364996 0
0.635706 0.0394903 0
0.653361 0.0431067 0
0.669947 0.0472419 0
0.685908 0.0517891 0
0.701656 0.0566415 0
0.717556 0.0612345 0.00334173
0.734203 0.0663615 0.0084535
0.750561 0.071809 0.013901
0.767269 0.0774395 0.0195163
0 0.0653849 0
0.0115511 0.0662852 0
0.0255436 0.068864 0
0.024094 0.076173 0
0.0292821 0.0814374 0
0.0535897 0.0811017 0
0.0851453 0.0789044 0
0.117556 0.0767987 0.000320439
0.149996 0.0750591 0.000381476
0.183276 0.0735027 0
0.218433 0.071809 0
0.254444 0.0699016 0
0.291264 0.0677195 0
0.327749 0.0655375 0
0.361166 0.0635538 0
0.394232 0.0616159 0
0.42797 0.0597086 0
0.461677 0.0580148 0
0.494621 0.0567483 0
0.526055 0.0560922 0
0.555215 0.0562753 0
0.581781 0.0573739 0
0.60589 0.0593576 0
0.627741 0.0621958 0
0.647547 0.0658122 0
0.665843 0.0700694 0
0.683101 0.0748608 0.00112917
0.699733 0.0800793 0.00633249
0.716152 0.0856031 0.0118563
0.73283 0.0913405 0.0175784
0.750164 0.0971695 0.0233921
0.767239 0.103319 0.0295262
0.784207 0.109606 0.0358129
0 0.0838941 0
0.0135348 0.0849622 0
0.0314641 0.0865644 0
0.0375525 0.0919203 0
0.0372625 0.0992599 0
0.0466468 0.103792 0
0.0717327 0.103868 0.000991836
0.104875 0.10193 0.00265507
0.14107 0.0995193 0.00340276
0.17879 0.0971084 0.00329595
0.218112 0.0947127 0.00239567
0.257588 0.0923323 0.000900282
0.296574 0.090135 0
0.334173 0.0882734 0
0.367971 0.0868238 0
0.401602 0.0854505 0
0.43592 0.084123 0
0.470222 0.0830091 0
0.503761 0.0823377 0
0.535821 0.0822919 0
0.565606 0.0830854 0
0.592813 0.0848249 0
0.617578 0.0874495 0
0.640085 0.0909438 0
0.660563 0.0952316 0.00410468
0.679545 0.10016 0.00903334
0.697505 0.105653 0.0145113
0.714855 0.111574 0.0204318
0.731975 0.117784 0.0266423
0.749325 0.124193 0.0330358
0.767315 0.130648 0.0394903
0.784955 0.137377 0.0462043
0.802472 0.144198 0.0530251
0 0.103655 0
0.0145876 0.104982 0
0.0335393 0.10663 0
0.0464637 0.110292 0
0.0497902 0.117037 0
0.0530861 0.123949 0
0.0667277 0.127977 0.00210575
0.0940261 0.128298 0.00430304
0.129671 0.126619 0.00581369
0.16968 0.124178 0.00646983
0.212375 0.121462 0.00627146
0.255421 0.11873 0.00541695
0.297719 0.116289 0.00425727
0.338201 0.114321 0.00311284
0.374151 0.112932 0.00221256
0.409232 0.11191 0.00140383
0.444373 0.111131 0.000656138
0.479301 0.110643 0.000137331
0.513497 0.110613 7.62951e-05
0.546197 0.111223 0.000656138
0.576654 0.112673 0.00209049
0.604532 0.115084 0.00448615
0.629999 0.118395 0.0077821
0.653208 0.122576 0.0119478
0.674403 0.127565 0.0169223
0.694087 0.133196 0.0225528
0.712703 0.139345 0.028687
0.730663 0.145876 0.0352178
0.748363 0.152651 0.0419928
0.766232 0.159579 0.0489052
0.784695 0.166506 0.0558328
0.80235 0.173648 0.0629587
0.820661 0.180865 0.0701762
0 0.125154 0
0.0143893 0.126818 0
0.0337377 0.128832 0
0.0508736 0.131716 0
0.059617 0.137392 0
0.0640421 0.14464 0.00109865
0.0720073 0.15111 0.00323491
0.0904707 0.154818 0.00561532
0.121157 0.155367 0.00772107
0.160082 0.153979 0.0091249
0.204089 0.151644 0.00970474
0.249607 0.148959 0.00958267
0.294789 0.146426 0.0091249
0.33817 0.144411 0.00866712
0.376654 0.143023 0.00840772
0.414176 0.142107 0.00827039
0.451469 0.141527 0.00817884
0.488029 0.141421 0.00834669
0.523323 0.141939 0.0089723
0.556771 0.143221 0.0102541
0.58793 0.145388 0.0123903
0.616526 0.148486 0.0154726
0.64268 0.152483 0.0194553
0.666529 0.157305 0.0242771
0.688319 0.16289 0.0298466
0.708568 0.169055 0.0360113
0.727687 0.175708 0.042649
0.746105 0.182696 0.0496376
0.764218 0.189883 0.0568246
0.782467 0.197177 0.0641031
0.801236 0.20441 0.0713359
0.819135 0.211795 0.0783246
0.837659 0.219242 0.085771
0 0.148791 0
0.0129702 0.150881 0
0.0328679 0.153368 0
0.0521553 0.156283 0
0.0658579 0.161196 7.62951e-05
0.0740368 0.168093 0.00213626
0.0817578 0.175448 0.00445563
0.095201 0.181491 0.00697337
0.118883 0.184939 0.00939956
0.153643 0.185626 0.0113985
0.196384 0.184497 0.0127108
0.242573 0.182437 0.0133364
0.289555 0.180224 0.0136263
0.335256 0.178363 0.013901
0.37612 0.177096 0.0143587
0.416098 0.176333 0.0149386
0.455695 0.175967 0.0155795
0.494377 0.17615 0.0164797
0.531548 0.177005 0.0178225
0.566644 0.178668 0.019791
0.599084 0.181247 0.0225986
0.628305 0.184924 0.0262608
0.654978 0.189441 0.0307774
0.679332 0.194751 0.0360723
0.701564 0.200778 0.0420844
0.722194 0.20734 0.0486458
0.74168 0.214328 0.0556191
0.760403 0.221607 0.0628977
0.778759 0.229053 0.0703441
0.797192 0.23653 0.0774243
0.815702 0.2439 0.0847944
0.834134 0.251423 0.0923323
0.85272 0.258915 0.0998245
0 0.175021 0
0.0110628 0.177691 0
0.0311437 0.180728 0
0.0514076 0.184115 0
0.0690623 0.188617 0
0.0814069 0.195071 0.00263981
0.0914473 0.202564 0.00543221
0.103944 0.209781 0.00827039
0.123293 0.215412 0.011017
0.152438 0.218647 0.0134737
0.191745 0.21944 0.0153811
0.236683 0.218677 0.0167391
0.284016 0.217273 0.0177768
0.331044 0.215915 0.0187991
0.373709 0.215 0.0200046
0.415793 0.214496 0.0213016
0.457527 0.214343 0.0226291
0.498222 0.21471 0.0241703
0.53724 0.215747 0.0261082
0.573938 0.217594 0.0286259
0.608911 0.22002 0.0319982
0.639139 0.223941 0.0361334
0.666209 0.22884 0.0410163
0.690883 0.23447 0.0466316
0.71339 0.240757 0.0529335
0.734264 0.247562 0.0597238
0.753933 0.254719 0.0668803
0.772778 0.262135 0.0740063
0.791241 0.269657 0.0814374
0.80972 0.27718 0.0889601
0.828214 0.28455 0.0963302
0.846601 0.292042 0.103807
0.865095 0.299458 0.111208
0 0.20412 0
0.00790417 0.207385 0
0.0286717 0.211048 0
0.0496529 0.215061 0
0.0699779 0.219608 0
0.0861372 0.225772 0.00257877
0.099443 0.233204 0.00605783
0.113268 0.240925 0.00943008
0.13138 0.247868 0.0126345
0.156847 0.253162 0.0155489
0.191684 0.25626 0.0180056
0.233783 0.257267 0.0199893
0.279927 0.257115 0.0216983
0.327016 0.25658 0.0233768
0.370489 0.256168 0.0251926
0.413931 0.25597 0.0270542
0.457267 0.255985 0.0289006
0.499611 0.256443 0.0308995
0.54023 0.257527 0.0332494
0.578408 0.259388 0.0361486
0.61648 0.26128 0.0399939
0.648463 0.265003 0.04448
0.675746 0.27013 0.0495918
0.700587 0.275929 0.055375
0.723232 0.282368 0.061799
0.744183 0.28925 0.0686656
0.763867 0.296468 0.0758526
0.782696 0.303868 0.0828565
0.801083 0.31136 0.0903182
0.819455 0.318776 0.0977493
0.837797 0.326009 0.104952
0.85597 0.333288 0.11223
0.874205 0.340459 0.119371
0 0.236133 0
0.00488289 0.240055 0
0.0263828 0.244373 0
0.048127 0.249058 0
0.0700847 0.254002 0
0.0895399 0.260105 0.00273136
0.106188 0.26746 0.00701915
0.122454 0.275425 0.0110628
0.141238 0.283116 0.014847
0.165331 0.289723 0.018265
0.196994 0.294636 0.0211795
0.235309 0.297566 0.023621
0.278874 0.298894 0.0257877
0.324666 0.299382 0.0279088
0.367849 0.299626 0.0301518
0.411704 0.299809 0.0323796
0.455909 0.300008 0.0345464
0.499382 0.300511 0.03682
0.541207 0.301534 0.0394293
0.580606 0.303304 0.0425269
0.622293 0.304295 0.0467079
0.656382 0.307515 0.0514687
0.683726 0.312703 0.0566262
0.708583 0.318517 0.0624247
0.731182 0.32491 0.0688029
0.752041 0.331716 0.0755932
0.771588 0.338796 0.0822461
0.790249 0.346029 0.0894789
0.808408 0.353292 0.0967117
0.826535 0.360479 0.103883
0.844739 0.367575 0.110964
0.862928 0.374884 0.118257
0.881346 0.382223 0.125566
0 0.270817 0
0.00311284 0.27541 0
0.0258946 0.280446 0
0.0479438 0.285832 0
0.0708782 0.291432 0
0.0930495 0.297642 0.00401312
0.112749 0.304967 0.00907912
0.131685 0.312947 0.0137789
0.152041 0.320928 0.0180972
0.176165 0.328237 0.0219425
0.206256 0.334249 0.0252079
0.241611 0.338643 0.0279393
0.281819 0.341466 0.0303807
0.325216 0.343114 0.0327459
0.36701 0.344137 0.0352026
0.410315 0.344762 0.0376135
0.454582 0.34519 0.0399176
0.498527 0.345724 0.0423133
0.54107 0.346654 0.0449683
0.581399 0.348196 0.0480964
0.627527 0.347845 0.0525063
0.663188 0.350515 0.0573281
0.690425 0.355596 0.0623941
0.715129 0.361273 0.06804
0.73753 0.367483 0.0742199
0.758144 0.37406 0.080766
0.777478 0.380926 0.0872053
0.796063 0.388098 0.0943618
0.814298 0.395438 0.101671
0.832624 0.402853 0.109056
0.851041 0.410163 0.11632
0.869398 0.417655 0.123781
0.887953 0.425147 0.131243
0 0.308003 0
0.00369268 0.313313 0
0.0272526 0.319051 0
0.0500343 0.325078 0
0.07364 0.331289 0.000793469
0.097612 0.337697 0.00691234
0.119829 0.34493 0.012604
0.141222 0.352789 0.0178378
0.163455 0.360769 0.0225834
0.188418 0.368307 0.0267491
0.218036 0.374884 0.0302892
0.251652 0.380148 0.0332036
0.289067 0.3841 0.0357671
0.329397 0.386862 0.0382086
0.368902 0.388708 0.0406958
0.410788 0.389868 0.043122
0.454292 0.390555 0.0453803
0.498009 0.391119 0.0476844
0.540673 0.391928 0.0502174
0.582666 0.392828 0.053254
0.6336 0.390799 0.0577707
0.669154 0.393225 0.0623636
0.696132 0.398062 0.0671702
0.720684 0.403586 0.0726635
0.743053 0.409781 0.0788281
0.763806 0.41651 0.0854963
0.783352 0.423621 0.0921645
0.802136 0.431006 0.0995041
0.820539 0.438544 0.106981
0.839002 0.446113 0.114488
0.857511 0.453559 0.121874
0.875944 0.461143 0.129412
0.894545 0.468711 0.136919
0 0.347372 0
0.00729381 0.353292 0
0.0314641 0.359579 0
0.0547951 0.366125 0
0.0789197 0.372808 0.00520333
0.103853 0.379461 0.0117647
0.128054 0.386587 0.0179141
0.151537 0.394217 0.0235294
0.175616 0.401984 0.0285649
0.201755 0.409445 0.0329442
0.231586 0.416159 0.0366217
0.264332 0.42182 0.0396124
0.299855 0.426368 0.0421759
0.337514 0.429938 0.0445716
0.374136 0.432578 0.0469368
0.413855 0.434256 0.0491951
0.455879 0.435203 0.0512551
0.498665 0.435813 0.0532845
0.540841 0.436469 0.0555123
0.587457 0.435645 0.0584878
0.641688 0.432486 0.0630503
0.675242 0.435569 0.0675212
0.702403 0.440589 0.0725109
0.727153 0.446326 0.0782025
0.749706 0.45272 0.084535
0.770611 0.459602 0.091371
0.79028 0.466835 0.098146
0.80914 0.474327 0.105577
0.827619 0.481926 0.113115
0.846113 0.489525 0.120668
0.864622 0.496971 0.128054
0.883055 0.504555 0.135576
0.901595 0.512062 0.143038
0 0.388708 0
0.0128023 0.395056 0
0.0373846 0.401724 0
0.0610971 0.408591 0.00387579
0.0855268 0.415549 0.0107729
0.110811 0.4224 0.0175631
0.136461 0.429328 0.0239872
0.161639 0.436622 0.0298161
0.187335 0.444022 0.0350042
0.21471 0.451164 0.0394598
0.245075 0.457679 0.0431373
0.277531 0.463325 0.0460822
0.311879 0.468086 0.0485237
0.347555 0.472023 0.0507515
0.381613 0.475151 0.0528878
0.418692 0.477302 0.0548257
0.458717 0.478569 0.056611
0.500237 0.479484 0.0585031
0.542 0.4804 0.0607309
0.598733 0.476783 0.0643168
0.651392 0.474357 0.0689097
0.681987 0.478569 0.0733349
0.709285 0.483726 0.0784619
0.734142 0.48957 0.0842603
0.756786 0.49604 0.0906844
0.777752 0.502983 0.0975662
0.797436 0.510231 0.104372
0.816312 0.517723 0.111803
0.834745 0.525292 0.11931
0.853178 0.53283 0.126787
0.871611 0.5402 0.134096
0.889906 0.547662 0.141497
0.908309 0.555032 0.148821
0 0.431479 0
0.0188907 0.438102 0
0.0437171 0.444968 0.00241093
0.0676127 0.452003 0.00936904
0.0921645 0.459083 0.0163882
0.11754 0.465995 0.0232395
0.143969 0.472709 0.0297398
0.170413 0.479576 0.0356146
0.197421 0.486473 0.0407721
0.225895 0.493111 0.0451514
0.256931 0.499199 0.0486915
0.289433 0.50454 0.0514534
0.32314 0.509148 0.0536812
0.357595 0.513222 0.0557565
0.390051 0.516823 0.0578775
0.425223 0.519722 0.0599527
0.463416 0.521828 0.0618906
0.503563 0.5234 0.0638895
0.553506 0.522057 0.0665141
0.615793 0.516945 0.0703746
0.658595 0.517632 0.0745251
0.688563 0.522118 0.0789807
0.715908 0.527321 0.0841382
0.74078 0.533181 0.0899672
0.763409 0.539651 0.0963607
0.784314 0.546532 0.103059
0.803952 0.553719 0.109941
0.822705 0.56112 0.117281
0.841031 0.568566 0.124666
0.859297 0.575952 0.131991
0.877546 0.583124 0.139116
0.895644 0.590372 0.146304
0.913817 0.597513 0.153384
1.5259e-05 0.474968 0
0.0255131 0.481682 0.0011902
0.0503853 0.488594 0.0080415
0.0742809 0.495628 0.0149996
0.0987869 0.502663 0.021973
0.124041 0.509483 0.0287327
0.150668 0.515938 0.035111
0.177981 0.522301 0.0408484
0.205951 0.528588 0.0458228
0.23537 0.534615 0.0500191
0.267277 0.540307 0.0534981
0.30042 0.54551 0.0563516
0.334417 0.550271 0.0588083
0.368612 0.554696 0.0611276
0.400214 0.55877 0.0634623
0.434073 0.562249 0.0656901
0.470573 0.565011 0.0677348
0.516396 0.564996 0.0699321
0.578027 0.56022 0.0728771
0.631861 0.557717 0.0764477
0.665156 0.561273 0.0801556
0.695109 0.565728 0.084596
0.722408 0.570886 0.0897078
0.747189 0.576669 0.0954452
0.769711 0.583017 0.101747
0.790494 0.589776 0.108049
0.809949 0.596796 0.115023
0.828534 0.603998 0.122164
0.846616 0.611231 0.129335
0.864652 0.618357 0.136416
0.882612 0.625254 0.143252
0.900404 0.632197 0.150149
0.918242 0.639002 0.156893
0.007187 0.518425 0.000595102
0.0326085 0.525063 0.00717174
0.0573587 0.531884 0.0139162
0.0810712 0.53875 0.0207218
0.105333 0.545571 0.0274662
0.130312 0.552132 0.0339818
0.156771 0.558373 0.0401617
0.184878 0.564431 0.0458991
0.214038 0.570489 0.0510109
0.244816 0.57641 0.0554665
0.277958 0.581979 0.0591897
0.312016 0.587106 0.0622416
0.346517 0.591897 0.0648966
0.380652 0.596445 0.0673686
0.41178 0.600748 0.0698405
0.445716 0.604273 0.0721599
0.49189 0.604166 0.0743114
0.548684 0.60087 0.0766461
0.602518 0.598398 0.0793927
0.639323 0.600916 0.082414
0.671962 0.604547 0.0860304
0.701793 0.608896 0.0903487
0.728939 0.613901 0.0953231
0.753567 0.619501 0.100877
0.775876 0.62565 0.106981
0.796414 0.632181 0.113054
0.815625 0.638941 0.119768
0.833906 0.645853 0.126619
0.851698 0.652766 0.133486
0.869368 0.659556 0.140215
0.886976 0.666087 0.146685
0.904356 0.672633 0.153185
0.921767 0.678996 0.159503
0.0149386 0.561135 0.00712596
0.0401007 0.567544 0.0134737
0.0645609 0.574105 0.0199588
0.0881208 0.580835 0.026627
0.112398 0.587655 0.0333867
0.137545 0.594385 0.0400397
0.164248 0.600839 0.0464485
0.193179 0.606882 0.052369
0.223636 0.612757 0.0576791
0.255634 0.618479 0.0622873
0.28983 0.62385 0.0661326
0.324956 0.628733 0.0693065
0.360952 0.633112 0.0720378
0.397986 0.636728 0.0745403
0.435706 0.639063 0.0769818
0.47985 0.63949 0.0792554
0.528984 0.638422 0.0813611
0.574838 0.638254 0.0835584
0.611719 0.640665 0.0859998
0.646693 0.643519 0.0888533
0.679149 0.646967 0.0922713
0.708766 0.651102 0.096376
0.735683 0.655863 0.101106
0.760021 0.661204 0.106401
0.78204 0.667048 0.1122
0.802258 0.673243 0.117952
0.821118 0.679667 0.124331
0.839017 0.686183 0.1308
0.856382 0.692683 0.137255
0.873625 0.699031 0.143557
0.890761 0.705104 0.149569
0.907652 0.711147 0.155566
0.924529 0.716991 0.161364
0.0235752 0.60267 0.014374
0.0487984 0.60914 0.0207828
0.0734875 0.6159 0.0274662
0.0972763 0.622827 0.0343328
0.121736 0.629831 0.0412604
0.147051 0.636698 0.0480659
0.173892 0.643275 0.0545815
0.203113 0.649348 0.0606088
0.235325 0.65478 0.06598
0.270542 0.659586 0.0706035
0.308675 0.663767 0.074403
0.348211 0.667277 0.0774853
0.388937 0.670146 0.0800793
0.429862 0.672389 0.0824292
0.469017 0.674174 0.0847639
0.508171 0.675898 0.0869764
0.545953 0.677958 0.0890364
0.583459 0.680018 0.0910811
0.619959 0.682246 0.0933089
0.654688 0.684855 0.0958877
0.68687 0.688014 0.0990463
0.716182 0.691844 0.102846
0.742748 0.696284 0.10724
0.766735 0.701244 0.112169
0.788357 0.706706 0.117586
0.808148 0.712474 0.122911
0.826551 0.718441 0.128832
0.843976 0.724483 0.134844
0.860838 0.73048 0.140795
0.877562 0.736309 0.146563
0.894133 0.741817 0.152026
0.910491 0.747311 0.157488
0.926818 0.752621 0.162753
0.0349279 0.644038 0.0239567
0.0603494 0.65069 0.0305333
0.0847028 0.657557 0.0373236
0.109087 0.664607 0.0443122
0.133639 0.671687 0.0513161
0.159014 0.678599 0.0581674
0.18587 0.685191 0.0646983
0.215091 0.691264 0.0707256
0.247318 0.696635 0.0756542
0.283024 0.701213 0.0802167
0.322103 0.704936 0.0838941
0.362921 0.707866 0.0868086
0.404349 0.710277 0.0892042
0.444175 0.712444 0.091371
0.481056 0.714641 0.0935531
0.518151 0.716686 0.0959793
0.555673 0.718486 0.0977798
0.592889 0.720256 0.0995346
0.629068 0.722164 0.101442
0.663447 0.724422 0.103685
0.695262 0.727214 0.106462
0.724163 0.730648 0.109865
0.750301 0.734646 0.113832
0.773831 0.739147 0.118318
0.794949 0.744106 0.122835
0.814237 0.749371 0.128069
0.832105 0.754803 0.133455
0.848981 0.760296 0.138903
0.865293 0.765743 0.144305
0.881453 0.771023 0.149538
0.897505 0.775998 0.154482
0.913329 0.780972 0.159411
0.929137 0.785748 0.164157
0.0490425 0.685115 0.0359045
0.0745403 0.691814 0.0425422
0.0989548 0.698726 0.0493782
0.123354 0.705791 0.0563668
0.14789 0.71284 0.0633555
0.173205 0.719707 0.070161
0.199969 0.726223 0.0762188
0.229068 0.732189 0.0821393
0.261158 0.737438 0.0873426
0.296727 0.741863 0.0917525
0.335332 0.745373 0.0952316
0.375753 0.748074 0.0979171
0.416724 0.75024 0.100069
0.455726 0.752117 0.10193
0.492302 0.754009 0.103822
0.529061 0.755703 0.105516
0.566217 0.757153 0.106966
0.603052 0.758541 0.108339
0.638819 0.760037 0.109834
0.67277 0.761868 0.111894
0.704112 0.764187 0.114351
0.732525 0.767117 0.117266
0.758114 0.770581 0.120409
0.781094 0.774548 0.124239
0.801694 0.778958 0.128634
0.820417 0.783673 0.133303
0.837751 0.788571 0.138155
0.854093 0.79353 0.143084
0.869886 0.798444 0.147967
0.885527 0.803204 0.152682
0.901076 0.807675 0.157122
0.916381 0.812146 0.161547
0.931701 0.816434 0.165805
0.0654307 0.725582 0.0497749
0.0904097 0.732235 0.0563668
0.115251 0.739116 0.0631571
0.139559 0.74609 0.0700694
0.163958 0.753017 0.0765545
0.189105 0.759747 0.0832227
0.215686 0.766094 0.0895094
0.244556 0.771862 0.0952316
0.276387 0.776883 0.100206
0.311681 0.781064 0.104356
0.349691 0.784268 0.107546
0.389548 0.786648 0.109911
0.429953 0.788464 0.111727
0.467964 0.789944 0.113191
0.504158 0.79144 0.114687
0.54049 0.792721 0.115953
0.577203 0.793713 0.11696
0.61355 0.794614 0.117845
0.648814 0.795605 0.118837
0.682216 0.796887 0.120119
0.713008 0.798672 0.121889
0.740871 0.801038 0.124254
0.765927 0.803967 0.127153
0.788373 0.807401 0.130571
0.808438 0.811292 0.134417
0.826642 0.815473 0.138582
0.843458 0.819852 0.142931
0.859297 0.824308 0.147341
0.874571 0.828733 0.151736
0.889738 0.83299 0.155962
0.904784 0.836973 0.159915
0.919631 0.840955 0.163867
0.934478 0.84477 0.167651
0.0835889 0.765194 0.0651408
0.108431 0.771725 0.0715953
0.133089 0.778439 0.0778515
0.157198 0.785245 0.0845808
0.181353 0.791974 0.0912642
0.206241 0.798459 0.0976883
0.232517 0.804532 0.103716
0.261067 0.81001 0.109148
0.292546 0.81471 0.113802
0.327337 0.818524 0.117601
0.36463 0.821347 0.120394
0.40383 0.823301 0.122347
0.443534 0.824674 0.12372
0.480476 0.825666 0.124697
0.516182 0.826673 0.125704
0.551995 0.82742 0.126467
0.588159 0.827893 0.126925
0.623972 0.828229 0.127275
0.658671 0.828672 0.127718
0.691539 0.829419 0.128466
0.721798 0.830655 0.129702
0.749126 0.832502 0.131533
0.773663 0.834913 0.133928
0.795605 0.837827 0.136828
0.815152 0.841215 0.140185
0.832868 0.844907 0.143847
0.84918 0.848798 0.147707
0.86453 0.852766 0.151644
0.879347 0.856703 0.15555
0.894041 0.860502 0.159319
0.908629 0.864027 0.162814
0.923003 0.867552 0.166323
0.937407 0.870924 0.169665
0.102495 0.803647 0.0811322
0.127581 0.809979 0.0873884
0.15198 0.816449 0.0937972
0.175769 0.822965 0.100267
0.199573 0.829389 0.10663
0.224079 0.835554 0.112734
0.249958 0.841276 0.11841
0.27805 0.846357 0.123445
0.309117 0.850629 0.127687
0.343114 0.853986 0.131029
0.379675 0.856321 0.133349
0.418082 0.857771 0.134783
0.45687 0.858595 0.135607
0.492805 0.859022 0.136034
0.527962 0.859464 0.136492
0.563226 0.859678 0.136706
0.598856 0.859602 0.136629
0.634134 0.859419 0.136461
0.668315 0.859342 0.136385
0.700664 0.859556 0.136614
0.730404 0.860288 0.137346
0.757229 0.861631 0.138674
0.781277 0.863554 0.140581
0.802716 0.86598 0.142992
0.82179 0.868879 0.145876
0.839033 0.872099 0.149065
0.854887 0.875517 0.152453
0.86978 0.879026 0.155947
0.884138 0.882521 0.159411
0.898375 0.885863 0.162737
0.912535 0.888945 0.165789
0.926482 0.892058 0.168872
0.940459 0.895003 0.171786
0.122484 0.840757 0.0980087
0.147219 0.846784 0.10396
0.171206 0.852903 0.110033
0.194568 0.859068 0.116121
0.217945 0.86508 0.122087
0.241962 0.870817 0.127764
0.267308 0.876081 0.132982
0.29485 0.880674 0.137545
0.325383 0.884443 0.141283
0.35845 0.887236 0.14406
0.394171 0.889006 0.14583
0.431769 0.889906 0.146715
0.469139 0.890135 0.14696
0.504616 0.890028 0.146853
0.539239 0.889952 0.146777
0.573983 0.889647 0.146471
0.60911 0.889052 0.145892
0.64387 0.88835 0.145205
0.677546 0.88777 0.14464
0.709407 0.887495 0.144381
0.738659 0.887755 0.144625
0.765011 0.888609 0.145495
0.788586 0.890059 0.146929
0.809567 0.892027 0.148882
0.828183 0.894469 0.151308
0.844968 0.897231 0.154055
0.86038 0.900206 0.157
0.874846 0.903288 0.160052
0.888762 0.906355 0.163104
0.902602 0.909285 0.166003
0.91635 0.911971 0.168673
0.929961 0.914717 0.171405
0.943603 0.917327 0.173999
0.142275 0.876341 0.114687
0.166552 0.881956 0.120241
0.190051 0.887633 0.125872
0.212879 0.893324 0.131502
0.235676 0.898848 0.13698
0.259098 0.904051 0.142123
0.283833 0.908766 0.146807
0.310796 0.91281 0.150805
0.340597 0.916014 0.153994
