luts/07_VSCO LUTs_Contrast.cube
TITLE "Generated by Resolve"
LUT_3D_SIZE 9
0 0 0
0.0516213 0.000274662 0
0.138994 0.00247196 0
0.271748 0 0
0.403906 0 0
0.524514 0 0
0.608606 0 0
0.667659 0 0
0.72575 0 0
0 0.0653849 0
0.0292821 0.0814374 0
0.149996 0.0750591 0.000381476
0.291264 0.0677195 0
0.42797 0.0597086 0
0.555215 0.0562753 0
0.647547 0.0658122 0
0.716152 0.0856031 0.0118563
0.784207 0.109606 0.0358129
0 0.148791 0
0.0658579 0.161196 7.62951e-05
0.118883 0.184939 0.00939956
0.289555 0.180224 0.0136263
0.455695 0.175967 0.0155795
0.599084 0.181247 0.0225986
0.701564 0.200778 0.0420844
0.778759 0.229053 0.0703441
0.85272 0.258915 0.0998245
0 0.270817 0
0.0708782 0.291432 0
0.152041 0.320928 0.0180972
0.281819 0.341466 0.0303807
0.454582 0.34519 0.0399176
0.627527 0.347845 0.0525063
0.73753 0.367483 0.0742199
0.814298 0.395438 0.101671
0.887953 0.425147 0.131243
0 0.431479 0
0.0921645 0.459083 0.0163882
0.197421 0.486473 0.0407721
0.32314 0.509148 0.0536812
0.463416 0.521828 0.0618906
0.658595 0.517632 0.0745251
0.763409 0.539651 0.0963607
0.841031 0.568566 0.124666
0.913817 0.597513 0.153384
0.0235752 0.60267 0.014374
0.121736 0.629831 0.0412604
0.235325 0.65478 0.06598
0.388937 0.670146 0.0800793
0.545953 0.677958 0.0890364
0.68687 0.688014 0.0990463
0.788357 0.706706 0.117586
0.860838 0.73048 0.140795
0.926818 0.752621 0.162753
0.0835889 0.765194 0.0651408
0.181353 0.791974 0.0912642
0.292546 0.81471 0.113802
0.443534 0.824674 0.12372
0.588159 0.827893 0.126925
0.721798 0.830655 0.129702
0.815152 0.841215 0.140185
0.879347 0.856703 0.15555
0.937407 0.870924 0.169665
0.161227 0.91014 0.130602
0.252201 0.93051 0.150774
0.354513 0.945525 0.165652
0.491249 0.946944 0.167086
0.627314 0.941939 0.162127
0.753185 0.936965 0.157229
0.839323 0.940291 0.160525
0.897108 0.949371 0.169558
0.949767 0.95819 0.178302
0.219562 1 0.178866
0.30135 1 0.190982
0.394217 1 0.19826
0.520684 1 0.19263
0.65069 1 0.181689
0.771572 1 0.171817
0.853849 1 0.171298
0.908766 1 0.177478
0.959518 1 0.184329
0 0 0.0523232
0.052079 0.000442512 0.0569467
0.13933 0.00254826 0.0585641
0.272175 0 0.0495613
0.404593 0 0.0368505
0.525597 0 0.0270848
0.610254 0 0.0293278
0.670085 0 0.0399786
0.729107 0 0.0545968
0 0.0655833 0.0630808
0.0669108 0.0707866 0.0682231
0.156466 0.0744945 0.0718395
0.293248 0.0692912 0.0664988
0.430716 0.0621195 0.0591897
0.558938 0.0596323 0.0565805
0.652293 0.0701915 0.0670787
0.722042 0.0911116 0.087953
0.79115 0.116152 0.112978
0 0.150637 0.0630045
0.0758373 0.161929 0.0742657
0.1243 0.189548 0.0728008
0.315175 0.179141 0.0882124
0.467658 0.180179 0.092256
0.606378 0.188098 0.100084
0.709468 0.20827 0.120211
0.787015 0.236881 0.148821
0.861006 0.266789 0.178744
0 0.276051 0.0538491
0.0784009 0.297795 0.0755322
0.180316 0.322332 0.0950484
0.291325 0.350057 0.097734
0.47396 0.350301 0.113634
0.636454 0.355596 0.129824
0.745342 0.37496 0.152285
0.822416 0.403189 0.180423
0.896239 0.433097 0.210178
0.00274662 0.439399 0.0675059
0.101534 0.467109 0.0949569
0.214923 0.491814 0.119448
0.342397 0.514122 0.125963
0.47245 0.530556 0.12932
0.635737 0.535805 0.143908
0.767193 0.549096 0.172946
0.849042 0.576257 0.203311
0.921401 0.604776 0.231617
0.0326085 0.610407 0.0926528
0.13106 0.637812 0.119783
0.24477 0.662806 0.144564
0.393561 0.679438 0.156817
0.516976 0.69723 0.159625
0.649882 0.709453 0.164965
0.795071 0.713085 0.194553
0.866712 0.736019 0.217304
0.931823 0.75729 0.238407
0.0926986 0.773007 0.143511
0.190066 0.79942 0.169665
0.300633 0.821591 0.191653
0.450233 0.830823 0.200793
0.589761 0.834333 0.202502
0.726482 0.835035 0.205051
0.819043 0.84477 0.21474
0.882475 0.85951 0.229358
0.939818 0.873014 0.242756
0.168093 0.915969 0.207401
0.258061 0.935439 0.226688
0.359335 0.949599 0.240726
0.494865 0.950225 0.241352
0.630167 0.944472 0.235676
0.755352 0.938796 0.230076
0.84094 0.941573 0.232822
0.898283 0.950225 0.241413
0.950607 0.958694 0.249821
0.223239 1 0.252888
0.304219 1 0.264286
0.396262 1 0.270878
0.522133 1 0.264759
0.651728 1 0.253422
0.77232 1 0.243244
0.854383 1 0.242527
0.909194 1 0.248585
0.95993 1 0.255421
0 0 0.148409
0.0504158 0 0.15288
0.137575 0.000793469 0.154406
0.27068 0 0.145525
0.403571 0 0.13312
0.525017 0 0.123812
0.610285 0 0.126253
0.670985 0 0.138155
0.730968 0.000839246 0.153735
0 0.0640421 0.159136
0.0657816 0.0695964 0.164614
0.155917 0.0738079 0.16875
0.293538 0.0692912 0.164111
0.431952 0.0630198 0.157702
0.561166 0.0615244 0.156085
0.655604 0.0731518 0.167636
0.726482 0.0951858 0.189639
0.796551 0.121172 0.215625
0 0.150958 0.160937
0.0775311 0.163195 0.173129
0.177127 0.175662 0.18555
0.324834 0.180667 0.190463
0.47248 0.184634 0.194324
0.612055 0.193393 0.202991
0.715679 0.214099 0.223667
0.793469 0.242954 0.252522
0.867384 0.272786 0.282353
0 0.27985 0.155261
0.084184 0.302632 0.177966
0.195285 0.325216 0.200458
0.29839 0.356359 0.197421
0.499809 0.35021 0.221653
0.647776 0.359869 0.234897
0.7514 0.380621 0.255573
0.828748 0.409186 0.283986
0.902708 0.439246 0.313878
0.00994888 0.445548 0.171206
0.108766 0.473259 0.198672
0.221805 0.497658 0.222873
0.369421 0.513512 0.233204
0.479164 0.536934 0.229068
0.651576 0.539086 0.248478
0.774044 0.554986 0.27631
0.85507 0.581994 0.306569
0.926955 0.61001 0.334417
0.0396429 0.616403 0.196201
0.138308 0.643977 0.223514
0.252003 0.668956 0.248295
0.408698 0.682704 0.261952
0.532555 0.699931 0.262562
0.655512 0.714778 0.263645
0.776013 0.725628 0.28426
0.867643 0.740505 0.31574
0.934676 0.759838 0.338521
0.0991073 0.778851 0.246921
0.19646 0.804837 0.272648
0.306355 0.826383 0.294011
0.454719 0.83476 0.302342
0.589364 0.838666 0.3019
0.698558 0.847288 0.295399
0.788403 0.857404 0.298497
0.883497 0.860212 0.327657
0.940154 0.873014 0.340368
0.172488 0.919631 0.308659
0.261479 0.938231 0.327092
0.361776 0.951568 0.340322
0.496361 0.9514 0.340154
0.630884 0.94493 0.3337
0.7523 0.939605 0.326665
0.840528 0.940856 0.329717
0.89749 0.949096 0.337896
0.949508 0.957275 0.346014
0.224521 1 0.351476
0.304677 1 0.362188
0.396078 1 0.36817
0.521569 1 0.361563
0.650813 1 0.349798
0.771115 1 0.33933
0.85301 1 0.338445
0.907744 1 0.344427
0.958495 1 0.351293
0 0 0.29041
0.0446937 0 0.294743
0.131853 0 0.296269
0.265492 0 0.287526
0.399298 0 0.27541
0.521248 0 0.26656
0.607202 0 0.269688
0.668818 0 0.282506
0.729793 0 0.299062
0 0.0592355 0.301305
0.060853 0.0651865 0.307195
0.151644 0.0699626 0.311879
0.290394 0.0662394 0.307988
0.430137 0.060914 0.30248
0.560357 0.0604257 0.301839
0.655894 0.0731365 0.314473
0.727901 0.0962844 0.337636
0.798825 0.12311 0.364508
0 0.148241 0.305165
0.0756237 0.161425 0.318349
0.176425 0.174945 0.331838
0.325475 0.181064 0.33785
0.47425 0.186084 0.342733
0.614572 0.195575 0.352132
0.718639 0.216709 0.373281
0.796551 0.245701 0.40235
0.870283 0.275349 0.43212
0 0.280659 0.302968
0.086305 0.304387 0.32668
0.198138 0.327611 0.349859
0.355489 0.341375 0.363561
0.508476 0.35108 0.37319
0.650538 0.36231 0.384344
0.754177 0.383062 0.405066
0.831785 0.411872 0.433829
0.905791 0.442008 0.46392
0.0132296 0.44831 0.320867
0.11194 0.475944 0.348302
0.224552 0.499962 0.372183
0.381155 0.513222 0.385367
0.482322 0.539773 0.377768
0.671534 0.536171 0.404532
0.780896 0.556146 0.428046
0.857603 0.584176 0.45594
0.928923 0.611658 0.483345
0.0427863 0.619058 0.345769
0.141573 0.646738 0.373266
0.255207 0.671672 0.398047
0.411536 0.685145 0.41146
0.553872 0.695766 0.416831
0.657313 0.716258 0.411002
0.783963 0.723812 0.435004
0.867979 0.740124 0.462745
0.933883 0.758709 0.484581
0.101869 0.781155 0.396262
0.198642 0.806638 0.421607
0.307774 0.827512 0.44239
0.455299 0.835035 0.449851
0.596841 0.835584 0.45034
0.705394 0.843336 0.442954
0.786618 0.855283 0.442344
0.867079 0.86273 0.458717
0.936141 0.869932 0.481117
0.17258 0.91957 0.45597
0.260578 0.937316 0.473655
0.360037 0.949844 0.486107
0.494224 0.948943 0.48513
0.628092 0.941756 0.477867
0.745769 0.936828 0.469139
0.81529 0.943893 0.463096
0.876081 0.951171 0.464332
0.94493 0.952377 0.488258
0.221561 1 0.496345
0.300923 1 0.506386
0.391867 1 0.511833
0.51751 1 0.504707
0.646403 1 0.49247
0.76643 1 0.481605
0.846143 1 0.479774
0.902907 1 0.486442
0.953719 1 0.493339
0 0 0.444358
0.0380102 0 0.448615
0.125261 0 0.450172
0.25951 0 0.441581
0.394369 0 0.42977
0.516884 0 0.421363
0.603632 0 0.425223
0.666163 0 0.438987
0.728161 0 0.456611
0 0.0537575 0.455589
0.0551919 0.0601511 0.461952
0.146685 0.0655528 0.467262
0.286702 0.0627146 0.464164
0.427863 0.0583658 0.459556
0.559121 0.0588998 0.459876
0.655772 0.0727092 0.473671
0.728847 0.09691 0.497963
0.800519 0.124498 0.525673
0 0.145022 0.461707
0.0731975 0.159213 0.475944
0.175219 0.1738 0.490547
0.325658 0.181064 0.497688
0.475517 0.187015 0.503502
0.616464 0.197147 0.513527
0.720867 0.218616 0.535058
0.79881 0.247639 0.564218
0.872267 0.277012 0.593774
0 0.281025 0.463035
0.0877852 0.305592 0.487694
0.200229 0.329335 0.511482
0.357794 0.343328 0.525414
0.510674 0.352956 0.534951
0.652354 0.36379 0.545708
0.756252 0.384817 0.566735
0.834043 0.413809 0.595743
0.908064 0.443946 0.625864
0.0155642 0.450278 0.482536
0.114061 0.477699 0.509896
0.226413 0.501503 0.533608
0.383337 0.515053 0.547097
0.536095 0.524697 0.556664
0.67866 0.536416 0.568307
0.782864 0.557809 0.589639
0.859159 0.585397 0.617151
0.929854 0.612268 0.643961
0.0450752 0.620966 0.507408
0.143923 0.648707 0.535088
0.257404 0.673503 0.559808
0.413382 0.686671 0.5729
0.563409 0.694102 0.58027
0.657923 0.716533 0.572061
0.796658 0.718761 0.601511
0.869413 0.737758 0.623697
0.932006 0.756512 0.642374
0.103532 0.782513 0.557534
0.199664 0.807431 0.582391
0.307927 0.827558 0.602426
0.454673 0.834195 0.609003
0.595483 0.833906 0.608637
0.71899 0.835615 0.605859
0.783627 0.851972 0.599847
0.867506 0.85713 0.618982
0.931975 0.865293 0.636881
0.171374 0.91841 0.614816
0.258427 0.935317 0.631647
0.357076 0.947051 0.64332
0.491035 0.945434 0.641627
0.624216 0.937545 0.633661
0.74757 0.930037 0.626093
0.8159 0.936767 0.620768
0.870817 0.945586 0.619562
0.937575 0.94847 0.629541
0.217365 1 0.652537
0.295979 1 0.661921
0.386557 1 0.66688
0.512505 1 0.659388
0.641093 1 0.646845
0.760967 1 0.635782
0.838483 1 0.633204
0.887587 1 0.632136
0.949416 1 0.632349
0 0 0.593027
0.0317998 0 0.597253
0.119203 0 0.598947
0.254078 0 0.590661
0.390021 0 0.579324
0.513146 0 0.571527
0.600748 0 0.576257
0.664256 0 0.590982
0.727291 0 0.609659
0 0.0487984 0.604791
0.0502327 0.0557107 0.611673
0.142519 0.0618143 0.617685
0.283787 0.0598764 0.615534
0.426322 0.0565347 0.611933
0.558648 0.0581216 0.613321
0.656443 0.0730755 0.628244
0.730465 0.0982071 0.653498
0.802792 0.126436 0.681865
0 0.14255 0.613413
0.0716259 0.157748 0.628687
0.174914 0.173434 0.644388
0.326665 0.181796 0.652659
0.477409 0.188586 0.659312
0.618906 0.199237 0.669871
0.723537 0.220951 0.69163
0.801404 0.249882 0.720729
0.874479 0.278889 0.749889
0 0.282094 0.618341
0.0899825 0.307393 0.643732
0.202914 0.331579 0.667948
0.36054 0.345678 0.682002
0.513161 0.355108 0.691341
0.654597 0.365713 0.701869
0.758816 0.387045 0.723201
0.836728 0.416159 0.752331
0.910674 0.44625 0.782391
0.0183413 0.452598 0.639094
0.116503 0.479728 0.666148
0.228901 0.503563 0.689906
0.386038 0.517357 0.703639
0.538781 0.527047 0.713268
0.681208 0.538628 0.724758
0.785107 0.559731 0.745785
0.860899 0.586816 0.772808
0.930938 0.613016 0.798947
0.0478676 0.623301 0.663981
0.146715 0.651041 0.691661
0.259983 0.675639 0.716182
0.415488 0.688426 0.728893
0.564935 0.695308 0.735714
0.70277 0.702296 0.742626
0.80032 0.717037 0.75729
0.868467 0.736492 0.776669
0.930251 0.754437 0.794537
0.10547 0.7841 0.713344
0.2009 0.808392 0.737575
0.308232 0.827695 0.756817
0.454154 0.833463 0.762509
0.594232 0.832334 0.761303
0.723751 0.831006 0.759899
0.780682 0.848707 0.753216
0.871565 0.85037 0.776516
0.928618 0.860487 0.789166
0.170321 0.917342 0.767987
0.256443 0.933425 0.783993
0.354269 0.944396 0.794888
0.487999 0.942061 0.792493
0.620508 0.933516 0.783871
0.743358 0.925505 0.775799
0.822324 0.928054 0.775051
0.865736 0.940169 0.770809
0.932937 0.942382 0.7832
0.213382 1 0.803128
0.291295 1 0.811902
0.381506 1 0.816403
0.507774 1 0.808576
0.636103 1 0.795758
0.755795 1 0.784527
0.837415 1 0.783276
0.88484 1 0.784253
0.944137 1 0.783398
0 0 0.708797
0.0284733 0 0.713039
0.116091 0 0.714916
0.251484 0 0.706981
0.388251 0 0.696178
0.512078 0 0.689082
0.600595 0 0.694713
0.66508 0 0.71043
0.729183 0 0.730175
0 0.0463722 0.721279
0.0483406 0.0538491 0.72874
0.141543 0.0607462 0.735546
0.283909 0.0597543 0.73434
0.427527 0.0574197 0.731762
0.560952 0.06009 0.734249
0.659876 0.0761425 0.750286
0.734737 0.102113 0.776394
0.807614 0.130892 0.80531
0 0.142763 0.732586
0.0733349 0.159014 0.748913
0.177905 0.175814 0.765743
0.330663 0.185229 0.775051
0.481926 0.192737 0.782437
0.62385 0.203815 0.793439
0.728603 0.22565 0.81532
0.806287 0.254398 0.844221
0.879118 0.283146 0.873152
0 0.285847 0.741054
0.0952316 0.311772 0.767086
0.20853 0.336278 0.791638
0.365896 0.350378 0.805676
0.517906 0.359518 0.814725
0.659373 0.370123 0.825254
0.763821 0.391714 0.84683
0.841794 0.42089 0.87602
0.915633 0.450874 0.905974
0.0238956 0.457267 0.762707
0.121614 0.484016 0.789395
0.234348 0.508141 0.813443
0.391394 0.522103 0.827329
0.543832 0.531792 0.836942
0.686076 0.543175 0.848249
0.789609 0.563897 0.86891
0.864851 0.590448 0.895369
0.934142 0.6159 0.920775
0.0535439 0.628092 0.787717
0.1523 0.655756 0.815305
0.265278 0.680095 0.839582
0.42005 0.692424 0.85185
0.568627 0.69868 0.85803
0.705669 0.70486 0.864134
0.802319 0.718715 0.877913
0.869642 0.737331 0.896468
0.930648 0.754482 0.913542
0.110033 0.7879 0.836103
0.204685 0.811505 0.859632
0.311055 0.829953 0.878004
0.455894 0.834836 0.882826
0.595117 0.832883 0.880812
0.723857 0.830777 0.87863
0.812619 0.836728 0.884504
0.872496 0.847913 0.895613
0.926818 0.858381 0.906004
0.171786 0.91841 0.888014
0.256992 0.9337 0.903212
0.353979 0.943893 0.913344
0.487129 0.940871 0.910246
0.619028 0.931701 0.901015
0.741405 0.923232 0.89247
0.824811 0.923827 0.892989
0.862882 0.936996 0.890211
0.931258 0.938308 0.905638
0.211978 1 0.920607
0.289281 1 0.928847
0.37908 1 0.932906
0.505348 1 0.924758
0.633433 1 0.911711
0.752987 0.998489 0.900328
0.834577 0.997665 0.899046
0.887083 1 0.904082
0.941238 1 0.902754
0 0 0.794675
0.0277867 0 0.798993
0.115663 0 0.801114
0.25153 0 0.793591
0.388861 0 0.783352
0.513481 0 0.777035
0.60293 0 0.783612
0.668437 0 0.800351
0.733639 0.0019379 0.82118
0 0.0462806 0.808072
0.0493172 0.0543984 0.816159
0.143496 0.0621347 0.82385
0.286854 0.0621042 0.823606
0.431281 0.0607919 0.822065
0.56582 0.0645914 0.825681
0.665797 0.0816815 0.842771
0.741421 0.1084 0.869627
0.814725 0.137606 0.898985
0 0.14551 0.822232
0.0780499 0.162814 0.839643
0.183917 0.180758 0.857618
0.337377 0.191089 0.867872
0.488792 0.199207 0.875868
0.631037 0.210605 0.88719
0.735836 0.232456 0.909102
0.813214 0.260929 0.937713
0.886046 0.289677 0.966628
0.00564584 0.292012 0.834165
0.103227 0.318471 0.860716
0.21677 0.343206 0.885481
0.373541 0.357198 0.899413
0.524681 0.365927 0.908049
0.666423 0.376806 0.918868
0.771054 0.398581 0.940627
0.849027 0.427771 0.969818
0.922683 0.457603 0.999588
0.0319219 0.464042 0.856367
0.129412 0.490593 0.882841
0.242481 0.515007 0.907179
0.399145 0.529061 0.921172
0.551019 0.538643 0.930678
0.693019 0.549783 0.941756
0.796109 0.570077 0.961975
0.870741 0.596002 0.987823
0.939239 0.620676 1
0.0617838 0.635065 0.881575
0.160403 0.662593 0.909041
0.27303 0.68661 0.932982
0.426764 0.698436 0.944732
0.574258 0.70399 0.95021
0.71043 0.709316 0.955459
0.806226 0.722301 0.968383
0.872709 0.740093 0.986099
0.932937 0.756466 1
0.116945 0.793698 0.928771
0.210742 0.816541 0.951568
0.316136 0.834104 0.969039
0.459678 0.838117 0.972992
0.59791 0.835355 0.970153
0.725902 0.832486 0.967224
0.813947 0.837736 0.972381
0.873213 0.848295 0.982879
0.927062 0.858289 0.992798
0.17554 0.921416 0.97789
0.259831 0.935897 0.992294
0.355947 0.945357 1
0.488197 0.941619 0.997879
0.619547 0.931899 0.988098
0.741497 0.923003 0.97911
0.824567 0.923262 0.979294
0.879988 0.929976 0.985962
0.930983 0.937118 0.993011
0.212924 1 1
0.289662 1 1
0.379004 1 1
0.504997 1 1
0.632883 1 0.997726
0.752331 0.997513 0.986236
0.833906 0.996689 0.984939
0.888747 1 0.990997
0.940505 1 0.993255
0 0 0.871107
0.027985 0 0.875563
0.116197 0 0.877974
0.252552 0 0.870909
0.390402 0 0.86128
0.515877 0 0.855833
0.606287 0 0.863371
0.672847 0 0.881163
0.739178 0.00706493 0.90312
0 0.0470741 0.885603
0.0514076 0.0558785 0.894392
0.146639 0.0645457 0.902998
0.290929 0.0654917 0.903761
0.436072 0.0652171 0.903258
0.571771 0.0701305 0.908034
0.672694 0.0881666 0.92607
0.748959 0.115526 0.953567
0.822599 0.145068 0.983261
0 0.149279 0.902785
0.0840162 0.167681 0.921294
0.19115 0.186725 0.940398
0.345083 0.197864 0.951461
0.496483 0.206485 0.95996
0.638972 0.218112 0.971511
0.743664 0.239887 0.992935
0.820676 0.267964 1
0.893751 0.296986 1
0.0140993 0.299077 0.918013
0.112184 0.325978 0.944991
0.225834 0.35082 0.969451
0.381811 0.364599 0.983169
0.532189 0.373068 0.991562
0.674235 0.384253 1
0.778988 0.406149 1
0.856474 0.435294 1
0.930297 0.464912 1
0.0406043 0.471366 0.940414
0.138155 0.497963 0.966949
0.251484 0.522622 0.991104
0.407614 0.536706 1
0.558831 0.546136 1
0.700511 0.55697 1
0.803113 0.576761 1
0.877058 0.601999 1
0.944701 0.625834 1
0.0708324 0.64271 0.965942
0.169223 0.670039 0.992798
0.281422 0.693675 1
0.433982 0.704906 1
0.580285 0.709697 1
0.715587 0.714137 1
0.810529 0.726268 1
0.876204 0.743252 1
0.935668 0.758877 1
0.124422 0.799939 1
0.217288 0.821973 1
0.321675 0.838651 1
0.463661 0.841794 1
0.601114 0.838239 1
0.728359 0.834638 1
0.815717 0.839185 1
0.874434 0.849195 1
0.927855 0.858763 1
0.179782 0.924819 1
0.263203 0.938521 1
0.35845 0.94725 1
0.489738 0.94284 1
0.6206 0.932631 1
0.742153 0.923323 1
0.824918 0.923278 1
0.88014 0.929808 1
0.931029 0.936828 1
0.214496 1 1
0.2907 1 1
0.379614 1 1
0.505257 1 1
0.632975 1 1
0.752346 0.997208 1
0.833951 0.996399 1
0.888914 1 1
0.940169 1 1
