luts/07_VSCO LUTs_Contrast.cube
TITLE "Generated by Resolve"
LUT_3D_SIZE 5
0 0 0
0.138994 0.00247196 0
0.403906 0 0
0.608606 0 0
0.72575 0 0
0 0.148791 0
0.118883 0.184939 0.00939956
0.455695 0.175967 0.0155795
0.701564 0.200778 0.0420844
0.85272 0.258915 0.0998245
0 0.431479 0
0.197421 0.486473 0.0407721
0.463416 0.521828 0.0618906
0.763409 0.539651 0.0963607
0.913817 0.597513 0.153384
0.0835889 0.765194 0.0651408
0.292546 0.81471 0.113802
0.588159 0.827893 0.126925
0.815152 0.841215 0.140185
0.937407 0.870924 0.169665
0.219562 1 0.178866
0.394217 1 0.19826
0.65069 1 0.181689
0.853849 1 0.171298
0.959518 1 0.184329
0 0 0.148409
0.137575 0.000793469 0.154406
0.403571 0 0.13312
0.610285 0 0.126253
0.730968 0.000839246 0.153735
0 0.150958 0.160937
0.177127 0.175662 0.18555
0.47248 0.184634 0.194324
0.715679 0.214099 0.223667
0.867384 0.272786 0.282353
0.00994888 0.445548 0.171206
0.221805 0.497658 0.222873
0.479164 0.536934 0.229068
0.774044 0.554986 0.27631
0.926955 0.61001 0.334417
0.0991073 0.778851 0.246921
0.306355 0.826383 0.294011
0.589364 0.838666 0.3019
0.788403 0.857404 0.298497
0.940154 0.873014 0.340368
0.224521 1 0.351476
0.396078 1 0.36817
0.650813 1 0.349798
0.85301 1 0.338445
0.958495 1 0.351293
0 0 0.444358
0.125261 0 0.450172
0.394369 0 0.42977
0.603632 0 0.425223
0.728161 0 0.456611
0 0.145022 0.461707
0.175219 0.1738 0.490547
0.475517 0.187015 0.503502
0.720867 0.218616 0.535058
0.872267 0.277012 0.593774
0.0155642 0.450278 0.482536
0.226413 0.501503 0.533608
0.536095 0.524697 0.556664
0.782864 0.557809 0.589639
0.929854 0.612268 0.643961
0.103532 0.782513 0.557534
0.307927 0.827558 0.602426
0.595483 0.833906 0.608637
0.783627 0.851972 0.599847
0.931975 0.865293 0.636881
0.217365 1 0.652537
0.386557 1 0.66688
0.641093 1 0.646845
0.838483 1 0.633204
0.949416 1 0.632349
0 0 0.708797
0.116091 0 0.714916
0.388251 0 0.696178
0.600595 0 0.694713
0.729183 0 0.730175
0 0.142763 0.732586
0.177905 0.175814 0.765743
0.481926 0.192737 0.782437
0.728603 0.22565 0.81532
0.879118 0.283146 0.873152
0.0238956 0.457267 0.762707
0.234348 0.508141 0.813443
0.543832 0.531792 0.836942
0.789609 0.563897 0.86891
0.934142 0.6159 0.920775
0.110033 0.7879 0.836103
0.311055 0.829953 0.878004
0.595117 0.832883 0.880812
0.812619 0.836728 0.884504
0.926818 0.858381 0.906004
0.211978 1 0.920607
0.37908 1 0.932906
0.633433 1 0.911711
0.834577 0.997665 0.899046
0.941238 1 0.902754
0 0 0.871107
0.116197 0 0.877974
0.390402 0 0.86128
0.606287 0 0.863371
0.739178 0.00706493 0.90312
0 0.149279 0.902785
0.19115 0.186725 0.940398
0.496483 0.206485 0.95996
0.743664 0.239887 0.992935
0.893751 0.296986 1
0.0406043 0.471366 0.940414
0.251484 0.522622 0.991104
0.558831 0.546136 1
0.803113 0.576761 1
0.944701 0.625834 1
0.124422 0.799939 1
0.321675 0.838651 1
0.601114 0.838239 1
0.815717 0.839185 1
0.927855 0.858763 1
0.214496 1 1
0.379614 1 1
0.632975 1 1
0.833951 0.996399 1
0.940169 1 1
