luts/10_Inspired By Peter McKinnon LUTs_Dark Shadows.cube
LUT_3D_SIZE 6
-0.132818 -0.136580 -0.140448
0.116006 -0.136580 -0.140448
0.340717 -0.136580 -0.140448
0.594419 -0.136580 -0.140448
0.842360 -0.136580 -0.140448
1.046223 -0.136580 -0.140448
-0.132818 0.119949 -0.140448
0.116646 0.119949 -0.140448
0.340717 0.136967 -0.140448
0.594419 0.169650 -0.140448
0.842360 0.184527 -0.140448
1.046223 0.182216 -0.140448
-0.132818 0.350342 -0.140448
0.133195 0.350342 -0.140448
0.340717 0.350342 -0.140448
0.594419 0.399746 -0.140448
0.842360 0.423819 -0.140448
1.046223 0.420016 -0.140448
-0.132818 0.611265 -0.140448
0.164975 0.611265 -0.140448
0.388664 0.611265 -0.140448
0.594419 0.611265 -0.140448
0.842360 0.646560 -0.140448
1.046223 0.640972 -0.140448
-0.132818 0.865191 -0.140448
0.179131 0.865191 -0.140448
0.411570 0.865191 -0.140448
0.627918 0.865191 -0.140448
0.842360 0.866234 -0.140448
1.046223 0.858820 -0.140448
-0.132818 1.075886 -0.140448
0.177188 1.075886 -0.140448
0.408440 1.075886 -0.140448
0.623270 1.075886 -0.140448
0.835170 1.075886 -0.140448
1.046223 1.075886 -0.140448
-0.132818 -0.136580 0.123347
0.116646 -0.136580 0.123347
0.340717 -0.136580 0.140847
0.594419 -0.136580 0.174469
0.842360 -0.136580 0.189776
1.046223 -0.136580 0.187383
-0.132818 0.119949 0.123347
0.116006 0.119301 0.122678
0.340717 0.119949 0.123347
0.594419 0.119949 0.123347
0.842360 0.119949 0.123347
1.046223 0.119949 0.123347
-0.132818 0.350342 0.140847
0.116006 0.350342 0.122678
0.340717 0.350342 0.123347
0.594419 0.391542 0.123347
0.842360 0.410561 0.123347
1.046223 0.406113 0.123347
-0.132818 0.611265 0.174469
0.116006 0.611265 0.122678
0.380736 0.611265 0.123347
0.594419 0.611265 0.123347
0.842360 0.642061 0.123347
1.046223 0.634942 0.123347
-0.132818 0.865191 0.189434
0.116006 0.865191 0.122678
0.398768 0.865191 0.123347
0.623615 0.865191 0.123347
0.842360 0.866234 0.123347
1.046223 0.856559 0.123347
-0.132818 1.075886 0.187383
0.116006 1.075886 0.122678
0.394917 1.075886 0.123347
0.617455 1.075886 0.123347
0.832976 1.075886 0.123347
1.046223 1.075886 0.123347
-0.132818 -0.136580 0.360339
0.133195 -0.136580 0.360339
0.340717 -0.136580 0.360339
0.594419 -0.136580 0.411038
0.842360 -0.136580 0.435826
1.046223 -0.136580 0.431927
-0.132818 0.136967 0.360339
0.116006 0.119301 0.360339
0.340717 0.119949 0.360339
0.594419 0.119949 0.402660
0.842360 0.119949 0.422172
1.046223 0.119949 0.417633
-0.132818 0.350342 0.360339
0.116006 0.350342 0.360339
0.340717 0.350342 0.360339
0.594419 0.350342 0.360339
0.842360 0.350342 0.360339
1.046223 0.350342 0.360339
-0.132818 0.611265 0.411038
0.116006 0.611265 0.402565
0.340717 0.611265 0.360339
0.594419 0.611265 0.360339
0.842360 0.623934 0.360339
1.046223 0.612918 0.360339
-0.132818 0.865191 0.435282
0.116006 0.865191 0.421556
0.340717 0.865191 0.360339
0.606098 0.865191 0.360339
0.842360 0.866234 0.360339
1.046223 0.848166 0.360339
-0.132818 1.075886 0.431927
0.116006 1.075886 0.417539
0.340717 1.075886 0.360339
0.596041 1.075886 0.360339
0.824830 1.075886 0.360339
1.046223 1.075886 0.360339
-0.132818 -0.136580 0.628550
0.164975 -0.136580 0.628550
0.388664 -0.136580 0.628550
0.594419 -0.136580 0.628550
0.842360 -0.136580 0.664865
1.046223 -0.136580 0.659090
-0.132818 0.169650 0.628550
0.116006 0.119301 0.628550
0.380736 0.119949 0.628550
0.594419 0.119949 0.628550
0.842360 0.119949 0.660252
1.046223 0.119949 0.652961
-0.132818 0.399746 0.628550
0.116006 0.391448 0.628550
0.340717 0.350342 0.628550
0.594419 0.350342 0.628550
0.842360 0.350342 0.641636
1.046223 0.350342 0.630325
-0.132818 0.611265 0.628550
0.116006 0.611265 0.628550
0.340717 0.611265 0.628550
0.594419 0.611265 0.628550
0.842360 0.611265 0.628550
1.046224 0.611265 0.628550
-0.132818 0.865191 0.664008
0.116006 0.865191 0.659464
0.340717 0.865191 0.640960
0.594419 0.865191 0.628550
0.842360 0.866234 0.628550
1.046224 0.847527 0.628550
-0.132818 1.075886 0.659090
0.116006 1.075886 0.652910
0.340717 1.075886 0.630325
0.594419 1.075886 0.628550
0.824214 1.075886 0.628550
1.046224 1.075886 0.628550
-0.132818 -0.136580 0.889680
0.179131 -0.136580 0.889680
0.411570 -0.136580 0.889680
0.627918 -0.136580 0.889680
0.842360 -0.136580 0.890786
1.046223 -0.136580 0.883189
-0.132818 0.184217 0.889680
0.116006 0.119301 0.889680
0.398768 0.119949 0.889680
0.623615 0.119949 0.889680
0.842360 0.119949 0.890786
1.046223 0.119949 0.880806
-0.132818 0.423255 0.889680
0.116006 0.409922 0.889680
0.340717 0.350342 0.889680
0.606098 0.350342 0.889680
0.842360 0.350342 0.890786
1.046223 0.350342 0.872243
-0.132818 0.645707 0.889680
0.116006 0.641263 0.889680
0.340717 0.623258 0.889680
0.594419 0.611265 0.889680
0.842360 0.611265 0.890786
1.046224 0.611265 0.871569
-0.132818 0.865191 0.889680
0.116006 0.865191 0.889680
0.340717 0.865191 0.889680
0.594419 0.865191 0.889680
0.841370 0.865191 0.889680
1.046223 0.865191 0.889680
-0.132818 1.075886 0.883189
0.116006 1.075886 0.880781
0.340717 1.075886 0.872243
0.594419 1.075886 0.871569
0.841370 1.075886 0.889680
1.046223 1.075886 0.889680
-0.132818 -0.136580 1.106353
0.177188 -0.136580 1.106353
0.408440 -0.136580 1.106353
0.623270 -0.136580 1.106353
0.835170 -0.136580 1.106353
1.046223 -0.136580 1.106353
-0.132818 0.182216 1.106353
0.116006 0.119301 1.106353
0.394917 0.119949 1.106353
0.617455 0.119949 1.106353
0.832976 0.119949 1.106353
1.046223 0.119949 1.106353
-0.132818 0.420016 1.106353
0.116006 0.406013 1.106353
0.340717 0.350342 1.106353
0.596041 0.350342 1.106353
0.824830 0.350342 1.106353
1.046223 0.350342 1.106353
-0.132818 0.640972 1.106353
0.116006 0.634894 1.106353
0.340717 0.612918 1.106353
0.594419 0.611265 1.106353
0.824214 0.611265 1.106353
1.046224 0.611265 1.106353
-0.132818 0.858820 1.106353
0.116006 0.856536 1.106353
0.340717 0.848166 1.106353
0.594419 0.847527 1.106353
0.841370 0.865191 1.106353
1.046223 0.865191 1.106353
-0.132818 1.075886 1.106353
0.116006 1.075886 1.106353
0.340717 1.075886 1.106353
0.594419 1.075886 1.106353
0.842360 1.075886 1.106353
1.046223 1.075886 1.106353
