luts/10_Inspired By Peter McKinnon LUTs_Dark Shadows.cube
LUT_3D_SIZE 16
-0.132818 -0.136580 -0.140448
-0.120099 -0.136580 -0.140448
0.035095 -0.136580 -0.140448
0.116006 -0.136580 -0.140448
0.185601 -0.136580 -0.140448
0.260494 -0.136580 -0.140448
0.340717 -0.136580 -0.140448
0.424591 -0.136580 -0.140448
0.510053 -0.136580 -0.140448
0.594419 -0.136580 -0.140448
0.676856 -0.136580 -0.140448
0.760980 -0.136580 -0.140448
0.842360 -0.136580 -0.140448
0.918699 -0.136580 -0.140448
0.975988 -0.136580 -0.140448
1.046223 -0.136580 -0.140448
-0.132818 -0.123506 -0.140448
-0.120099 -0.123506 -0.140448
0.035095 -0.124634 -0.140448
0.116006 -0.129289 -0.140448
0.185601 -0.129738 -0.140448
0.260494 -0.129076 -0.140448
0.340717 -0.128028 -0.140448
0.424591 -0.126898 -0.140448
0.510053 -0.125830 -0.140448
0.594419 -0.124967 -0.140448
0.676856 -0.124302 -0.140448
0.760980 -0.123664 -0.140448
0.842360 -0.123211 -0.140448
0.918699 -0.123013 -0.140448
0.975988 -0.123501 -0.140448
1.046223 -0.123506 -0.140448
-0.132818 0.036147 -0.140448
-0.121196 0.036147 -0.140448
0.035152 0.036147 -0.140448
0.116006 -0.088079 -0.140448
0.185601 -0.092015 -0.140448
0.260494 -0.086110 -0.140448
0.340717 -0.075562 -0.140448
0.424591 -0.061254 -0.140448
0.510053 -0.041466 -0.140448
0.594419 0.023005 -0.140448
0.676856 0.044460 -0.140448
0.760980 0.056376 -0.140448
0.842360 0.062998 -0.140448
0.918699 0.065600 -0.140448
0.975988 0.058969 -0.140448
1.046223 0.058914 -0.140448
-0.132818 0.119949 -0.140448
-0.125684 0.119949 -0.140448
-0.085274 0.119949 -0.140448
0.116646 0.119949 -0.140448
0.185601 0.111954 -0.140448
0.260494 0.122578 -0.140448
0.340717 0.136967 -0.140448
0.424591 0.150375 -0.140448
0.510053 0.161485 -0.140448
0.594419 0.169650 -0.140448
0.676856 0.175480 -0.140448
0.760980 0.180859 -0.140448
0.842360 0.184527 -0.140448
0.918699 0.186105 -0.140448
0.975988 0.182252 -0.140448
1.046223 0.182216 -0.140448
-0.132818 0.191346 -0.140448
-0.126138 0.191346 -0.140448
-0.089233 0.191346 -0.140448
0.109374 0.191346 -0.140448
0.186081 0.191346 -0.140448
0.260494 0.201203 -0.140448
0.340717 0.215968 -0.140448
0.424591 0.230411 -0.140448
0.510053 0.242750 -0.140448
0.594419 0.252050 -0.140448
0.676856 0.258773 -0.140448
0.760980 0.265036 -0.140448
0.842360 0.269326 -0.140448
0.918699 0.271172 -0.140448
0.975988 0.266649 -0.140448
1.046223 0.266622 -0.140448
-0.132818 0.268220 -0.140448
-0.125495 0.268220 -0.140448
-0.083557 0.268220 -0.140448
0.119487 0.268220 -0.140448
0.195945 0.268220 -0.140448
0.260819 0.268220 -0.140448
0.340717 0.284908 -0.140448
0.424591 0.301711 -0.140448
0.510053 0.316238 -0.140448
0.594419 0.327225 -0.140448
0.676856 0.335212 -0.140448
0.760980 0.342684 -0.140448
0.842360 0.347805 -0.140448
0.918699 0.350007 -0.140448
0.975988 0.344586 -0.140448
1.046223 0.344546 -0.140448
-0.132818 0.350342 -0.140448
-0.124506 0.350342 -0.140448
-0.073481 0.350342 -0.140448
0.133195 0.350342 -0.140448
0.210001 0.350342 -0.140448
0.277038 0.350342 -0.140448
0.340717 0.350342 -0.140448
0.424591 0.369939 -0.140448
0.510053 0.386853 -0.140448
0.594419 0.399746 -0.140448
0.676856 0.409063 -0.140448
0.760980 0.417809 -0.140448
0.842360 0.423819 -0.140448
0.918699 0.426410 -0.140448
0.975988 0.420044 -0.140448
1.046223 0.420016 -0.140448
-0.132818 0.436610 -0.140448
-0.123398 0.436610 -0.140448
-0.059567 0.436610 -0.140448
0.146227 0.436610 -0.140448
0.224045 0.436610 -0.140448
0.293402 0.436610 -0.140448
0.359749 0.436610 -0.140448
0.424591 0.436610 -0.140448
0.510053 0.456064 -0.140448
0.594419 0.470861 -0.140448
0.676856 0.481620 -0.140448
0.760980 0.491695 -0.140448
0.842360 0.498652 -0.140448
0.918699 0.501586 -0.140448
0.975988 0.494294 -0.140448
1.046223 0.494249 -0.140448
-0.132818 0.524512 -0.140448
-0.122366 0.524512 -0.140448
-0.040320 0.524512 -0.140448
0.157022 0.524512 -0.140448
0.236059 0.524512 -0.140448
0.307522 0.524512 -0.140448
0.376180 0.524512 -0.140448
0.443500 0.524512 -0.140448
0.510053 0.524512 -0.140448
0.594419 0.541303 -0.140448
0.676856 0.553502 -0.140448
0.760980 0.564925 -0.140448
0.842360 0.572793 -0.140448
0.918699 0.576166 -0.140448
0.975988 0.567897 -0.140448
1.046223 0.567802 -0.140448
-0.132818 0.611265 -0.140448
-0.121519 0.611265 -0.140448
0.022373 0.611265 -0.140448
0.164975 0.611265 -0.140448
0.245105 0.611265 -0.140448
0.318222 0.611265 -0.140448
0.388664 0.611265 -0.140448
0.457893 0.611265 -0.140448
0.526387 0.611265 -0.140448
0.594419 0.611265 -0.140448
0.676856 0.624910 -0.140448
0.760980 0.637718 -0.140448
0.842360 0.646560 -0.140448
0.918699 0.650279 -0.140448
0.975988 0.641048 -0.140448
1.046223 0.640972 -0.140448
-0.132818 0.696892 -0.140448
-0.120843 0.696892 -0.140448
0.044095 0.696892 -0.140448
0.170993 0.696892 -0.140448
0.252024 0.696892 -0.140448
0.326453 0.696892 -0.140448
0.398348 0.696892 -0.140448
0.468985 0.696892 -0.140448
0.538919 0.696892 -0.140448
0.608466 0.696892 -0.140448
0.677702 0.696892 -0.140448
0.760980 0.710178 -0.140448
0.842360 0.719921 -0.140448
0.918699 0.724053 -0.140448
0.975988 0.713788 -0.140448
1.046223 0.713786 -0.140448
-0.132818 0.781862 -0.140448
-0.120283 0.781862 -0.140448
0.054409 0.781862 -0.140448
0.175683 0.781862 -0.140448
0.257487 0.781862 -0.140448
0.332952 0.781862 -0.140448
0.405937 0.781862 -0.140448
0.477757 0.781862 -0.140448
0.548902 0.781862 -0.140448
0.619628 0.781862 -0.140448
0.690005 0.781862 -0.140448
0.760980 0.782490 -0.140448
0.842360 0.793239 -0.140448
0.918699 0.797834 -0.140448
0.975988 0.786515 -0.140448
1.046223 0.786409 -0.140448
-0.132818 0.865191 -0.140448
-0.119860 0.865191 -0.140448
0.060711 0.865191 -0.140448
0.179131 0.865191 -0.140448
0.261529 0.865191 -0.140448
0.337763 0.865191 -0.140448
0.411570 0.865191 -0.140448
0.484279 0.865191 -0.140448
0.556286 0.865191 -0.140448
0.627918 0.865191 -0.140448
0.699223 0.865191 -0.140448
0.770366 0.865191 -0.140448
0.842360 0.866234 -0.140448
0.918699 0.871243 -0.140448
0.975988 0.858943 -0.140448
1.046223 0.858820 -0.140448
-0.132818 0.943822 -0.140448
-0.119655 0.943822 -0.140448
0.063349 0.943822 -0.140448
0.180702 0.943822 -0.140448
0.263385 0.943822 -0.140448
0.339976 0.943822 -0.140448
0.414199 0.943822 -0.140448
0.487275 0.943822 -0.140448
0.559705 0.943822 -0.140448
0.631704 0.943822 -0.140448
0.703434 0.943822 -0.140448
0.775027 0.943822 -0.140448
0.846373 0.943822 -0.140448
0.918699 0.944785 -0.140448
0.975988 0.931432 -0.140448
1.046223 0.931397 -0.140448
-0.132818 1.003677 -0.140448
-0.120095 1.003677 -0.140448
0.057343 1.003677 -0.140448
0.177223 1.003677 -0.140448
0.259298 1.003677 -0.140448
0.335100 1.003677 -0.140448
0.408477 1.003677 -0.140448
0.480670 1.003677 -0.140448
0.552202 1.003677 -0.140448
0.623342 1.003677 -0.140448
0.694202 1.003677 -0.140448
0.764812 1.003677 -0.140448
0.835287 1.003677 -0.140448
0.905772 1.003677 -0.140448
0.975988 1.003677 -0.140448
1.046223 1.003568 -0.140448
-0.132818 1.075886 -0.140448
-0.120099 1.075886 -0.140448
0.057291 1.075886 -0.140448
0.177188 1.075886 -0.140448
0.259271 1.075886 -0.140448
0.335069 1.075886 -0.140448
0.408440 1.075886 -0.140448
0.480632 1.075886 -0.140448
0.552170 1.075886 -0.140448
0.623270 1.075886 -0.140448
0.694113 1.075886 -0.140448
0.764817 1.075886 -0.140448
0.835170 1.075886 -0.140448
0.905725 1.075886 -0.140448
0.975927 1.075886 -0.140448
1.046223 1.075886 -0.140448
-0.132818 -0.136580 -0.126999
-0.120099 -0.136580 -0.126999
0.035095 -0.136580 -0.128166
0.116006 -0.136580 -0.132956
0.185601 -0.136580 -0.133418
0.260494 -0.136580 -0.132735
0.340717 -0.136580 -0.131655
0.424591 -0.136580 -0.130493
0.510053 -0.136580 -0.129391
0.594419 -0.136580 -0.128504
0.676856 -0.136580 -0.127826
0.760980 -0.136580 -0.127164
0.842360 -0.136580 -0.126707
0.918699 -0.136580 -0.126500
0.975988 -0.136580 -0.127005
1.046223 -0.136580 -0.126999
-0.132818 -0.123506 -0.126999
-0.120099 -0.123506 -0.126999
0.035094 -0.123506 -0.126999
0.116006 -0.123506 -0.126999
0.185601 -0.123506 -0.126999
0.260494 -0.123506 -0.126999
0.340717 -0.123506 -0.126999
0.424591 -0.123506 -0.126999
0.510053 -0.123506 -0.126999
0.594419 -0.123506 -0.126999
0.676856 -0.123506 -0.126999
0.760980 -0.123506 -0.126999
0.842360 -0.123506 -0.126999
0.918699 -0.123506 -0.126999
0.975988 -0.123506 -0.126999
1.046223 -0.123506 -0.126999
-0.132818 0.036147 -0.128164
-0.120099 0.036147 -0.126999
0.035152 0.036147 -0.126999
0.116006 -0.081277 -0.126999
0.185601 -0.083237 -0.126999
0.260494 -0.076754 -0.126999
0.340717 -0.066033 -0.126999
0.424591 -0.051276 -0.126999
0.510053 -0.027973 -0.126999
0.594419 0.034173 -0.126999
0.676856 0.047633 -0.126999
0.760980 0.056862 -0.126999
0.842360 0.062263 -0.126999
0.918699 0.064420 -0.126999
0.975988 0.058959 -0.126999
1.046223 0.058915 -0.126999
-0.132818 0.119949 -0.132914
-0.120099 0.119949 -0.126999
-0.078675 0.119949 -0.126999
0.116646 0.119949 -0.126999
0.185601 0.115704 -0.126999
0.260494 0.126685 -0.126999
0.340717 0.140221 -0.126999
0.424591 0.152659 -0.126999
0.510053 0.162934 -0.126999
0.594419 0.170536 -0.126999
0.676856 0.175962 -0.126999
0.760980 0.180969 -0.126999
0.842360 0.184363 -0.126999
0.918699 0.185842 -0.126999
0.975988 0.182250 -0.126999
1.046223 0.182216 -0.126999
-0.132818 0.191346 -0.133384
-0.120099 0.191346 -0.126999
-0.080695 0.191346 -0.126999
0.112980 0.191346 -0.126999
0.186081 0.191346 -0.126999
0.260494 0.202409 -0.126999
0.340717 0.217300 -0.126999
0.424591 0.231481 -0.126999
0.510053 0.243497 -0.126999
0.594419 0.252521 -0.126999
0.676856 0.259028 -0.126999
0.760980 0.265102 -0.126999
0.842360 0.269238 -0.126999
0.918699 0.271021 -0.126999
0.975988 0.266647 -0.126999
1.046223 0.266622 -0.126999
-0.132818 0.268220 -0.132715
-0.120099 0.268220 -0.126999
-0.074463 0.268220 -0.126999
0.123449 0.268220 -0.126999
0.197118 0.268220 -0.126999
0.260819 0.268220 -0.126999
0.340717 0.285419 -0.126999
0.424591 0.302259 -0.126999
0.510053 0.316668 -0.126999
0.594419 0.327532 -0.126999
0.676856 0.335377 -0.126999
0.760980 0.342716 -0.126999
0.842360 0.347725 -0.126999
0.918699 0.349898 -0.126999
0.975988 0.344586 -0.126999
1.046223 0.344546 -0.126999
-0.132818 0.350342 -0.131655
-0.120099 0.350342 -0.126999
-0.064212 0.350342 -0.126999
0.136356 0.350342 -0.126999
0.211302 0.350342 -0.126999
0.277551 0.350342 -0.126999
0.340717 0.350342 -0.126999
0.424591 0.370163 -0.126999
0.510053 0.387108 -0.126999
0.594419 0.399917 -0.126999
0.676856 0.409189 -0.126999
0.760980 0.417848 -0.126999
0.842360 0.423773 -0.126999
0.918699 0.426333 -0.126999
0.975988 0.420043 -0.126999
1.046223 0.420016 -0.126999
-0.132818 0.436610 -0.130493
-0.120099 0.436610 -0.126999
-0.049861 0.436610 -0.126999
0.148452 0.436610 -0.126999
0.225107 0.436610 -0.126999
0.293961 0.436610 -0.126999
0.359954 0.436610 -0.126999
0.424591 0.436610 -0.126999
0.510053 0.456164 -0.126999
0.594419 0.470960 -0.126999
0.676856 0.481675 -0.126999
0.760980 0.491715 -0.126999
0.842360 0.498615 -0.126999
0.918699 0.501562 -0.126999
0.975988 0.494294 -0.126999
1.046223 0.494249 -0.126999
-0.132818 0.524512 -0.129391
-0.120099 0.524512 -0.126999
-0.027203 0.524512 -0.126999
0.158461 0.524512 -0.126999
0.236787 0.524512 -0.126999
0.307943 0.524512 -0.126999
0.376423 0.524512 -0.126999
0.443602 0.524512 -0.126999
0.510053 0.524512 -0.126999
0.594419 0.541318 -0.126999
0.676856 0.553504 -0.126999
0.760980 0.564935 -0.126999
0.842360 0.572773 -0.126999
0.918699 0.576129 -0.126999
0.975988 0.567897 -0.126999
1.046223 0.567802 -0.126999
-0.132818 0.611265 -0.128504
-0.120099 0.611265 -0.126999
0.033232 0.611265 -0.126999
0.165833 0.611265 -0.126999
0.245560 0.611265 -0.126999
0.318502 0.611265 -0.126999
0.388848 0.611265 -0.126999
0.457971 0.611265 -0.126999
0.526406 0.611265 -0.126999
0.594419 0.611265 -0.126999
0.676856 0.624929 -0.126999
0.760980 0.637724 -0.126999
0.842360 0.646544 -0.126999
0.918699 0.650249 -0.126999
0.975988 0.641048 -0.126999
1.046223 0.640972 -0.126999
-0.132818 0.696892 -0.127790
-0.120099 0.696892 -0.126999
0.046952 0.696892 -0.126999
0.171404 0.696892 -0.126999
0.252267 0.696892 -0.126999
0.326586 0.696892 -0.126999
0.398420 0.696892 -0.126999
0.469022 0.696892 -0.126999
0.538970 0.696892 -0.126999
0.608483 0.696892 -0.126999
0.677702 0.696892 -0.126999
0.760980 0.710182 -0.126999
0.842360 0.719906 -0.126999
0.918699 0.724106 -0.126999
0.975988 0.713787 -0.126999
1.046223 0.713786 -0.126999
-0.132818 0.781862 -0.127190
-0.120099 0.781862 -0.126999
0.054963 0.781862 -0.126999
0.175786 0.781862 -0.126999
0.257543 0.781862 -0.126999
0.332979 0.781862 -0.126999
0.405978 0.781862 -0.126999
0.477778 0.781862 -0.126999
0.548918 0.781862 -0.126999
0.619636 0.781862 -0.126999
0.690051 0.781862 -0.126999
0.760980 0.782490 -0.126999
0.842360 0.793234 -0.126999
0.918699 0.797820 -0.126999
0.975988 0.786514 -0.126999
1.046223 0.786409 -0.126999
-0.132818 0.865191 -0.126744
-0.120099 0.865191 -0.126999
0.060091 0.865191 -0.126999
0.179005 0.865191 -0.126999
0.261456 0.865191 -0.126999
0.337716 0.865191 -0.126999
0.411599 0.865191 -0.126999
0.484249 0.865191 -0.126999
0.556261 0.865191 -0.126999
0.627905 0.865191 -0.126999
0.699215 0.865191 -0.126999
0.770362 0.865191 -0.126999
0.842360 0.866234 -0.126999
0.918699 0.871235 -0.126999
0.975988 0.858943 -0.126999
1.046223 0.858820 -0.126999
-0.132818 0.943822 -0.126540
-0.120099 0.943822 -0.126999
0.062274 0.943822 -0.126999
0.180449 0.943822 -0.126999
0.263236 0.943822 -0.126999
0.339868 0.943822 -0.126999
0.414142 0.943822 -0.126999
0.487217 0.943822 -0.126999
0.559633 0.943822 -0.126999
0.631678 0.943822 -0.126999
0.703414 0.943822 -0.126999
0.775014 0.943822 -0.126999
0.846367 0.943822 -0.126999
0.918699 0.944785 -0.126999
0.975988 0.931432 -0.126999
1.046223 0.931397 -0.126999
-0.132818 1.003677 -0.127005
-0.120099 1.003677 -0.126999
0.057335 1.003677 -0.126999
0.177220 1.003677 -0.126999
0.259297 1.003677 -0.126999
0.335099 1.003677 -0.126999
0.408476 1.003677 -0.126999
0.480669 1.003677 -0.126999
0.552202 1.003677 -0.126999
0.623342 1.003677 -0.126999
0.694202 1.003677 -0.126999
0.764812 1.003677 -0.126999
0.835287 1.003677 -0.126999
0.905772 1.003677 -0.126999
0.975988 1.003677 -0.126999
1.046223 1.003568 -0.126999
-0.132818 1.075886 -0.126999
-0.120099 1.075886 -0.126999
0.057291 1.075886 -0.126999
0.177188 1.075886 -0.126999
0.259271 1.075886 -0.126999
0.335069 1.075886 -0.126999
0.408440 1.075886 -0.126999
0.480632 1.075886 -0.126999
0.552170 1.075886 -0.126999
0.623270 1.075886 -0.126999
0.694113 1.075886 -0.126999
0.764817 1.075886 -0.126999
0.835170 1.075886 -0.126999
0.905724 1.075886 -0.126999
0.975927 1.075886 -0.126999
1.046223 1.075886 -0.126999
-0.132818 -0.136580 0.037173
-0.121196 -0.136580 0.037173
0.035152 -0.136580 0.037173
0.116006 -0.136580 -0.090582
0.185601 -0.136580 -0.094626
0.260494 -0.136580 -0.088549
0.340717 -0.136580 -0.077703
0.424591 -0.136580 -0.062991
0.510053 -0.136580 -0.042641
0.594419 -0.136580 0.023658
0.676856 -0.136580 0.045721
0.760980 -0.136580 0.057972
0.842360 -0.136580 0.064785
0.918699 -0.136580 0.067459
0.975988 -0.136580 0.060641
1.046223 -0.136580 0.060585
-0.132818 -0.124631 0.037173
-0.120099 -0.123506 0.037173
0.035152 -0.123506 0.037173
0.116006 -0.123506 -0.083583
0.185601 -0.123506 -0.085596
0.260494 -0.123506 -0.078928
0.340717 -0.123506 -0.067903
0.424591 -0.123506 -0.052728
0.510053 -0.123506 -0.028768
0.594419 -0.123506 0.035141
0.676856 -0.123506 0.048982
0.760980 -0.123506 0.058473
0.842360 -0.123506 0.064029
0.918699 -0.123506 0.066244
0.975988 -0.123506 0.060630
1.046223 -0.123506 0.060586
-0.132818 0.036147 0.037173
-0.120099 0.036147 0.037173
0.035095 0.036089 0.037112
0.116006 0.036147 0.037173
0.185601 0.036147 0.037173
0.260494 0.036147 0.037173
0.340717 0.036147 0.037173
0.424591 0.036147 0.037173
0.510053 0.036147 0.037173
0.594419 0.036147 0.037173
0.676856 0.036147 0.037173
0.760980 0.036147 0.037173
0.842360 0.036147 0.037173
0.918699 0.036147 0.037173
0.975988 0.036147 0.037173
1.046223 0.036147 0.037173
-0.132818 0.119949 -0.090182
-0.120099 0.119949 -0.083200
0.035095 0.119949 0.037112
0.116646 0.119949 0.037173
0.185601 0.129754 0.037173
0.260494 0.140304 0.037173
0.340717 0.150075 0.037173
0.424591 0.158571 0.037173
0.510053 0.165562 0.037173
0.594419 0.170737 0.037173
0.676856 0.174462 0.037173
0.760980 0.177909 0.037173
0.842360 0.180278 0.037173
0.918699 0.181277 0.037173
0.975988 0.178750 0.037173
1.046223 0.178749 0.037173
-0.132818 0.191346 -0.094365
-0.120099 0.191346 -0.085335
0.035095 0.191346 0.037112
0.126497 0.191346 0.037173
0.186081 0.191346 0.037173
0.260494 0.206820 0.037173
0.340717 0.221528 0.037173
0.424591 0.234330 0.037173
0.510053 0.244842 0.037173
0.594419 0.252628 0.037173
0.676856 0.258203 0.037173
0.760980 0.263397 0.037173
0.842360 0.266936 0.037173
0.918699 0.268433 0.037173
0.975988 0.264677 0.037173
1.046223 0.264629 0.037173
-0.132818 0.268220 -0.088363
-0.120099 0.268220 -0.078746
0.035095 0.268220 0.037112
0.136605 0.268220 0.037173
0.201361 0.268220 0.037173
0.260819 0.268220 0.037173
0.340717 0.287077 0.037173
0.424591 0.303748 0.037173
0.510053 0.317441 0.037173
0.594419 0.327588 0.037173
0.676856 0.334873 0.037173
0.760980 0.341616 0.037173
0.842360 0.346215 0.037173
0.918699 0.348181 0.037173
0.975988 0.343277 0.037173
1.046223 0.343225 0.037173
-0.132818 0.350342 -0.077703
-0.120099 0.350342 -0.067903
0.035095 0.350342 0.037112
0.145933 0.350342 0.037173
0.215447 0.350342 0.037173
0.279178 0.350342 0.037173
0.340717 0.350342 0.037173
0.424591 0.370797 0.037173
0.510053 0.387541 0.037173
0.594419 0.399925 0.037173
0.676856 0.408826 0.037173
0.760980 0.417098 0.037173
0.842360 0.422713 0.037173
0.918699 0.425100 0.037173
0.975988 0.419103 0.037173
1.046223 0.419047 0.037173
-0.132818 0.436610 -0.062991
-0.120099 0.436610 -0.052728
0.035095 0.436610 0.037112
0.154195 0.436610 0.037173
0.227873 0.436610 0.037173
0.295378 0.436610 0.037173
0.360562 0.436610 0.037173
0.424591 0.436610 0.037173
0.510053 0.456351 0.037173
0.594419 0.470989 0.037173
0.676856 0.481465 0.037173
0.760980 0.491198 0.037173
0.842360 0.497827 0.037173
0.918699 0.500646 0.037173
0.975988 0.493604 0.037173
1.046223 0.493507 0.037173
-0.132818 0.524512 -0.042641
-0.120099 0.524512 -0.028768
0.035095 0.524512 0.037112
0.160996 0.524512 0.037173
0.238091 0.524512 0.037173
0.308693 0.524512 0.037173
0.376839 0.524512 0.037173
0.443778 0.524512 0.037173
0.510053 0.524512 0.037173
0.594419 0.541332 0.037173
0.676856 0.553375 0.037173
0.760980 0.564613 0.037173
0.842360 0.572240 0.037173
0.918699 0.575484 0.037173
0.975988 0.567362 0.037173
1.046223 0.567246 0.037173
-0.132818 0.611265 0.023658
-0.120099 0.611265 0.035141
0.035095 0.611265 0.037112
0.166046 0.611265 0.037173
0.245669 0.611265 0.037173
0.318560 0.611265 0.037173
0.388910 0.611265 0.037173
0.457998 0.611265 0.037173
0.526420 0.611265 0.037173
0.594419 0.611265 0.037173
0.676856 0.624868 0.037173
0.760980 0.637507 0.037173
0.842360 0.646154 0.037173
0.918699 0.649781 0.037173
0.975988 0.640664 0.037173
1.046223 0.640491 0.037173
-0.132818 0.696892 0.046629
-0.120099 0.696892 0.049655
0.035095 0.696892 0.037112
0.169856 0.696892 0.037173
0.251414 0.696892 0.037173
0.326041 0.696892 0.037173
0.398056 0.696892 0.037173
0.468811 0.696892 0.037173
0.538832 0.696892 0.037173
0.608439 0.696892 0.037173
0.677702 0.696892 0.037173
0.760980 0.710096 0.037173
0.842360 0.719614 0.037173
0.918699 0.723726 0.037173
0.975988 0.713511 0.037173
1.046223 0.713396 0.037173
-0.132818 0.781862 0.057537
-0.120099 0.781862 0.058123
0.035095 0.781862 0.037112
0.172860 0.781862 0.037173
0.255930 0.781862 0.037173
0.331936 0.781862 0.037173
0.405265 0.781862 0.037173
0.477267 0.781862 0.037173
0.548572 0.781862 0.037173
0.619429 0.781862 0.037173
0.689946 0.781862 0.037173
0.760980 0.782490 0.037173
0.842360 0.793110 0.037173
0.918699 0.797578 0.037173
0.975988 0.786367 0.037173
1.046223 0.786239 0.037173
-0.132818 0.865191 0.064201
-0.120099 0.865191 0.063545
0.035095 0.865191 0.037112
0.175093 0.865191 0.037173
0.259264 0.865191 0.037173
0.336266 0.865191 0.037173
0.410539 0.865191 0.037173
0.483523 0.865191 0.037173
0.555782 0.865191 0.037173
0.627575 0.865191 0.037173
0.699018 0.865191 0.037173
0.770358 0.865191 0.037173
0.842360 0.866234 0.037173
0.918699 0.871178 0.037173
0.975988 0.858841 0.037173
1.046223 0.858721 0.037173
-0.132818 0.943822 0.066988
-0.120099 0.943822 0.065856
0.035095 0.943821 0.037112
0.176090 0.943821 0.037173
0.260770 0.943821 0.037173
0.338234 0.943821 0.037173
0.412965 0.943821 0.037173
0.486369 0.943821 0.037173
0.559050 0.943821 0.037173
0.631267 0.943821 0.037173
0.703131 0.943821 0.037173
0.774788 0.943821 0.037173
0.846302 0.943821 0.037173
0.918699 0.944785 0.037173
0.975988 0.931458 0.037173
1.046223 0.931280 0.037173
-0.132818 1.003677 0.060641
-0.120099 1.003677 0.060630
0.035095 1.003677 0.037112
0.173828 1.003677 0.037173
0.257375 1.003677 0.037173
0.333822 1.003677 0.037173
0.407556 1.003677 0.037173
0.479987 1.003677 0.037173
0.551730 1.003677 0.037173
0.622966 1.003677 0.037173
0.693880 1.003677 0.037173
0.764696 1.003677 0.037173
0.835134 1.003677 0.037173
0.905783 1.003677 0.037173
0.975988 1.003677 0.037173
1.046223 1.003519 0.037173
-0.132818 1.075886 0.060585
-0.120099 1.075886 0.060586
0.035095 1.075886 0.037112
0.173809 1.075886 0.037173
0.257339 1.075886 0.037173
0.333760 1.075886 0.037173
0.407497 1.075886 0.037173
0.479923 1.075886 0.037173
0.551636 1.075886 0.037173
0.622860 1.075886 0.037173
0.693754 1.075886 0.037173
0.764552 1.075886 0.037173
0.835078 1.075886 0.037173
0.905588 1.075886 0.037173
0.975857 1.075886 0.037173
1.046223 1.075886 0.037173
-0.132818 -0.136580 0.123347
-0.125684 -0.136580 0.123347
-0.085274 -0.136580 0.123347
0.116646 -0.136580 0.123347
0.185601 -0.136580 0.115129
0.260494 -0.136580 0.126050
0.340717 -0.136580 0.140847
0.424591 -0.136580 0.154640
0.510053 -0.136580 0.166052
0.594419 -0.136580 0.174469
0.676856 -0.136580 0.180449
0.760980 -0.136580 0.186013
0.842360 -0.136580 0.189776
0.918699 -0.136580 0.191372
0.975988 -0.136580 0.187414
1.046223 -0.136580 0.187383
-0.132818 -0.129255 0.123347
-0.120099 -0.123506 0.123347
-0.078675 -0.123506 0.123347
0.116646 -0.123506 0.123347
0.185601 -0.123506 0.118982
0.260494 -0.123506 0.130270
0.340717 -0.123506 0.144200
0.424591 -0.123506 0.156979
0.510053 -0.123506 0.167555
0.594419 -0.123506 0.175361
0.676856 -0.123506 0.180937
0.760980 -0.123506 0.186103
0.842360 -0.123506 0.189611
0.918699 -0.123506 0.191098
0.975988 -0.123506 0.187412
1.046223 -0.123506 0.187383
-0.132818 -0.087697 0.123347
-0.120099 -0.080905 0.123347
0.035095 0.036089 0.123347
0.116646 0.036147 0.123347
0.185601 0.036147 0.133439
0.260494 0.036147 0.144290
0.340717 0.036147 0.154328
0.424591 0.036147 0.163059
0.510053 0.036147 0.170243
0.594419 0.036147 0.175599
0.676856 0.036147 0.179404
0.760980 0.036147 0.182948
0.842360 0.036147 0.185392
0.918699 0.036147 0.186418
0.975988 0.036147 0.183828
1.046223 0.036147 0.183793
-0.132818 0.119949 0.123347
-0.120099 0.119949 0.123347
0.035095 0.119949 0.123347
0.116006 0.119301 0.122678
0.185601 0.119949 0.123347
0.260494 0.119949 0.123347
0.340717 0.119949 0.123347
0.424591 0.119949 0.123347
0.510053 0.119949 0.123347
0.594419 0.119949 0.123347
0.676856 0.119949 0.123347
0.760980 0.119949 0.123347
0.842360 0.119949 0.123347
0.918699 0.119949 0.123347
0.975988 0.119949 0.123347
1.046223 0.119949 0.123347
-0.132818 0.191346 0.115664
-0.120099 0.191346 0.119471
0.035095 0.191346 0.133763
0.116006 0.191346 0.122678
0.186081 0.191346 0.123347
0.260494 0.200423 0.123347
0.340717 0.209515 0.123347
0.424591 0.217647 0.123347
0.510053 0.224433 0.123347
0.594419 0.229475 0.123347
0.676856 0.233069 0.123347
0.760980 0.236529 0.123347
0.842360 0.238852 0.123347
0.918699 0.239743 0.123347
0.975988 0.236823 0.123347
1.046223 0.236671 0.123347
-0.132818 0.268220 0.126366
-0.120099 0.268220 0.130551
0.035095 0.268220 0.144456
0.116006 0.268220 0.122678
0.195118 0.268220 0.123347
0.260819 0.268220 0.123347
0.340717 0.282442 0.123347
0.424591 0.295314 0.123347
0.510053 0.305993 0.123347
0.594419 0.313891 0.123347
