luts/DC1_03_cold_light_of_day_v2.cube
TITLE "Generate by Resolve"
LUT_3D_SIZE 33
0.104906 0.0912795 0.104906
0.104906 0.0912795 0.104906
0.104906 0.0912795 0.104906
0.104906 0.0912795 0.104906
0.108339 0.0912795 0.104906
0.108339 0.0912795 0.104906
0.111788 0.0912795 0.104906
0.118654 0.0912795 0.104906
0.125521 0.0912795 0.104906
0.135821 0.0912795 0.104906
0.152956 0.094728 0.104875
0.166705 0.094728 0.104875
0.183871 0.094728 0.104875
0.20444 0.0981765 0.104845
0.228458 0.101625 0.104799
0.259327 0.105074 0.104768
0.297047 0.111971 0.104692
0.33814 0.122332 0.104585
0.38265 0.136126 0.104433
0.427115 0.153368 0.10425
0.475059 0.167178 0.104097
0.523033 0.177523 0.10399
0.571008 0.187869 0.103868
0.615549 0.198215 0.103761
0.656657 0.20856 0.103655
0.694331 0.218921 0.103548
0.725093 0.232715 0.103395
0.752392 0.249958 0.103212
0.776211 0.270665 0.144198
0.803479 0.291356 0.205814
0.827222 0.318959 0.260471
0.850889 0.353445 0.318486
0.874571 0.387945 0.376516
0.104906 0.0912795 0.104906
0.104906 0.0912795 0.104906
0.104906 0.0912795 0.104906
0.104906 0.0912795 0.104906
0.108339 0.0912795 0.104906
0.111788 0.0912795 0.104906
0.115221 0.0912795 0.104906
0.118654 0.0912795 0.104906
0.128923 0.094728 0.104875
0.139223 0.094728 0.104875
0.152956 0.094728 0.104875
0.170092 0.0981765 0.104845
0.187274 0.0981765 0.104845
0.207843 0.101625 0.104799
0.231846 0.105074 0.104768
0.262699 0.111971 0.104692
0.300404 0.118883 0.104616
0.341466 0.132677 0.104463
0.385977 0.146471 0.104326
0.433875 0.163714 0.104128
0.478416 0.174075 0.104021
0.52636 0.187869 0.103868
0.574334 0.198215 0.103761
0.618875 0.20856 0.103655
0.660029 0.215457 0.103578
0.697688 0.225818 0.103471
0.728466 0.239612 0.103319
0.752316 0.256855 0.103136
0.776135 0.277562 0.154437
0.803403 0.298253 0.212604
0.827146 0.325856 0.267262
0.850858 0.356893 0.325322
0.874525 0.391394 0.383352
0.104906 0.0912795 0.104906
0.104906 0.0912795 0.104906
0.104906 0.0912795 0.104906
0.108339 0.0912795 0.104906
0.108339 0.0912795 0.104906
0.111742 0.094728 0.104875
0.115175 0.094728 0.104875
0.122042 0.094728 0.104875
0.128923 0.094728 0.104875
0.142626 0.0981765 0.104845
0.159792 0.0981765 0.104845
0.173495 0.101625 0.104799
0.190677 0.101625 0.104799
0.211246 0.105074 0.104768
0.235218 0.111971 0.104692
0.26949 0.118883 0.104616
0.303731 0.129229 0.104509
0.348226 0.143023 0.104356
0.392737 0.156817 0.104204
0.437232 0.170626 0.104067
0.485176 0.184421 0.103914
0.529686 0.198215 0.103761
0.577661 0.20856 0.103655
0.622232 0.215457 0.103578
0.66334 0.225818 0.103471
0.697581 0.236164 0.103365
0.728344 0.249958 0.103212
0.752239 0.263752 0.103059
0.776074 0.284459 0.161227
0.803281 0.308598 0.219364
0.82707 0.332753 0.274067
0.850782 0.36379 0.328695
0.874449 0.398291 0.390143
0.104875 0.094728 0.104875
0.104875 0.094728 0.104875
0.104875 0.094728 0.104875
0.108309 0.094728 0.104875
0.111742 0.094728 0.104875
0.111742 0.094728 0.104875
0.118578 0.0981765 0.104845
0.125444 0.0981765 0.104845
0.135744 0.0981765 0.104845
0.149447 0.101625 0.104799
0.163195 0.101625 0.104799
0.176898 0.105074 0.104768
0.194034 0.108522 0.104723
0.218006 0.115434 0.104646
0.241978 0.122332 0.104585
0.276204 0.132677 0.104463
0.313878 0.143023 0.104356
0.354955 0.156817 0.104204
0.39942 0.174075 0.104021
0.443931 0.187869 0.103868
0.491905 0.198215 0.103761
0.5364 0.212009 0.103609
0.580987 0.218921 0.103548
0.625528 0.229267 0.103426
0.666636 0.239612 0.103319
0.700877 0.249958 0.103212
0.728237 0.260304 0.103105
0.752102 0.277562 0.109789
0.779385 0.294804 0.174853
0.803174 0.318959 0.229557
0.826917 0.346548 0.284215
0.850675 0.374151 0.338888
0.874342 0.408637 0.400336
0.104845 0.0981765 0.104845
0.104845 0.0981765 0.104845
0.108278 0.0981765 0.104845
0.108278 0.0981765 0.104845
0.111666 0.101625 0.104799
0.118532 0.101625 0.104799
0.121981 0.101625 0.104799
0.128801 0.105074 0.104768
0.14255 0.105074 0.104768
0.156252 0.108522 0.104723
0.169955 0.111971 0.104692
0.183658 0.115434 0.104646
0.200793 0.118883 0.104616
0.224765 0.12578 0.10454
0.252125 0.136126 0.104433
0.286366 0.146471 0.104326
0.323995 0.160266 0.104173
0.365072 0.174075 0.104021
0.409583 0.187869 0.103868
0.454047 0.205112 0.103685
0.498589 0.215457 0.103578
0.54313 0.225818 0.103471
0.587671 0.236164 0.103365
0.632212 0.246509 0.103243
0.669886 0.256855 0.103136
0.704128 0.267216 0.103029
0.731487 0.277562 0.102907
0.755383 0.291356 0.126802
0.779202 0.312047 0.188418
0.803021 0.332753 0.243153
0.82681 0.356893 0.297841
0.850523 0.387945 0.352468
0.874235 0.418982 0.410529
0.104768 0.105074 0.104768
0.108202 0.105074 0.104768
0.108202 0.105074 0.104768
0.111589 0.108522 0.104723
0.115038 0.108522 0.104723
0.118425 0.111971 0.104692
0.12874 0.111971 0.104692
0.138994 0.115434 0.104646
0.149264 0.118883 0.104616
0.163012 0.118883 0.104616
0.176715 0.122332 0.104585
0.190372 0.129229 0.104509
0.21091 0.136126 0.104433
0.234882 0.143023 0.104356
0.26569 0.153368 0.10425
0.299886 0.167178 0.104097
0.337514 0.180972 0.103944
0.378592 0.194766 0.103807
0.419654 0.20856 0.103655
0.464164 0.22237 0.103502
0.508675 0.236164 0.103365
0.553216 0.246509 0.103243
0.597757 0.256855 0.103136
0.638895 0.263752 0.103059
0.67657 0.274113 0.102953
0.707362 0.284459 0.102846
0.731304 0.294804 0.102724
0.755169 0.312047 0.150637
0.779019 0.329305 0.208835
0.802838 0.349996 0.260136
0.83006 0.374151 0.314839
0.85034 0.405188 0.369467
0.870619 0.43624 0.427527
0.104616 0.118883 0.104616
0.108049 0.118883 0.104616
0.111482 0.118883 0.104616
0.114885 0.122332 0.104585
0.118318 0.122332 0.104585
0.125154 0.12578 0.10454
0.135424 0.129229 0.104509
0.145693 0.132677 0.104463
0.15938 0.136126 0.104433
0.169696 0.136126 0.104433
0.183352 0.143023 0.104356
0.200488 0.146471 0.104326
0.22443 0.156817 0.104204
0.248402 0.163714 0.104128
0.279164 0.177523 0.10399
0.313359 0.191318 0.103838
0.351003 0.205112 0.103685
0.392065 0.218921 0.103548
0.436576 0.232715 0.103395
0.477638 0.246509 0.103243
0.522179 0.256855 0.103136
0.56669 0.270665 0.102983
0.607828 0.277562 0.102907
0.645502 0.287907 0.1028
0.679744 0.298253 0.102693
0.710552 0.308598 0.102586
0.734478 0.318959 0.112779
0.758373 0.332753 0.181323
0.782238 0.349996 0.232654
0.806058 0.370703 0.283955
0.829847 0.394842 0.335225
0.850156 0.422446 0.389883
0.870436 0.453483 0.447944
0.107866 0.136126 0.104433
0.107836 0.139574 0.104387
0.111269 0.139574 0.104387
0.118135 0.139574 0.104387
0.121538 0.143023 0.104356
0.131838 0.143023 0.104356
0.142107 0.146471 0.104326
0.152377 0.14992 0.10428
0.166079 0.153368 0.10425
0.179782 0.156817 0.104204
0.196872 0.163714 0.104128
0.213977 0.170626 0.104067
0.237903 0.180972 0.103944
0.265278 0.191318 0.103838
0.29604 0.205112 0.103685
0.333669 0.218921 0.103548
0.371313 0.232715 0.103395
0.412375 0.246509 0.103243
0.453452 0.260304 0.103105
0.494514 0.274113 0.102953
0.539055 0.284459 0.102846
0.57673 0.294804 0.102724
0.617838 0.30515 0.102617
0.655558 0.312047 0.102541
0.686351 0.322408 0.102434
0.713756 0.329305 0.102358
0.734218 0.343099 0.153735
0.758114 0.356893 0.208545
0.781979 0.374151 0.259876
0.805798 0.394842 0.307744
0.829618 0.415534 0.359045
0.849928 0.443137 0.413703
0.870207 0.474189 0.46833
0.11107 0.156817 0.104204
0.11104 0.160266 0.104173
0.117906 0.160266 0.104173
0.12134 0.160266 0.104173
0.128176 0.163714 0.104128
0.138476 0.163714 0.104128
0.152178 0.167178 0.104097
0.162448 0.170626 0.104067
0.17612 0.177523 0.10399
0.193256 0.180972 0.103944
0.210361 0.187869 0.103868
0.230854 0.198215 0.103761
0.258228 0.20856 0.103655
0.285557 0.22237 0.103502
0.31632 0.236164 0.103365
0.353948 0.249958 0.103212
0.391592 0.263752 0.103059
0.429221 0.277562 0.102907
0.470298 0.291356 0.10277
0.511406 0.301701 0.102647
0.552514 0.312047 0.102541
0.590173 0.322408 0.102434
0.627894 0.329305 0.102358
0.66212 0.339651 0.102251
0.692958 0.346548 0.102174
0.716899 0.356893 0.132982
0.737392 0.367254 0.191257
0.761288 0.381048 0.2392
0.78172 0.398291 0.287098
0.805539 0.418982 0.334966
0.829358 0.439689 0.386267
0.849668 0.467277 0.440925
0.866545 0.494881 0.492149
0.114214 0.184421 0.103914
0.117647 0.184421 0.103914
0.12105 0.187869 0.103868
0.127916 0.187869 0.103868
0.138186 0.191318 0.103838
0.148455 0.194766 0.103807
0.162158 0.198215 0.103761
0.17586 0.201663 0.103731
0.192966 0.20856 0.103655
0.210056 0.215457 0.103578
0.230594 0.22237 0.103502
0.251087 0.232715 0.103395
0.278462 0.243061 0.103288
0.309224 0.256855 0.103136
0.339986 0.270665 0.102983
0.374197 0.284459 0.102846
0.411826 0.298253 0.102693
0.452934 0.308598 0.102586
0.490562 0.322408 0.102434
0.53167 0.332753 0.102327
0.569345 0.343099 0.102205
0.603616 0.349996 0.102129
0.637858 0.360342 0.102022
0.672129 0.367254 0.101946
0.696071 0.3776 0.122454
0.716594 0.384497 0.184207
0.740536 0.394842 0.228748
0.760998 0.408637 0.276677
0.784848 0.425895 0.321157
0.805234 0.446586 0.369009
0.825635 0.467277 0.416876
0.845975 0.491432 0.468147
0.866285 0.51902 0.519371
0.113817 0.22237 0.103502
0.11725 0.22237 0.103502
0.124117 0.22237 0.103502
0.134386 0.225818 0.103471
0.144656 0.229267 0.103426
0.158358 0.232715 0.103395
0.175494 0.236164 0.103365
0.192584 0.243061 0.103288
0.20972 0.246509 0.103243
0.230259 0.253407 0.103166
0.250751 0.263752 0.103059
0.274723 0.270665 0.102983
0.302052 0.284459 0.102846
0.33286 0.294804 0.102724
0.363622 0.308598 0.102586
0.397833 0.322408 0.102434
0.435492 0.332753 0.102327
0.473136 0.346548 0.102174
0.510811 0.356893 0.102068
0.548486 0.367254 0.101946
0.582757 0.374151 0.101869
0.616999 0.384497 0.101762
0.647837 0.391394 0.101686
0.675242 0.398291 0.125658
0.699199 0.405188 0.183978
0.719707 0.415534 0.225086
0.7402 0.425895 0.269627
0.764096 0.439689 0.314137
0.784558 0.453483 0.358633
0.804944 0.474189 0.403067
0.82533 0.494881 0.450935
0.845716 0.515572 0.498802
0.862593 0.543175 0.546593
0.106462 0.267216 0.103029
0.116732 0.270665 0.102983
0.123598 0.270665 0.102983
0.137301 0.274113 0.102953
0.154467 0.274113 0.102953
0.171572 0.28101 0.102876
0.188708 0.284459 0.102846
0.209277 0.287907 0.1028
0.229816 0.294804 0.102724
0.253788 0.301701 0.102647
0.274327 0.308598 0.102586
0.301686 0.318959 0.102464
0.329061 0.329305 0.102358
0.35642 0.339651 0.102251
0.390661 0.349996 0.102129
0.424903 0.360342 0.102022
0.459098 0.374151 0.101869
0.496773 0.384497 0.101762
0.531014 0.394842 0.101656
0.565286 0.40174 0.101579
0.599527 0.412085 0.101472
0.630365 0.418982 0.101396
0.657801 0.422446 0.149447
0.681773 0.429343 0.194018
0.702312 0.43624 0.235172
0.719402 0.443137 0.272877
0.739864 0.456931 0.310521
0.763806 0.467277 0.355062
0.784222 0.484535 0.396094
0.804654 0.501778 0.440558
0.82504 0.522484 0.488426
0.841993 0.543175 0.53286
0.8589 0.567315 0.573816
0.102434 0.322408 0.102434
0.112734 0.322408 0.102434
0.126482 0.322408 0.102434
0.143618 0.325856 0.102388
0.164187 0.329305 0.102358
0.184756 0.332753 0.102327
0.205325 0.336202 0.102281
0.229343 0.339651 0.102251
0.249866 0.346548 0.102174
0.273838 0.353445 0.102098
0.29781 0.360342 0.102022
0.325216 0.367254 0.101946
0.35259 0.3776 0.101839
0.383429 0.384497 0.101762
0.414221 0.394842 0.101656
0.448463 0.405188 0.101549
0.482704 0.415534 0.101427
0.51693 0.425895 0.10132
0.551217 0.432792 0.101244
0.582055 0.439689 0.101167
0.612894 0.446586 0.135454
0.640299 0.453483 0.176593
0.664302 0.456931 0.214343
0.681437 0.46038 0.248646
0.701976 0.467277 0.282918
0.722469 0.477638 0.320592
0.739528 0.487984 0.358267
0.76347 0.498329 0.399374
0.783886 0.515572 0.440406
0.800885 0.53283 0.481437
0.821302 0.550072 0.522469
0.838254 0.570764 0.56347
0.855207 0.59147 0.601038
0.101839 0.3776 0.101839
0.108705 0.3776 0.101839
0.129274 0.381048 0.101808
0.149889 0.381048 0.101808
0.173892 0.384497 0.101762
0.19791 0.387945 0.101732
0.221912 0.391394 0.101686
0.245914 0.394842 0.101656
0.269932 0.398291 0.101625
0.293889 0.405188 0.101549
0.321294 0.412085 0.101472
0.348699 0.418982 0.101396
0.376104 0.425895 0.10132
0.406912 0.43624 0.101213
0.437751 0.443137 0.101137
0.471992 0.453483 0.10103
0.502831 0.46038 0.100954
0.537102 0.467277 0.118059
0.564508 0.474189 0.152331
0.595376 0.477638 0.179767
0.622782 0.484535 0.210605
0.643366 0.487984 0.241489
0.663935 0.491432 0.268925
0.684504 0.494881 0.303243
0.70161 0.501778 0.334081
0.722133 0.508675 0.371786
0.739208 0.51902 0.406027
0.75967 0.53283 0.443656
0.780118 0.546624 0.4813
0.80058 0.560418 0.522362
0.817578 0.577676 0.55996
0.834562 0.594919 0.594125
0.85156 0.612161 0.62829
0.101244 0.432792 0.101244
0.114992 0.432792 0.101244
0.135561 0.43624 0.101213
0.159609 0.43624 0.101213
0.183612 0.439689 0.101167
0.211048 0.443137 0.101137
0.235096 0.443137 0.101137
0.259068 0.450034 0.101061
0.286503 0.453483 0.10103
0.313954 0.456931 0.100984
0.34136 0.463828 0.100908
0.368765 0.470741 0.100847
0.399603 0.477638 0.100771
0.427008 0.484535 0.100694
0.457847 0.491432 0.121233
0.492119 0.498329 0.155505
0.522957 0.505226 0.18291
0.550393 0.508675 0.203479
0.577798 0.515572 0.227451
0.60528 0.515572 0.248051
0.625849 0.51902 0.272068
0.646464 0.51902 0.29955
0.6636 0.522484 0.326986
0.684169 0.525933 0.357855
0.701274 0.53283 0.388708
0.721813 0.539727 0.419547
0.738872 0.550072 0.453773
0.759335 0.563867 0.487984
0.779797 0.577676 0.525612
0.796811 0.59147 0.559808
0.817273 0.605264 0.590585
0.834272 0.622522 0.624735
0.851301 0.636316 0.652079
0.110964 0.487984 0.100649
0.12813 0.487984 0.100649
0.152178 0.487984 0.100649
0.176181 0.491432 0.100618
0.200229 0.491432 0.100618
0.224231 0.494881 0.100587
0.251682 0.498329 0.100542
0.275685 0.501778 0.100511
0.30312 0.505226 0.100465
0.330571 0.508675 0.100435
0.358007 0.512123 0.107271
0.385412 0.51902 0.134676
0.416297 0.522484 0.158679
0.443702 0.529381 0.18265
0.474571 0.53283 0.206653
0.505409 0.539727 0.227192
0.536248 0.546624 0.251164
0.563699 0.550072 0.275166
0.587732 0.550072 0.292348
0.608301 0.553521 0.312917
0.628916 0.553521 0.33695
0.646097 0.553521 0.360998
0.663264 0.553521 0.385046
0.680369 0.560418 0.412451
0.700938 0.563867 0.44332
0.717998 0.574228 0.470695
0.738537 0.581125 0.501534
0.758999 0.594919 0.532296
0.776059 0.605264 0.566537
0.796521 0.619058 0.593866
0.81355 0.632868 0.621195
0.83061 0.643214 0.648569
0.851072 0.657008 0.672465
0.148226 0.536278 0.110445
0.165393 0.536278 0.110445
0.179095 0.539727 0.117281
0.19971 0.539727 0.124147
0.220325 0.539727 0.131014
0.244327 0.543175 0.141283
0.268376 0.543175 0.155016
0.295811 0.546624 0.165286
0.319814 0.550072 0.178988
0.347265 0.553521 0.196124
0.374701 0.55697 0.209827
0.402152 0.560418 0.223529
0.429587 0.563867 0.240665
0.457023 0.567315 0.257801
0.484474 0.570764 0.278386
0.51191 0.574228 0.295521
0.539345 0.577676 0.316091
0.566751 0.584573 0.340063
0.590799 0.584573 0.360662
0.611414 0.584573 0.377844
0.62858 0.584573 0.398444
0.645762 0.584573 0.419059
0.662928 0.584573 0.443107
0.680034 0.59147 0.467079
0.697169 0.594919 0.494514
0.717662 0.605264 0.521889
0.734768 0.612161 0.549294
0.755261 0.622522 0.576654
0.775769 0.632868 0.60058
0.792828 0.643214 0.627955
0.813291 0.657008 0.648417
0.83035 0.667353 0.66891
0.850843 0.677714 0.689418
0.195834 0.581125 0.223316
0.206134 0.581125 0.226749
0.216434 0.581125 0.226749
0.233616 0.581125 0.230182
0.250782 0.581125 0.237049
0.271366 0.584573 0.240452
0.291966 0.584573 0.250751
0.315984 0.588022 0.257588
0.340017 0.588022 0.267887
0.364034 0.59147 0.278157
0.388067 0.59147 0.288457
0.415518 0.594919 0.302159
0.439521 0.598367 0.315862
0.463569 0.598367 0.32961
0.491005 0.601816 0.346746
0.515007 0.605264 0.363882
0.539055 0.605264 0.381048
0.563058 0.608713 0.401633
0.587076 0.612161 0.422202
0.607675 0.612161 0.442802
0.624857 0.612161 0.459983
0.641993 0.61561 0.480552
0.662593 0.61561 0.501167
0.679698 0.622522 0.521691
0.696834 0.625971 0.545708
0.717372 0.632868 0.566232
0.734432 0.643214 0.590173
0.754971 0.650111 0.614145
0.775464 0.660456 0.634638
0.796002 0.667353 0.655177
0.813062 0.677714 0.672236
0.83357 0.68806 0.689296
0.85066 0.694957 0.706401
0.247028 0.612161 0.308843
0.250462 0.612161 0.308843
0.260761 0.612161 0.312276
0.271061 0.612161 0.315724
0.28481 0.612161 0.319158
0.301946 0.61561 0.322545
0.319112 0.61561 0.329427
0.339727 0.61561 0.336294
0.360327 0.61561 0.34316
0.380911 0.619058 0.353429
0.404944 0.619058 0.363729
0.425559 0.619058 0.374029
0.449561 0.622522 0.387732
0.47361 0.622522 0.40148
0.494179 0.625971 0.415183
0.518227 0.625971 0.428916
0.538796 0.629419 0.446052
0.562799 0.632868 0.463188
0.583413 0.632868 0.480369
0.603983 0.636316 0.497505
0.624552 0.639765 0.514641
0.641688 0.643214 0.531777
0.662272 0.646662 0.552346
0.679408 0.650111 0.569482
0.696544 0.653559 0.586633
0.717083 0.660456 0.607156
0.737606 0.667353 0.624262
0.758144 0.67425 0.6448
0.775204 0.684611 0.66186
0.795743 0.691508 0.675532
0.816281 0.698405 0.689189
0.833341 0.708751 0.706249
0.850446 0.715648 0.726787
0.29485 0.636316 0.387594
0.301717 0.636316 0.391028
0.308583 0.636316 0.391028
0.315465 0.636316 0.394461
0.325765 0.636316 0.397894
0.336065 0.636316 0.401328
0.353201 0.639765 0.40473
0.366949 0.639765 0.411597
0.384115 0.639765 0.418463
0.40473 0.639765 0.428779
0.421866 0.643214 0.435599
0.442481 0.643214 0.445914
0.463081 0.643214 0.456214
0.48365 0.646662 0.469917
0.504265 0.646662 0.480217
0.524834 0.650111 0.493919
0.545403 0.653559 0.507622
0.565972 0.657008 0.521324
0.586587 0.657008 0.535073
0.607156 0.660456 0.552209
0.624292 0.663905 0.565911
0.644877 0.667353 0.579614
0.662013 0.670802 0.59675
0.682582 0.67425 0.610452
0.699687 0.681163 0.624109
0.720211 0.68806 0.641215
0.74078 0.691508 0.654917
0.761318 0.698405 0.668574
0.778424 0.705303 0.682246
0.798962 0.7122 0.695918
0.816052 0.719097 0.709575
0.833158 0.726009 0.72668
0.850217 0.736355 0.74374
0.342672 0.660456 0.462898
0.34612 0.660456 0.462898
0.349554 0.660456 0.466331
0.35642 0.660456 0.466331
0.363287 0.660456 0.469764
0.373587 0.660456 0.473198
0.387289 0.663905 0.480034
0.397604 0.663905 0.483467
0.414771 0.663905 0.490333
0.428519 0.663905 0.497215
0.445655 0.667353 0.504036
0.462821 0.667353 0.510918
0.479957 0.670802 0.521172
0.497139 0.670802 0.531487
0.517708 0.674266 0.541756
0.534874 0.674266 0.552056
0.555459 0.677714 0.562325
0.572595 0.681163 0.576028
0.593164 0.684611 0.586297
0.61033 0.684611 0.596597
0.630915 0.68806 0.6103
0.648051 0.691508 0.620569
0.66862 0.694957 0.630838
0.685725 0.701854 0.644495
0.706294 0.705303 0.654765
0.72343 0.708751 0.665034
0.743969 0.715648 0.675273
0.764538 0.719097 0.688975
0.781628 0.726009 0.699199
0.802167 0.732906 0.716304
0.819272 0.739803 0.729961
0.832929 0.7467 0.747066
0.850004 0.757046 0.764126
0.387076 0.684611 0.531334
0.390509 0.684611 0.531334
0.393912 0.68806 0.534737
0.397345 0.68806 0.534737
0.404211 0.68806 0.53817
0.411078 0.68806 0.541604
0.421378 0.68806 0.545037
0.431693 0.68806 0.54847
0.441962 0.691508 0.551873
0.455695 0.691508 0.55874
0.469429 0.691508 0.565606
0.486564 0.694957 0.572442
0.500313 0.694957 0.579309
0.517449 0.698405 0.586145
0.534615 0.698405 0.593011
0.548318 0.701854 0.603281
0.565499 0.701854 0.610147
0.586069 0.705303 0.620417
0.603204 0.708751 0.627253
0.62034 0.7122 0.637522
0.637476 0.715648 0.644358
0.654612 0.719097 0.654612
0.675196 0.722545 0.661448
0.692332 0.726009 0.668284
0.712901 0.729458 0.67512
0.730037 0.732906 0.685389
0.750607 0.736355 0.695659
0.767712 0.743252 0.709316
0.784848 0.7467 0.723018
0.801953 0.753597 0.733257
0.819043 0.760494 0.750347
0.832715 0.767391 0.764019
0.849821 0.774289 0.781109
0.428 0.7122 0.589426
0.428 0.7122 0.592874
0.431434 0.7122 0.592874
0.434867 0.7122 0.592874
0.441733 0.7122 0.596307
0.448569 0.715648 0.596262
0.455436 0.715648 0.599695
0.462303 0.715648 0.603128
0.472618 0.715648 0.606561
0.482872 0.719097 0.609964
0.49662 0.719097 0.616831
0.50692 0.719097 0.620264
0.520623 0.722545 0.6271
0.537804 0.722545 0.630533
0.551507 0.726009 0.637369
0.56524 0.726009 0.644236
0.582376 0.729458 0.647639
0.599512 0.732906 0.654475
0.61326 0.732906 0.661341
0.630396 0.736355 0.664744
0.647532 0.739803 0.671565
0.664668 0.743252 0.678401
0.681834 0.743252 0.685267
0.702403 0.7467 0.692103
0.719554 0.750149 0.69894
0.73669 0.753597 0.705776
0.753826 0.757046 0.719478
0.770916 0.763943 0.729702
0.788052 0.767391 0.743404
0.805203 0.77084 0.753674
0.81886 0.777752 0.767346
0.835966 0.784649 0.784436
0.846189 0.791547 0.798108
0.462043 0.739803 0.637217
0.462043 0.739803 0.637217
0.465476 0.739803 0.637217
0.46891 0.739803 0.640665
0.472358 0.739803 0.640665
0.475792 0.739803 0.640665
0.482612 0.743252 0.644053
0.489494 0.743252 0.647486
0.499794 0.743252 0.647486
0.510094 0.743252 0.650919
0.520363 0.7467 0.654322
0.530663 0.7467 0.657755
0.540978 0.7467 0.661189
0.554681 0.750149 0.664591
0.568414 0.750149 0.668025
0.582116 0.753597 0.671427
0.59585 0.753597 0.678294
0.609552 0.757046 0.681697
0.626734 0.757046 0.68513
0.64387 0.760494 0.691951
0.657572 0.763943 0.698787
0.674754 0.763943 0.70222
0.69189 0.767391 0.709056
0.709026 0.77084 0.715892
0.726192 0.77084 0.722759
0.743328 0.774289 0.729595
0.757031 0.777752 0.739864
0.774166 0.781201 0.750134
0.791302 0.784649 0.760403
0.804974 0.791547 0.77406
0.82211 0.794995 0.787762
0.835782 0.801892 0.801434
0.846006 0.808789 0.815091
0.485832 0.763943 0.671305
0.489265 0.763943 0.671305
0.489235 0.767391 0.671275
0.492668 0.767391 0.671275
0.496101 0.767391 0.671275
0.499535 0.767391 0.674708
0.506401 0.767391 0.674708
0.513268 0.767391 0.678141
0.52015 0.767391 0.678141
0.530404 0.77084 0.681544
0.537285 0.77084 0.681544
0.547585 0.77084 0.684977
0.557885 0.77084 0.688411
0.571588 0.774289 0.691814
0.585336 0.774289 0.695247
0.59559 0.777752 0.69865
0.609339 0.777752 0.705516
0.626505 0.777752 0.708949
0.640208 0.781201 0.712352
0.653956 0.781201 0.719219
0.671092 0.784649 0.722606
0.684794 0.788098 0.729442
0.701961 0.788098 0.736309
0.715663 0.791547 0.743145
0.732845 0.791547 0.750011
0.749981 0.794995 0.753414
0.763684 0.798444 0.76025
0.780819 0.801892 0.77052
0.794522 0.805341 0.780789
0.808225 0.808789 0.794491
0.821927 0.812238 0.804746
0.835599 0.819135 0.818418
0.849256 0.826032 0.828641
0.513054 0.788098 0.701961
0.513054 0.788098 0.701961
0.516442 0.791547 0.70193
0.51989 0.791547 0.70193
0.523323 0.791547 0.70193
0.526757 0.791547 0.705364
0.53019 0.791547 0.705364
0.537057 0.791547 0.705364
0.543923 0.791547 0.708797
0.55079 0.791547 0.71223
0.561059 0.794995 0.7122
0.571374 0.794995 0.715633
0.581674 0.794995 0.719066
0.591974 0.794995 0.722499
0.602243 0.798444 0.725902
0.615991 0.798444 0.729335
0.626291 0.798444 0.732769
0.639994 0.801892 0.736171
0.653727 0.801892 0.743038
0.670863 0.805341 0.746441
0.684611 0.805341 0.749874
0.698344 0.805341 0.756741
0.712047 0.808789 0.763577
0.725795 0.808789 0.76701
0.739498 0.812238 0.773846
0.756664 0.812238 0.780713
0.770367 0.815686 0.787549
0.78407 0.819135 0.790936
0.797803 0.819135 0.801251
0.811505 0.822583 0.811505
0.825177 0.829496 0.821744
0.83888 0.832944 0.832013
0.852552 0.839841 0.84567
0.543709 0.812238 0.732616
0.543709 0.812238 0.732616
0.547143 0.812238 0.732616
0.547143 0.812238 0.732616
0.550576 0.812238 0.732616
0.554009 0.812238 0.736049
0.560876 0.812238 0.736049
0.564309 0.812238 0.736049
0.571191 0.812238 0.739498
0.578012 0.815686 0.739452
0.588327 0.815686 0.742885
0.595193 0.815686 0.746319
0.605493 0.815686 0.749752
0.615793 0.815686 0.749752
0.626062 0.819135 0.753155
0.636378 0.819135 0.756588
0.646677 0.819135 0.763455
0.66041 0.819135 0.766903
0.674113 0.822583 0.770291
0.684428 0.822583 0.773724
0.698161 0.822583 0.780591
0.711864 0.826032 0.783993
0.725597 0.826032 0.787427
0.7393 0.829496 0.794263
0.749615 0.829496 0.797696
0.763348 0.829496 0.804562
0.77705 0.832944 0.807965
0.790799 0.832944 0.814832
0.801053 0.836393 0.821668
0.814755 0.839841 0.825071
0.828458 0.84329 0.83534
0.842161 0.846738 0.845594
0.855833 0.853635 0.855833
0.577829 0.832944 0.763317
0.581262 0.832944 0.763317
0.581262 0.832944 0.766751
0.584695 0.832944 0.766751
0.584695 0.832944 0.766751
