luts/DC1_03_cold_light_of_day_v2.cube
TITLE "Generate by Resolve"
LUT_3D_SIZE 9
0.104906 0.0912795 0.104906
0.108339 0.0912795 0.104906
0.125521 0.0912795 0.104906
0.183871 0.094728 0.104875
0.297047 0.111971 0.104692
0.475059 0.167178 0.104097
0.656657 0.20856 0.103655
0.776211 0.270665 0.144198
0.874571 0.387945 0.376516
0.104845 0.0981765 0.104845
0.111666 0.101625 0.104799
0.14255 0.105074 0.104768
0.200793 0.118883 0.104616
0.323995 0.160266 0.104173
0.498589 0.215457 0.103578
0.669886 0.256855 0.103136
0.779202 0.312047 0.188418
0.874235 0.418982 0.410529
0.11107 0.156817 0.104204
0.128176 0.163714 0.104128
0.17612 0.177523 0.10399
0.258228 0.20856 0.103655
0.391592 0.263752 0.103059
0.552514 0.312047 0.102541
0.692958 0.346548 0.102174
0.78172 0.398291 0.287098
0.866545 0.494881 0.492149
0.102434 0.322408 0.102434
0.164187 0.329305 0.102358
0.249866 0.346548 0.102174
0.35259 0.3776 0.101839
0.482704 0.415534 0.101427
0.612894 0.446586 0.135454
0.701976 0.467277 0.282918
0.783886 0.515572 0.440406
0.855207 0.59147 0.601038
0.148226 0.536278 0.110445
0.220325 0.539727 0.131014
0.319814 0.550072 0.178988
0.429587 0.563867 0.240665
0.539345 0.577676 0.316091
0.62858 0.584573 0.398444
0.697169 0.594919 0.494514
0.775769 0.632868 0.60058
0.850843 0.677714 0.689418
0.342672 0.660456 0.462898
0.363287 0.660456 0.469764
0.414771 0.663905 0.490333
0.479957 0.670802 0.521172
0.555459 0.677714 0.562325
0.630915 0.68806 0.6103
0.706294 0.705303 0.654765
0.781628 0.726009 0.699199
0.850004 0.757046 0.764126
0.485832 0.763943 0.671305
0.496101 0.767391 0.671275
0.52015 0.767391 0.678141
0.557885 0.77084 0.688411
0.609339 0.777752 0.705516
0.671092 0.784649 0.722606
0.732845 0.791547 0.750011
0.794522 0.805341 0.780789
0.849256 0.826032 0.828641
0.615427 0.850187 0.794049
0.622293 0.850187 0.797482
0.639475 0.850187 0.800916
0.663478 0.853635 0.807752
0.694392 0.853635 0.818051
0.735576 0.857084 0.828321
0.776761 0.860533 0.845457
0.821332 0.86743 0.859113
0.869276 0.881239 0.876143
0.758877 0.92607 0.885969
0.76231 0.92607 0.885969
0.769177 0.92607 0.885969
0.786313 0.929534 0.889372
0.806897 0.932982 0.89276
0.837736 0.939879 0.899565
0.878874 0.946777 0.906355
0.926894 0.953674 0.916579
0.954299 0.960571 0.923384
0.104906 0.0912795 0.104906
0.108339 0.0912795 0.104906
0.132387 0.0912795 0.104906
0.194186 0.094728 0.104875
0.3178 0.0981765 0.104845
0.496071 0.129229 0.104509
0.670619 0.187869 0.103868
0.776135 0.277562 0.233433
0.870939 0.405188 0.431281
0.104845 0.0981765 0.104845
0.115099 0.101625 0.104799
0.149386 0.108522 0.104723
0.214496 0.122332 0.104585
0.341253 0.153368 0.10425
0.515938 0.198215 0.103761
0.680293 0.246509 0.103243
0.779126 0.318959 0.263905
0.867185 0.43624 0.458427
0.114473 0.160266 0.104173
0.135012 0.167178 0.104097
0.179553 0.177523 0.10399
0.265049 0.212009 0.103609
0.401923 0.260304 0.103105
0.562844 0.308598 0.102586
0.696406 0.346548 0.188037
0.781598 0.408637 0.345373
0.863005 0.505226 0.529824
0.102388 0.325856 0.102388
0.146975 0.332753 0.102327
0.246403 0.349996 0.102129
0.356023 0.3776 0.101839
0.486137 0.415534 0.128908
0.612894 0.446586 0.22475
0.698466 0.474189 0.337804
0.776944 0.522484 0.481559
0.851743 0.594919 0.62504
0.124147 0.539727 0.21001
0.213413 0.543175 0.223713
0.316381 0.550072 0.251118
0.429587 0.563867 0.299062
0.539315 0.581125 0.364141
0.621714 0.584573 0.439673
0.69369 0.598367 0.525399
0.77229 0.636316 0.621164
0.850843 0.677714 0.696284
0.352987 0.660456 0.497246
0.373587 0.660456 0.504112
0.418204 0.663905 0.521248
0.483391 0.670802 0.548653
0.555459 0.677714 0.586374
0.627482 0.68806 0.627482
0.702861 0.705303 0.665064
0.781628 0.726009 0.709499
0.846571 0.757046 0.767559
0.489235 0.767391 0.678141
0.496101 0.767391 0.681575
0.52015 0.767391 0.688457
0.561318 0.77084 0.698711
0.612772 0.777752 0.712383
0.671092 0.784649 0.732921
0.732845 0.791547 0.75346
0.794522 0.805341 0.787655
0.849256 0.826032 0.83209
0.61886 0.850187 0.800916
0.625742 0.850187 0.800916
0.639475 0.850187 0.804349
0.663523 0.850187 0.811215
0.697826 0.853635 0.821485
0.735576 0.857084 0.831754
0.776761 0.860533 0.845457
0.821332 0.86743 0.859113
0.869276 0.881239 0.879576
0.758877 0.92607 0.885969
0.76231 0.92607 0.885969
0.769177 0.92607 0.889403
0.786313 0.929534 0.889372
0.806897 0.932982 0.896193
0.837736 0.939879 0.899565
0.878874 0.946777 0.906355
0.926894 0.953674 0.916579
0.954299 0.960571 0.923384
0.108339 0.0912795 0.104906
0.111788 0.0912795 0.104906
0.142687 0.0912795 0.108339
0.204486 0.094728 0.111742
0.335042 0.0912795 0.146136
0.520531 0.0912795 0.190784
0.685283 0.101625 0.235325
0.775876 0.301701 0.356832
0.85684 0.439689 0.523659
0.111666 0.101625 0.104799
0.121981 0.101625 0.108232
0.159686 0.108522 0.108156
0.224796 0.122332 0.118318
0.365774 0.108522 0.152819
0.544427 0.105074 0.187198
0.690867 0.22237 0.258076
0.775402 0.346548 0.383825
0.856535 0.467277 0.547402
0.121309 0.163714 0.111009
0.138415 0.170626 0.114366
0.189822 0.180972 0.121126
0.28574 0.205112 0.1346
0.426123 0.246509 0.168505
0.580163 0.294804 0.229816
0.69633 0.353445 0.321935
0.771038 0.432792 0.455039
0.849012 0.529381 0.59826
0.102327 0.332753 0.174456
0.102251 0.339651 0.17438
0.236027 0.356893 0.191363
0.35938 0.384497 0.228855
0.489525 0.418982 0.280003
0.612848 0.450034 0.348363
0.691478 0.484535 0.444175
0.766415 0.543175 0.560327
0.844755 0.605264 0.662715
0.100069 0.543175 0.340505
0.189334 0.546624 0.347341
0.309483 0.553521 0.371298
0.422675 0.567315 0.408942
0.532448 0.581125 0.460319
0.611368 0.588022 0.522072
0.683284 0.608713 0.590539
0.765347 0.643214 0.658869
0.847379 0.681163 0.720287
0.373587 0.660456 0.565942
0.390768 0.660456 0.572808
0.431952 0.663905 0.583078
0.490272 0.670802 0.603616
0.555459 0.677714 0.631022
0.627436 0.691508 0.661784
0.702815 0.708751 0.689082
0.781598 0.729458 0.730068
0.846525 0.760494 0.784695
0.489235 0.767391 0.70219
0.499535 0.767391 0.70219
0.523537 0.77084 0.709026
0.561288 0.774289 0.719295
0.612772 0.777752 0.732998
0.671092 0.784649 0.750088
0.732799 0.794995 0.770596
0.794522 0.805341 0.801389
0.849256 0.826032 0.84239
0.622293 0.850187 0.811215
0.629175 0.850187 0.811215
0.642908 0.850187 0.814649
0.666957 0.850187 0.821515
0.697826 0.853635 0.828351
0.73901 0.857084 0.838621
0.780194 0.860533 0.852323
0.821332 0.86743 0.86598
0.872679 0.884688 0.882979
0.758877 0.92607 0.889403
0.76231 0.92607 0.889403
0.769177 0.92607 0.889403
0.782879 0.929534 0.892805
0.806897 0.932982 0.896193
0.837736 0.939879 0.902998
0.878874 0.946777 0.909789
0.926894 0.953674 0.916579
0.954299 0.960571 0.923384
0.118654 0.0912795 0.122087
0.132387 0.0912795 0.125521
0.170169 0.0912795 0.139254
0.231998 0.0912795 0.170169
0.352224 0.0912795 0.242298
0.527398 0.0912795 0.338476
0.685023 0.12578 0.403372
0.768719 0.329305 0.487053
0.842725 0.474189 0.616022
0.121981 0.101625 0.14258
0.139116 0.105074 0.145983
0.183734 0.108522 0.163119
0.255787 0.115434 0.197391
0.379553 0.105074 0.269642
0.547814 0.108522 0.355474
0.687312 0.232715 0.419394
0.764767 0.3776 0.514015
0.842466 0.498329 0.636378
0.103914 0.184421 0.200092
0.12108 0.184421 0.210391
0.200046 0.187869 0.230961
0.302876 0.20856 0.268528
0.4365 0.239612 0.333455
0.583642 0.291356 0.401602
0.685802 0.374151 0.472831
0.753429 0.474189 0.578241
0.838483 0.550072 0.666743
0.102205 0.343099 0.322042
0.102129 0.349996 0.328832
0.215305 0.367254 0.352697
0.352438 0.391394 0.390219
0.489494 0.422446 0.43798
0.602396 0.463828 0.499352
0.670573 0.512123 0.570962
0.752453 0.563867 0.642542
0.841245 0.612161 0.703853
0.100023 0.546624 0.488167
0.127474 0.550072 0.495003
0.295705 0.55697 0.512093
0.419211 0.570764 0.539422
0.522103 0.584573 0.577066
0.594125 0.594919 0.618173
0.672862 0.619058 0.659129
0.765316 0.646662 0.700053
0.8439 0.684611 0.751171
0.401068 0.660456 0.641505
0.41825 0.660456 0.648386
0.449119 0.663905 0.655207
0.497139 0.670802 0.665446
0.555413 0.681163 0.679072
0.624002 0.691508 0.699565
0.702815 0.708751 0.72343
0.778119 0.732906 0.760952
0.843061 0.763943 0.805264
0.492668 0.767391 0.733104
0.502968 0.767391 0.736538
0.52697 0.77084 0.73994
0.564721 0.774289 0.746761
0.612772 0.777752 0.760464
0.671092 0.784649 0.774136
0.732799 0.794995 0.794629
0.791089 0.805341 0.81857
0.849226 0.829496 0.852659
0.625742 0.850187 0.824948
0.632609 0.850187 0.824948
0.646342 0.850187 0.828397
0.67039 0.850187 0.835264
0.701259 0.853635 0.842084
0.73901 0.857084 0.852354
0.780148 0.863981 0.862593
0.824735 0.870878 0.872816
0.872679 0.884688 0.889845
0.755444 0.92607 0.892836
0.758877 0.92607 0.892836
0.765713 0.929534 0.892805
0.782879 0.929534 0.896239
0.803418 0.936431 0.899596
0.837736 0.939879 0.902998
0.878874 0.946777 0.909789
0.926848 0.957122 0.919982
0.957732 0.960571 0.926818
0.142687 0.0912795 0.245747
0.166735 0.0912795 0.256046
0.218265 0.0912795 0.286961
0.290394 0.0912795 0.338476
0.390005 0.0912795 0.403738
0.530831 0.0912795 0.49305
0.677791 0.160266 0.557565
0.758221 0.346548 0.603662
0.839185 0.484535 0.691478
0.115145 0.0981765 0.297185
0.152956 0.094728 0.30753
0.218265 0.0912795 0.331609
0.300694 0.0912795 0.376257
0.407172 0.0912795 0.438087
0.547677 0.122332 0.516762
0.676829 0.249958 0.570352
0.754314 0.391394 0.620356
0.838926 0.508675 0.701534
0.103868 0.187869 0.388968
0.103914 0.184421 0.399313
0.176013 0.187869 0.419883
0.309743 0.20856 0.457435
0.436423 0.246509 0.508553
0.576654 0.301701 0.566354
0.671916 0.387945 0.60322
0.746441 0.484535 0.660578
0.838437 0.553521 0.72166
0.101991 0.36379 0.507301
0.101946 0.367254 0.514138
0.101839 0.3776 0.53463
0.328313 0.398291 0.561883
0.475639 0.432792 0.595865
0.585077 0.477638 0.629725
0.656657 0.529381 0.663523
0.74551 0.570764 0.707729
0.841291 0.608713 0.745113
0.0999924 0.550072 0.625513
0.0999466 0.553521 0.628916
0.278492 0.560418 0.639155
0.412345 0.570764 0.652781
0.511803 0.584573 0.673243
0.583749 0.601816 0.690227
0.669429 0.619058 0.714092
0.761883 0.646662 0.744701
0.840467 0.684611 0.785519
0.401068 0.660456 0.703334
0.418204 0.663905 0.703304
0.449088 0.667353 0.710124
0.49366 0.67425 0.71693
0.55198 0.681163 0.727153
0.620523 0.694957 0.744183
0.699351 0.7122 0.764614
0.778119 0.732906 0.7953
0.843061 0.763943 0.829313
0.492668 0.767391 0.770886
0.502968 0.767391 0.774319
0.523537 0.77084 0.777722
0.564721 0.774289 0.784558
0.616175 0.781201 0.791348
0.674495 0.788098 0.805005
0.732799 0.794995 0.818677
0.794491 0.808789 0.839139
0.849226 0.829496 0.866392
0.629175 0.850187 0.84213
0.636042 0.850187 0.84213
0.649775 0.850187 0.845563
0.673823 0.850187 0.848997
0.704692 0.853635 0.855833
0.742443 0.857084 0.862669
0.783581 0.863981 0.872892
0.824735 0.870878 0.883131
0.879499 0.888136 0.896681
0.748577 0.92607 0.896269
0.75201 0.92607 0.896269
0.758846 0.929534 0.899672
0.775982 0.932982 0.899626
0.796551 0.936431 0.903029
0.830869 0.939879 0.909865
0.878843 0.950225 0.916625
0.930282 0.957122 0.923415
0.957687 0.964019 0.93022
0.104906 0.0912795 0.496483
0.104906 0.0912795 0.506783
0.204517 0.0912795 0.530831
0.304128 0.0912795 0.568612
0.414054 0.0912795 0.61326
0.537697 0.0912795 0.661357
0.6636 0.201663 0.694514
0.747707 0.367254 0.716793
0.835599 0.498329 0.766903
0.104906 0.0912795 0.537697
0.104906 0.0912795 0.548012
0.166735 0.0912795 0.565179
0.297261 0.0912795 0.596094
0.417487 0.0912795 0.637308
0.544045 0.139574 0.674571
0.662791 0.277562 0.700572
0.747219 0.412085 0.726604
0.83537 0.51902 0.773556
0.103944 0.180972 0.608865
0.103914 0.184421 0.612268
0.103838 0.191318 0.62594
0.271916 0.212009 0.646326
0.422568 0.256855 0.67332
0.552392 0.322408 0.700099
0.657984 0.405188 0.716381
0.739422 0.498329 0.746288
0.834928 0.560418 0.786847
0.101869 0.374151 0.675502
0.101839 0.3776 0.678889
0.101732 0.387945 0.685649
0.300694 0.412085 0.695689
0.44802 0.446586 0.709072
0.560891 0.491432 0.722316
0.649668 0.539727 0.742412
0.74548 0.574228 0.772961
0.841215 0.61561 0.8
0.100069 0.543175 0.718334
0.189334 0.546624 0.721736
0.316304 0.55697 0.725063
0.426047 0.574228 0.731746
0.508293 0.59147 0.741863
0.583703 0.605264 0.755459
0.669398 0.622522 0.772442
0.761883 0.646662 0.796231
0.840467 0.684611 0.823301
0.400992 0.667353 0.765087
0.41474 0.667353 0.765087
0.442176 0.670802 0.76849
0.486763 0.677714 0.77528
0.548516 0.684611 0.785519
0.620493 0.698405 0.795666
0.699351 0.7122 0.809262
0.774685 0.732906 0.829648
0.843091 0.760494 0.853391
0.496056 0.77084 0.815503
0.502937 0.77084 0.815503
0.52694 0.774289 0.818906
0.568124 0.777752 0.822293
0.616175 0.781201 0.829129
0.674495 0.788098 0.839353
0.736202 0.798444 0.849561
0.794491 0.808789 0.863188
0.852659 0.829496 0.883574
0.632609 0.850187 0.866178
0.639475 0.850187 0.866178
0.653208 0.850187 0.866178
0.673793 0.853635 0.869566
0.704692 0.853635 0.872999
0.742443 0.857084 0.879835
0.783597 0.863981 0.886641
0.828168 0.870878 0.893431
0.886336 0.891585 0.90695
0.741665 0.929534 0.906538
0.741665 0.929534 0.906538
0.748531 0.929534 0.906538
0.762234 0.932982 0.906508
0.789685 0.936431 0.909895
0.823957 0.943328 0.916701
0.87541 0.950225 0.920058
0.930282 0.957122 0.930282
0.96112 0.964019 0.937087
0.104906 0.0912795 0.719753
0.104906 0.0912795 0.723186
0.104906 0.0912795 0.730053
0.262913 0.0912795 0.740353
0.393439 0.0912795 0.757534
0.517098 0.0912795 0.774701
0.635462 0.263752 0.793469
0.740536 0.394842 0.809232
0.831983 0.515572 0.835416
0.104906 0.0912795 0.733486
0.104906 0.0912795 0.733486
0.104906 0.0912795 0.740353
0.245747 0.0912795 0.750668
0.390005 0.0912795 0.764401
0.519265 0.20856 0.780316
0.63827 0.322408 0.796262
0.740093 0.43624 0.812222
0.835233 0.53283 0.838666
0.103838 0.191318 0.753017
0.103807 0.194766 0.75642
0.103655 0.20856 0.759701
0.21323 0.239612 0.766247
0.394766 0.287907 0.779461
0.527977 0.356893 0.792462
0.643915 0.43624 0.805356
0.739269 0.512123 0.821714
0.834821 0.570764 0.845121
0.101732 0.387945 0.778393
0.101656 0.394842 0.778317
0.101549 0.405188 0.781643
0.297032 0.432792 0.78822
0.440925 0.467277 0.79472
0.55726 0.508675 0.808011
0.652995 0.550072 0.817868
0.748837 0.581125 0.834714
0.841138 0.622522 0.854871
0.206363 0.560418 0.804013
0.257847 0.563867 0.803983
0.340169 0.574228 0.807309
0.422492 0.584573 0.810636
0.504814 0.594919 0.817395
0.587106 0.608713 0.827543
0.676188 0.629419 0.837629
0.76524 0.653559 0.851102
0.840391 0.691508 0.867872
0.397452 0.677714 0.833677
0.411154 0.681163 0.837079
0.442069 0.681163 0.837079
0.486686 0.684611 0.840467
0.54844 0.691508 0.843824
0.623896 0.701854 0.850584
0.702708 0.719097 0.860716
0.778088 0.736355 0.870832
0.846494 0.763943 0.880842
0.506325 0.774289 0.863554
0.51664 0.774304 0.863554
0.540642 0.777752 0.863508
0.574945 0.781201 0.866911
0.622995 0.784649 0.870314
0.681315 0.791547 0.873671
0.739635 0.798444 0.880461
0.797879 0.812238 0.88719
0.859556 0.826032 0.900786
0.642908 0.850187 0.890211
0.646342 0.850187 0.890211
0.66009 0.850187 0.890211
0.680659 0.853635 0.893614
0.711528 0.857084 0.893584
0.745846 0.860533 0.896971
0.78703 0.863981 0.903807
0.831571 0.874327 0.907134
0.896605 0.895033 0.91722
0.741665 0.929534 0.920287
0.745098 0.929534 0.920287
0.751934 0.932982 0.920241
0.762203 0.936431 0.923644
0.779339 0.939879 0.923598
0.810224 0.943328 0.923568
0.865064 0.953674 0.930327
0.930251 0.960571 0.937118
0.964523 0.967468 0.943923
0.104906 0.0912795 0.853712
0.104906 0.0912795 0.857145
0.104906 0.0912795 0.860578
0.218265 0.0912795 0.867445
0.386572 0.0912795 0.874311
0.51931 0.205112 0.879957
0.64152 0.339651 0.88539
0.750179 0.456931 0.891005
0.838621 0.536278 0.897017
0.104906 0.0912795 0.860578
0.104906 0.0912795 0.860578
0.104906 0.0912795 0.864012
0.201083 0.0912795 0.870878
0.385748 0.167178 0.876936
0.521965 0.277562 0.882628
0.644465 0.384497 0.88835
0.749874 0.484535 0.894133
0.838483 0.550072 0.900313
0.103578 0.215457 0.869551
0.103502 0.22237 0.869474
0.103288 0.243061 0.872679
0.192218 0.277562 0.875746
0.401144 0.332753 0.882033
0.541238 0.40174 0.884718
0.657206 0.477638 0.890776
0.752682 0.543175 0.893507
0.841581 0.581125 0.899977
0.101472 0.412085 0.877745
0.101396 0.418982 0.877668
0.101244 0.432792 0.880949
0.317388 0.456931 0.88069
0.457801 0.494881 0.883726
0.574182 0.53283 0.886748
0.669993 0.567315 0.893248
0.762402 0.598367 0.899794
0.841031 0.632868 0.906294
0.26453 0.581125 0.886229
0.295445 0.581125 0.886229
0.350362 0.584573 0.886198
0.425849 0.59147 0.889555
0.511574 0.605264 0.889403
0.600732 0.619058 0.896132
0.686351 0.643214 0.899306
0.771954 0.667353 0.90248
0.843717 0.701854 0.90898
0.417914 0.691508 0.898787
0.431647 0.691508 0.898787
0.459129 0.691508 0.898787
0.500313 0.694957 0.898756
0.558663 0.698405 0.898711
0.634119 0.708751 0.902037
0.712932 0.726009 0.905287
0.784848 0.7467 0.908507
0.849882 0.767391 0.915145
0.550866 0.784649 0.908095
0.557748 0.784649 0.908095
0.574884 0.788098 0.908064
0.605798 0.788098 0.908064
0.643534 0.791547 0.908019
0.691585 0.794995 0.911421
0.746471 0.801892 0.911345
0.804715 0.815686 0.914626
0.866392 0.829496 0.924788
0.663478 0.853635 0.917662
0.666911 0.853635 0.917662
0.67718 0.857084 0.917617
0.694362 0.857084 0.917617
0.721798 0.860533 0.921019
0.752682 0.863981 0.920989
0.790417 0.86743 0.924376
0.838437 0.874327 0.927749
0.906905 0.895033 0.937819
0.745068 0.932982 0.937423
0.748501 0.932982 0.937423
0.755337 0.936431 0.94081
0.765637 0.936431 0.94081
0.786175 0.943328 0.940734
0.813611 0.946777 0.944137
0.858198 0.953674 0.947494
0.926772 0.964019 0.954253
0.971359 0.970916 0.961059
0.104906 0.0912795 0.953323
0.104906 0.0912795 0.953323
0.104906 0.0912795 0.953323
0.24918 0.0912795 0.956756
0.412573 0.229267 0.955276
0.548745 0.343099 0.954055
0.667735 0.456931 0.952834
0.766461 0.539727 0.948501
0.851774 0.59147 0.951385
0.104906 0.0912795 0.953323
0.104906 0.0912795 0.953323
0.104509 0.129229 0.956344
0.247913 0.20856 0.955489
0.422171 0.294804 0.954574
0.558526 0.391394 0.953536
0.674311 0.484535 0.949096
0.769741 0.553521 0.948363
0.851621 0.605264 0.951232
0.102907 0.277562 0.954757
0.1028 0.287907 0.954635
0.102586 0.308598 0.954421
0.29102 0.353445 0.953933
0.45182 0.412085 0.953307
0.578164 0.481086 0.949142
0.683986 0.543175 0.94847
0.772808 0.588022 0.947982
0.854734 0.636316 0.950896
0.101061 0.450034 0.949462
0.100984 0.456931 0.949386
0.248508 0.474189 0.949203
0.389029 0.501778 0.948913
0.505455 0.536278 0.948547
0.604685 0.570764 0.948165
0.697093 0.601816 0.947845
0.782559 0.639765 0.950866
0.857679 0.681163 0.950423
0.302235 0.588022 0.947982
0.32285 0.588022 0.947982
0.38117 0.594919 0.947906
0.453193 0.605264 0.947799
0.538903 0.619058 0.947662
0.624552 0.639765 0.947433
0.710124 0.667353 0.947143
0.792233 0.698405 0.95024
0.863996 0.732906 0.949874
0.465858 0.705303 0.946731
0.472724 0.705303 0.946731
0.493324 0.705303 0.946731
0.524285 0.701854 0.946761
0.575799 0.701854 0.946761
0.658015 0.722545 0.949981
0.736797 0.743252 0.949752
0.808713 0.763943 0.949538
0.87718 0.784649 0.952743
0.60557 0.808789 0.94905
0.612436 0.808789 0.94905
0.622751 0.808789 0.94905
0.639948 0.805341 0.949096
0.66743 0.805341 0.949096
0.701823 0.801892 0.95256
0.760143 0.808789 0.952483
0.828687 0.822583 0.955779
0.90071 0.832944 0.959106
0.704326 0.888136 0.958511
0.707759 0.888136 0.958511
0.714626 0.888136 0.958511
0.724941 0.888136 0.958511
0.742153 0.884688 0.958541
0.762753 0.884688 0.958541
0.797147 0.881239 0.96202
0.852094 0.881239 0.96202
0.930877 0.90193 0.965225
0.77229 0.957122 0.968063
0.775723 0.957122 0.968063
0.779156 0.957122 0.968063
0.792889 0.957122 0.968063
0.810025 0.960571 0.968032
0.837507 0.960571 0.968032
0.885557 0.964019 0.971435
0.943923 0.967468 0.971389
0.971359 0.970916 0.971359
