luts/DC1_03_cold_light_of_day_v2.cube
TITLE "Generate by Resolve"
LUT_3D_SIZE 5
0.104906 0.0912795 0.104906
0.125521 0.0912795 0.104906
0.297047 0.111971 0.104692
0.656657 0.20856 0.103655
0.874571 0.387945 0.376516
0.11107 0.156817 0.104204
0.17612 0.177523 0.10399
0.391592 0.263752 0.103059
0.692958 0.346548 0.102174
0.866545 0.494881 0.492149
0.148226 0.536278 0.110445
0.319814 0.550072 0.178988
0.539345 0.577676 0.316091
0.697169 0.594919 0.494514
0.850843 0.677714 0.689418
0.485832 0.763943 0.671305
0.52015 0.767391 0.678141
0.609339 0.777752 0.705516
0.732845 0.791547 0.750011
0.849256 0.826032 0.828641
0.758877 0.92607 0.885969
0.769177 0.92607 0.885969
0.806897 0.932982 0.89276
0.878874 0.946777 0.906355
0.954299 0.960571 0.923384
0.108339 0.0912795 0.104906
0.142687 0.0912795 0.108339
0.335042 0.0912795 0.146136
0.685283 0.101625 0.235325
0.85684 0.439689 0.523659
0.121309 0.163714 0.111009
0.189822 0.180972 0.121126
0.426123 0.246509 0.168505
0.69633 0.353445 0.321935
0.849012 0.529381 0.59826
0.100069 0.543175 0.340505
0.309483 0.553521 0.371298
0.532448 0.581125 0.460319
0.683284 0.608713 0.590539
0.847379 0.681163 0.720287
0.489235 0.767391 0.70219
0.523537 0.77084 0.709026
0.612772 0.777752 0.732998
0.732799 0.794995 0.770596
0.849256 0.826032 0.84239
0.758877 0.92607 0.889403
0.769177 0.92607 0.889403
0.806897 0.932982 0.896193
0.878874 0.946777 0.909789
0.954299 0.960571 0.923384
0.142687 0.0912795 0.245747
0.218265 0.0912795 0.286961
0.390005 0.0912795 0.403738
0.677791 0.160266 0.557565
0.839185 0.484535 0.691478
0.103868 0.187869 0.388968
0.176013 0.187869 0.419883
0.436423 0.246509 0.508553
0.671916 0.387945 0.60322
0.838437 0.553521 0.72166
0.0999924 0.550072 0.625513
0.278492 0.560418 0.639155
0.511803 0.584573 0.673243
0.669429 0.619058 0.714092
0.840467 0.684611 0.785519
0.492668 0.767391 0.770886
0.523537 0.77084 0.777722
0.616175 0.781201 0.791348
0.732799 0.794995 0.818677
0.849226 0.829496 0.866392
0.748577 0.92607 0.896269
0.758846 0.929534 0.899672
0.796551 0.936431 0.903029
0.878843 0.950225 0.916625
0.957687 0.964019 0.93022
0.104906 0.0912795 0.719753
0.104906 0.0912795 0.730053
0.393439 0.0912795 0.757534
0.635462 0.263752 0.793469
0.831983 0.515572 0.835416
0.103838 0.191318 0.753017
0.103655 0.20856 0.759701
0.394766 0.287907 0.779461
0.643915 0.43624 0.805356
0.834821 0.570764 0.845121
0.206363 0.560418 0.804013
0.340169 0.574228 0.807309
0.504814 0.594919 0.817395
0.676188 0.629419 0.837629
0.840391 0.691508 0.867872
0.506325 0.774289 0.863554
0.540642 0.777752 0.863508
0.622995 0.784649 0.870314
0.739635 0.798444 0.880461
0.859556 0.826032 0.900786
0.741665 0.929534 0.920287
0.751934 0.932982 0.920241
0.779339 0.939879 0.923598
0.865064 0.953674 0.930327
0.964523 0.967468 0.943923
0.104906 0.0912795 0.953323
0.104906 0.0912795 0.953323
0.412573 0.229267 0.955276
0.667735 0.456931 0.952834
0.851774 0.59147 0.951385
0.102907 0.277562 0.954757
0.102586 0.308598 0.954421
0.45182 0.412085 0.953307
0.683986 0.543175 0.94847
0.854734 0.636316 0.950896
0.302235 0.588022 0.947982
0.38117 0.594919 0.947906
0.538903 0.619058 0.947662
0.710124 0.667353 0.947143
0.863996 0.732906 0.949874
0.60557 0.808789 0.94905
0.622751 0.808789 0.94905
0.66743 0.805341 0.949096
0.760143 0.808789 0.952483
0.90071 0.832944 0.959106
0.77229 0.957122 0.968063
0.779156 0.957122 0.968063
0.810025 0.960571 0.968032
0.885557 0.964019 0.971435
0.971359 0.970916 0.971359
